; generated by PrusaSlicer 2.5.0+win64 on 2023-04-24 at 21:12:21 UTC

; 

; external perimeters extrusion width = 0.60mm
; perimeters extrusion width = 0.50mm
; infill extrusion width = 0.50mm
; solid infill extrusion width = 0.50mm
; top infill extrusion width = 0.45mm
; support material extrusion width = 0.38mm
; first layer extrusion width = 0.42mm

M73 P0 R121
M73 Q0 S121
M201 X1000 Y1000 Z200 E5000 ; sets maximum accelerations, mm/sec^2
M203 X200 Y200 Z12 E120 ; sets maximum feedrates, mm / sec
M204 P1250 R1250 T1250 ; sets acceleration (P, T) and retract acceleration (R), mm/sec^2
M205 X8.00 Y8.00 Z0.40 E4.50 ; sets the jerk limits, mm/sec
M205 S0 T0 ; sets the minimum extruding and travel feed rate, mm/sec
M107
;TYPE:Custom
M862.3 P "MK3S" ; printer model check
M862.1 P0.4 ; nozzle diameter check
M115 U3.10.1 ; tell printer latest fw version
G90 ; use absolute coordinates
M83 ; extruder relative mode
M104 S230 ; set extruder temp
M140 S85 ; set bed temp
M190 S85 ; wait for bed temp
M109 S230 ; wait for extruder temp
G28 W ; home all without mesh bed level
G80 ; mesh bed leveling
G1 Y-3.0 F1000.0 ; go outside print area
G92 E0.0
G1 X60.0 E9.0 F1000.0 ; intro line
G1 X100.0 E12.5 F1000.0 ; intro line
G92 E0.0
M221 S95

; Don't change E values below. Excessive value can damage the printer.

M907 E538 ; set extruder motor current
G21 ; set units to millimeters
G90 ; use absolute coordinates
M83 ; use relative distances for extrusion
M900 K0.08 ; Filament gcode LA 1.5
M900 K45 ; Filament gcode LA 1.0
M107
;LAYER_CHANGE
;Z:0.2
;HEIGHT:0.2
;BEFORE_LAYER_CHANGE
G92 E0.0
;0.2


G1 E-1 F2100
G1 Z.2 F10800
;AFTER_LAYER_CHANGE
;0.2
G1 Z.4
G1 X141.168 Y130.876
G1 Z.2
G1 E1 F2100
M204 S1000
;TYPE:Skirt/Brim
;WIDTH:0.42
G1 F1200
G1 X146.905 Y125.14 E.25437
G1 X148.586 Y124.444 E.05704
G1 X213.18 Y124.444 E2.02529
G1 X214.86 Y125.14 E.05704
G1 X220.597 Y130.876 E.25437
G1 X221.293 Y132.557 E.05704
G1 X221.293 Y197.151 E2.02529
G1 X220.597 Y198.832 E.05704
M73 P0 R120
G1 X214.86 Y204.568 E.25437
G1 X213.18 Y205.265 E.05704
G1 X148.586 Y205.265 E2.02529
G1 X146.905 Y204.568 E.05704
G1 X141.168 Y198.832 E.25437
G1 X140.472 Y197.151 E.05704
G1 X140.472 Y132.557 E2.02529
G1 X141.145 Y130.932 E.05516
; printing object FRONT_CASE.stl id:0 copy 0
;WIPE_START
M73 Q0 S120
G1 F8640
G1 X144.046 Y128.014 E-.95
;WIPE_END
G1 E-.05 F2100
G1 Z.4 F10800
G1 X143.345 Y132.763
G1 Z.2
G1 E1 F2100
;TYPE:External perimeter
;WIDTH:0.592372
G1 F1200
G1 X143.567 Y132.526 E.01481
;WIDTH:0.571459
G1 X148.555 Y127.539 E.31
;WIDTH:0.592372
G1 X148.791 Y127.317 E.01481
G1 X149.115 Y127.306 E.01481
;WIDTH:0.57146
G1 X212.65 Y127.306 E2.79223
;WIDTH:0.592371
G1 X212.974 Y127.317 E.01481
G1 X213.211 Y127.539 E.01481
;WIDTH:0.571459
G1 X218.198 Y132.526 E.31
;WIDTH:0.592372
G1 X218.42 Y132.763 E.01481
G1 X218.42 Y132.877 E.0052
G1 X218.43 Y133.087 E.00962
;WIDTH:0.57146
G1 X218.43 Y196.621 E2.79223
;WIDTH:0.592372
G1 X218.42 Y196.945 E.01481
G1 X218.198 Y197.182 E.01481
;WIDTH:0.571459
G1 X213.211 Y202.17 E.31
;WIDTH:0.592371
G1 X212.974 Y202.391 E.01481
G1 X212.65 Y202.402 E.01481
;WIDTH:0.57146
G1 X149.115 Y202.402 E2.79223
;WIDTH:0.592372
G1 X148.791 Y202.391 E.01481
G1 X148.555 Y202.17 E.01481
;WIDTH:0.571459
G1 X143.567 Y197.182 E.31
;WIDTH:0.592372
G1 X143.345 Y196.945 E.01481
G1 X143.335 Y196.621 E.01481
;WIDTH:0.57146
G1 X143.335 Y133.087 E2.79223
;WIDTH:0.592372
G1 X143.343 Y132.823 E.01207
G1 X143.91 Y132.934 F10800
;WIDTH:0.575466
G1 F1200
G1 X143.941 Y132.9 E.00204
;WIDTH:0.571459
G1 X148.929 Y127.912 E.31
;WIDTH:0.575465
G1 X149.069 Y127.837 E.00707
G1 X149.115 Y127.835 E.00204
;WIDTH:0.57146
G1 X212.65 Y127.835 E2.79223
;WIDTH:0.592371
G1 X212.755 Y127.845 E.00483
G1 X212.837 Y127.912 E.00483
;WIDTH:0.571459
G1 X217.825 Y132.9 E.31
;WIDTH:0.592372
G1 X217.891 Y132.982 E.00483
G1 X217.902 Y133.087 E.00483
;WIDTH:0.57146
G1 X217.902 Y196.621 E2.79223
;WIDTH:0.575466
G1 X217.856 Y196.774 E.00707
G1 X217.825 Y196.808 E.00204
;WIDTH:0.571459
G1 X212.837 Y201.796 E.31
;WIDTH:0.575465
G1 X212.696 Y201.871 E.00707
G1 X212.65 Y201.873 E.00204
;WIDTH:0.57146
G1 X149.115 Y201.873 E2.79223
;WIDTH:0.575466
G1 X148.963 Y201.827 E.00707
G1 X148.929 Y201.796 E.00204
;WIDTH:0.571459
G1 X143.941 Y196.808 E.31
;WIDTH:0.575465
G1 X143.865 Y196.667 E.00707
G1 X143.863 Y196.621 E.00204
;WIDTH:0.57146
G1 X143.863 Y133.087 E2.79223
;WIDTH:0.575466
G1 X143.892 Y132.991 E.00442
; stop printing object FRONT_CASE.stl id:0 copy 0
;LAYER_CHANGE
;Z:0.5
;HEIGHT:0.3
;BEFORE_LAYER_CHANGE
G92 E0.0
;0.5


;WIPE_START
G1 F8640
G1 X143.941 Y132.9 E-.02389
G1 X146.777 Y130.064 E-.92611
;WIPE_END
G1 E-.05 F2100
G1 Z.4 F10800
G1 Z.5
;AFTER_LAYER_CHANGE
;0.5
M104 S240 ; set temperature
M140 S90 ; set bed temperature
G1 Z.7
G1 X144.379 Y127.666
G1 Z.5
G1 E1 F2100
;TYPE:Skirt/Brim
;WIDTH:0.42
G1 F2700
G1 X146.905 Y125.14 E.15845
G1 X148.586 Y124.444 E.0807
G1 X213.18 Y124.444 E2.86504
G1 X214.86 Y125.14 E.0807
G1 X220.597 Y130.876 E.35984
G1 X221.293 Y132.557 E.0807
G1 X221.293 Y197.151 E2.86504
G1 X220.597 Y198.832 E.0807
G1 X214.86 Y204.568 E.35984
G1 X213.18 Y205.265 E.0807
G1 X148.586 Y205.265 E2.86504
G1 X146.905 Y204.568 E.0807
G1 X141.168 Y198.832 E.35984
G1 X140.472 Y197.151 E.0807
G1 X140.472 Y132.557 E2.86504
G1 X141.168 Y130.876 E.0807
G1 X144.336 Y127.708 E.19873
; printing object FRONT_CASE.stl id:0 copy 0
;WIPE_START
G1 F8640
G1 X146.905 Y125.14 E-.83874
G1 X147.35 Y124.955 E-.11126
;WIPE_END
G1 E-.05 F2100
G1 Z.7 F10800
G1 X143.149 Y132.682
G1 Z.5
G1 E1 F2100
M204 S800
;TYPE:External perimeter
;WIDTH:0.6
G1 X148.71 Y127.121 E.52538
G1 X213.055 Y127.121 E4.2986
G1 X218.616 Y132.682 E.52538
G1 X218.616 Y197.027 E4.2986
G1 X213.055 Y202.588 E.52538
G1 X148.71 Y202.588 E4.2986
G1 X143.149 Y197.027 E.52538
G1 X143.149 Y132.742 E4.29459
M204 S1000
G1 X143.549 Y132.671 F10800
;WIPE_START
G1 F8640
G1 X146.043 Y129.817 E-.95
;WIPE_END
G1 E-.05 F2100
G1 Z.7 F10800
G1 X144.128 Y132.976
G1 Z.5
G1 E1 F2100
M204 S800
G1 X149.004 Y128.099 E.46075
G1 X149.194 Y128.021 E.01369
G1 X212.572 Y128.021 E4.23397
G1 X212.761 Y128.099 E.01369
G1 X217.638 Y132.976 E.46075
G1 X217.716 Y133.165 E.01369
G1 X217.716 Y196.543 E4.23397
G1 X217.668 Y196.697 E.01077
M73 Q1 S120
G1 X217.638 Y196.732 E.0031
G1 X212.761 Y201.609 E.46075
G1 X212.618 Y201.684 E.01077
G1 X212.572 Y201.688 E.0031
G1 X149.194 Y201.688 E4.23397
G1 X149.004 Y201.609 E.01369
M73 P1 R119
G1 X144.128 Y196.732 E.46075
G1 X144.049 Y196.543 E.01369
G1 X144.049 Y133.165 E4.23397
G1 X144.105 Y133.031 E.00968
M204 S1000
G1 X143.928 Y132.629 F10800
G1 X143.773 Y132.702
M204 S800
;TYPE:Perimeter
;WIDTH:0.457163
G1 F3000
G1 X143.809 Y132.658 E.00282
;WIDTH:0.428761
G1 X148.686 Y127.781 E.31345
;WIDTH:0.457163
G1 X148.797 Y127.69 E.00703
;WIDTH:0.485565
G1 X148.908 Y127.599 E.00754
G1 X149.051 Y127.585 E.00754
;WIDTH:0.457164
G1 X149.194 Y127.571 E.00703
;WIDTH:0.428763
G1 X212.572 Y127.571 E2.88037
;WIDTH:0.457162
G1 X212.714 Y127.585 E.00703
;WIDTH:0.485561
G1 X212.857 Y127.599 E.00754
G1 X212.968 Y127.69 E.00754
;WIDTH:0.457161
G1 X213.079 Y127.781 E.00703
;WIDTH:0.428761
G1 X217.956 Y132.658 E.31345
;WIDTH:0.457162
G1 X218.047 Y132.769 E.00703
;WIDTH:0.485563
G1 X218.138 Y132.88 E.00754
G1 X218.152 Y133.022 E.00754
;WIDTH:0.457162
G1 X218.166 Y133.165 E.00703
;WIDTH:0.428761
G1 X218.166 Y196.543 E2.88036
;WIDTH:0.457162
G1 X218.152 Y196.686 E.00703
;WIDTH:0.485563
G1 X218.138 Y196.829 E.00754
G1 X218.047 Y196.94 E.00754
;WIDTH:0.457162
G1 X217.956 Y197.051 E.00703
;WIDTH:0.428761
G1 X213.079 Y201.927 E.31345
;WIDTH:0.457161
G1 X212.968 Y202.018 E.00703
;WIDTH:0.485561
G1 X212.857 Y202.109 E.00754
G1 X212.714 Y202.123 E.00754
;WIDTH:0.457162
G1 X212.572 Y202.138 E.00703
;WIDTH:0.428763
G1 X149.194 Y202.138 E2.88037
;WIDTH:0.457164
G1 X149.051 Y202.123 E.00703
;WIDTH:0.485565
M73 Q1 S119
G1 X148.908 Y202.109 E.00754
G1 X148.797 Y202.018 E.00754
;WIDTH:0.457163
G1 X148.686 Y201.927 E.00703
;WIDTH:0.428761
G1 X143.809 Y197.051 E.31345
;WIDTH:0.457163
G1 X143.719 Y196.94 E.00703
;WIDTH:0.485565
G1 X143.628 Y196.829 E.00754
G1 X143.613 Y196.686 E.00754
;WIDTH:0.457164
G1 X143.599 Y196.543 E.00703
;WIDTH:0.428763
G1 X143.599 Y133.165 E2.88037
;WIDTH:0.457164
G1 X143.613 Y133.022 E.00703
;WIDTH:0.485565
G1 X143.628 Y132.88 E.00754
G1 X143.719 Y132.769 E.00754
;WIDTH:0.457163
G1 X143.735 Y132.749 E.00127
M204 S1000
; stop printing object FRONT_CASE.stl id:0 copy 0
;LAYER_CHANGE
;Z:0.8
;HEIGHT:0.3
;BEFORE_LAYER_CHANGE
G92 E0.0
;0.8


;WIPE_START
G1 F8640
G1 X143.809 Y132.658 E-.02713
G1 X146.636 Y129.832 E-.92287
;WIPE_END
G1 E-.05 F2100
G1 Z.7 F10800
G1 Z.8
;AFTER_LAYER_CHANGE
;0.8
G1 Z1
G1 X144.424 Y127.62
G1 Z.8
G1 E1 F2100
;TYPE:Skirt/Brim
;WIDTH:0.42
G1 F2700
G1 X146.905 Y125.14 E.1556
G1 X148.586 Y124.444 E.0807
G1 X213.18 Y124.444 E2.86504
G1 X214.86 Y125.14 E.0807
G1 X220.597 Y130.876 E.35984
G1 X221.293 Y132.557 E.0807
G1 X221.293 Y197.151 E2.86504
G1 X220.597 Y198.832 E.0807
G1 X214.86 Y204.568 E.35984
G1 X213.18 Y205.265 E.0807
G1 X148.586 Y205.265 E2.86504
G1 X146.905 Y204.568 E.0807
G1 X141.168 Y198.832 E.35984
G1 X140.472 Y197.151 E.0807
G1 X140.472 Y132.557 E2.86504
G1 X141.168 Y130.876 E.0807
G1 X144.382 Y127.663 E.20158
; printing object FRONT_CASE.stl id:0 copy 0
;WIPE_START
G1 F8640
G1 X146.905 Y125.14 E-.82388
G1 X147.41 Y124.931 E-.12612
;WIPE_END
G1 E-.05 F2100
G1 Z1 F10800
G1 X148.71 Y127.121
G1 Z.8
G1 E1 F2100
M204 S800
;TYPE:External perimeter
;WIDTH:0.6
G1 X213.055 Y127.121 E4.2986
G1 X218.616 Y132.682 E.52538
G1 X218.616 Y197.027 E4.2986
G1 X213.055 Y202.588 E.52538
G1 X148.71 Y202.588 E4.2986
G1 X143.149 Y197.027 E.52538
G1 X143.149 Y132.682 E4.2986
G1 X148.668 Y127.163 E.52137
M204 S1000
G1 X149.051 Y127.33 F10800
;WIPE_START
G1 F8640
G1 X152.782 Y127.16 E-.95
;WIPE_END
G1 E-.05 F2100
G1 Z1 F10800
G1 X149.194 Y128.021
G1 Z.8
G1 E1 F2100
M204 S800
G1 X212.572 Y128.021 E4.23397
G1 X212.761 Y128.099 E.01369
G1 X217.638 Y132.976 E.46075
G1 X217.716 Y133.165 E.01369
G1 X217.716 Y196.543 E4.23397
G1 X217.668 Y196.697 E.01077
G1 X217.638 Y196.732 E.0031
G1 X212.761 Y201.609 E.46075
G1 X212.618 Y201.684 E.01077
G1 X212.572 Y201.688 E.0031
G1 X149.194 Y201.688 E4.23397
G1 X149.004 Y201.609 E.01369
G1 X144.128 Y196.732 E.46075
G1 X144.049 Y196.543 E.01369
G1 X144.049 Y133.165 E4.23397
G1 X144.128 Y132.976 E.01369
G1 X149.004 Y128.099 E.46075
G1 X149.138 Y128.044 E.00968
M204 S1000
G1 X149.299 Y127.635 F10800
G1 X149.137 Y127.576
M204 S800
;TYPE:Perimeter
;WIDTH:0.457164
G1 F3000
G1 X149.194 Y127.571 E.00282
;WIDTH:0.428763
G1 X212.572 Y127.571 E2.88037
;WIDTH:0.457162
G1 X212.714 Y127.585 E.00703
;WIDTH:0.485561
G1 X212.857 Y127.599 E.00754
G1 X212.968 Y127.69 E.00754
;WIDTH:0.457161
G1 X213.079 Y127.781 E.00703
;WIDTH:0.428761
G1 X217.956 Y132.658 E.31345
;WIDTH:0.457162
G1 X218.047 Y132.769 E.00703
;WIDTH:0.485563
G1 X218.138 Y132.88 E.00754
G1 X218.152 Y133.022 E.00754
;WIDTH:0.457162
G1 X218.166 Y133.165 E.00703
;WIDTH:0.428761
G1 X218.166 Y196.543 E2.88036
;WIDTH:0.457162
G1 X218.152 Y196.686 E.00703
;WIDTH:0.485563
G1 X218.138 Y196.829 E.00754
G1 X218.047 Y196.94 E.00754
;WIDTH:0.457162
G1 X217.956 Y197.051 E.00703
;WIDTH:0.428761
G1 X213.079 Y201.927 E.31345
;WIDTH:0.457161
G1 X212.968 Y202.018 E.00703
;WIDTH:0.485561
G1 X212.857 Y202.109 E.00754
G1 X212.714 Y202.123 E.00754
;WIDTH:0.457162
G1 X212.572 Y202.138 E.00703
;WIDTH:0.428763
G1 X149.194 Y202.138 E2.88037
;WIDTH:0.457164
G1 X149.051 Y202.123 E.00703
;WIDTH:0.485565
G1 X148.908 Y202.109 E.00754
G1 X148.797 Y202.018 E.00754
;WIDTH:0.457163
G1 X148.686 Y201.927 E.00703
;WIDTH:0.428761
G1 X143.809 Y197.051 E.31345
;WIDTH:0.457163
G1 X143.719 Y196.94 E.00703
;WIDTH:0.485565
G1 X143.628 Y196.829 E.00754
G1 X143.613 Y196.686 E.00754
;WIDTH:0.457164
G1 X143.599 Y196.543 E.00703
;WIDTH:0.428763
G1 X143.599 Y133.165 E2.88037
;WIDTH:0.457164
G1 X143.613 Y133.022 E.00703
;WIDTH:0.485565
G1 X143.628 Y132.88 E.00754
G1 X143.719 Y132.769 E.00754
;WIDTH:0.457163
G1 X143.809 Y132.658 E.00703
;WIDTH:0.428761
G1 X148.686 Y127.781 E.31345
;WIDTH:0.457163
G1 X148.797 Y127.69 E.00703
;WIDTH:0.485565
G1 X148.908 Y127.599 E.00754
G1 X149.051 Y127.585 E.00754
;WIDTH:0.457164
G1 X149.077 Y127.582 E.00127
M204 S1000
; stop printing object FRONT_CASE.stl id:0 copy 0
M106 S38.25
;LAYER_CHANGE
;Z:1.1
;HEIGHT:0.3
;BEFORE_LAYER_CHANGE
G92 E0.0
;1.1


;WIPE_START
G1 F8640
G1 X149.194 Y127.571 E-.02713
G1 X153.191 Y127.571 E-.92287
;WIPE_END
G1 E-.05 F2100
G1 Z1 F10800
G1 Z1.1
;AFTER_LAYER_CHANGE
;1.1
; printing object FRONT_CASE.stl id:0 copy 0
G1 Z1.3
G1 X148.71 Y127.121
G1 Z1.1
G1 E1 F2100
M204 S800
;TYPE:External perimeter
;WIDTH:0.6
G1 X213.055 Y127.121 E4.2986
G1 X218.616 Y132.682 E.52538
G1 X218.616 Y197.027 E4.2986
G1 X213.055 Y202.588 E.52538
G1 X148.71 Y202.588 E4.2986
G1 X143.149 Y197.027 E.52538
G1 X143.149 Y132.682 E4.2986
G1 X148.668 Y127.163 E.52137
M204 S1000
G1 X149.051 Y127.33 F10800
G1 X149.004 Y128.099
M204 S800
G1 F2100
G1 X149.194 Y128.021 E.01369
G1 X212.572 Y128.021 E4.23397
G1 X212.761 Y128.099 E.01369
G1 X217.638 Y132.976 E.46075
G1 X217.716 Y133.165 E.01369
G1 X217.716 Y196.543 E4.23397
G1 X217.668 Y196.697 E.01077
G1 X217.638 Y196.732 E.0031
G1 X212.761 Y201.609 E.46075
G1 X212.618 Y201.684 E.01077
G1 X212.572 Y201.688 E.0031
G1 X149.194 Y201.688 E4.23397
G1 X149.004 Y201.609 E.01369
G1 X144.128 Y196.732 E.46075
G1 X144.049 Y196.543 E.01369
G1 X144.049 Y133.165 E4.23397
G1 X144.128 Y132.976 E.01369
G1 X148.962 Y128.141 E.45674
M204 S1000
G1 X149.004 Y127.894 F10800
G1 X148.731 Y127.744
M204 S800
;TYPE:Perimeter
;WIDTH:0.457163
G1 F3000
G1 X148.797 Y127.69 E.00421
;WIDTH:0.485565
G1 X148.908 Y127.599 E.00754
G1 X149.051 Y127.585 E.00754
;WIDTH:0.457164
G1 X149.194 Y127.571 E.00703
;WIDTH:0.428763
G1 X212.572 Y127.571 E2.88037
;WIDTH:0.457162
G1 X212.714 Y127.585 E.00703
;WIDTH:0.485561
G1 X212.857 Y127.599 E.00754
G1 X212.968 Y127.69 E.00754
;WIDTH:0.457161
G1 X213.079 Y127.781 E.00703
;WIDTH:0.428761
G1 X217.956 Y132.658 E.31345
;WIDTH:0.457162
G1 X218.047 Y132.769 E.00703
;WIDTH:0.485563
G1 X218.138 Y132.88 E.00754
G1 X218.152 Y133.022 E.00754
;WIDTH:0.457162
G1 X218.166 Y133.165 E.00703
;WIDTH:0.428761
G1 X218.166 Y196.543 E2.88036
;WIDTH:0.457162
G1 X218.152 Y196.686 E.00703
;WIDTH:0.485563
G1 X218.138 Y196.829 E.00754
G1 X218.047 Y196.94 E.00754
;WIDTH:0.457162
G1 X217.956 Y197.051 E.00703
;WIDTH:0.428761
G1 X213.079 Y201.927 E.31345
;WIDTH:0.457161
G1 X212.968 Y202.018 E.00703
;WIDTH:0.485561
G1 X212.857 Y202.109 E.00754
G1 X212.714 Y202.123 E.00754
;WIDTH:0.457162
G1 X212.572 Y202.138 E.00703
;WIDTH:0.428763
G1 X149.194 Y202.138 E2.88037
;WIDTH:0.457164
G1 X149.051 Y202.123 E.00703
;WIDTH:0.485565
M73 P1 R118
G1 X148.908 Y202.109 E.00754
G1 X148.797 Y202.018 E.00754
;WIDTH:0.457163
G1 X148.686 Y201.927 E.00703
;WIDTH:0.428761
G1 X143.809 Y197.051 E.31345
;WIDTH:0.457163
G1 X143.719 Y196.94 E.00703
;WIDTH:0.485565
G1 X143.628 Y196.829 E.00754
G1 X143.613 Y196.686 E.00754
;WIDTH:0.457164
G1 X143.599 Y196.543 E.00703
;WIDTH:0.428763
G1 X143.599 Y133.165 E2.88037
;WIDTH:0.457164
G1 X143.613 Y133.022 E.00703
;WIDTH:0.485565
G1 X143.628 Y132.88 E.00754
G1 X143.719 Y132.769 E.00754
;WIDTH:0.457163
G1 X143.809 Y132.658 E.00703
;WIDTH:0.428761
G1 X148.685 Y127.783 E.31333
M204 S1000
; stop printing object FRONT_CASE.stl id:0 copy 0
M106 S76.5
;LAYER_CHANGE
;Z:1.4
;HEIGHT:0.3
;BEFORE_LAYER_CHANGE
G92 E0.0
;1.4


;WIPE_START
G1 F8640
G1 X148.797 Y127.69 E-.0337
G1 X148.908 Y127.599 E-.03313
G1 X149.051 Y127.585 E-.03313
G1 X149.194 Y127.571 E-.03313
G1 X152.732 Y127.571 E-.8169
;WIPE_END
G1 E-.05 F2100
G1 Z1.3 F10800
G1 Z1.4
;AFTER_LAYER_CHANGE
;1.4
; printing object FRONT_CASE.stl id:0 copy 0
G1 Z1.6
G1 X148.71 Y127.121
G1 Z1.4
G1 E1 F2100
M204 S800
;TYPE:External perimeter
;WIDTH:0.6
G1 X213.055 Y127.121 E4.2986
G1 X218.616 Y132.682 E.52538
G1 X218.616 Y197.027 E4.2986
G1 X213.055 Y202.588 E.52538
M73 Q1 S118
G1 X148.71 Y202.588 E4.2986
G1 X143.149 Y197.027 E.52538
G1 X143.149 Y132.682 E4.2986
G1 X148.668 Y127.163 E.52137
M204 S1000
