; generated by PrusaSlicer 2.5.0+win64 on 2023-05-28 at 03:44:26 UTC

; 

; external perimeters extrusion width = 0.60mm
; perimeters extrusion width = 0.50mm
; infill extrusion width = 0.50mm
; solid infill extrusion width = 0.50mm
; top infill extrusion width = 0.45mm
; support material extrusion width = 0.38mm
; first layer extrusion width = 0.42mm

M73 P0 R151
M73 Q0 S151
M201 X1000 Y1000 Z200 E5000 ; sets maximum accelerations, mm/sec^2
M203 X200 Y200 Z12 E120 ; sets maximum feedrates, mm / sec
M204 P1250 R1250 T1250 ; sets acceleration (P, T) and retract acceleration (R), mm/sec^2
M205 X8.00 Y8.00 Z0.40 E4.50 ; sets the jerk limits, mm/sec
M205 S0 T0 ; sets the minimum extruding and travel feed rate, mm/sec
M107
;TYPE:Custom
M862.3 P "MK3S" ; printer model check
M862.1 P0.4 ; nozzle diameter check
M115 U3.10.1 ; tell printer latest fw version
G90 ; use absolute coordinates
M83 ; extruder relative mode
M104 S230 ; set extruder temp
M140 S85 ; set bed temp
M190 S85 ; wait for bed temp
M109 S230 ; wait for extruder temp
G28 W ; home all without mesh bed level
G80 ; mesh bed leveling
G1 Y-3.0 F1000.0 ; go outside print area
G92 E0.0
G1 X60.0 E9.0 F1000.0 ; intro line
G1 X100.0 E12.5 F1000.0 ; intro line
G92 E0.0
M221 S95

; Don't change E values below. Excessive value can damage the printer.

M907 E538 ; set extruder motor current
G21 ; set units to millimeters
G90 ; use absolute coordinates
M83 ; use relative distances for extrusion
M900 K0.08 ; Filament gcode LA 1.5
M900 K45 ; Filament gcode LA 1.0
M107
;LAYER_CHANGE
;Z:0.2
;HEIGHT:0.2
;BEFORE_LAYER_CHANGE
G92 E0.0
;0.2


G1 E-1 F2100
G1 Z.2 F10800
;AFTER_LAYER_CHANGE
;0.2
G1 Z.4
G1 X78.216 Y72.209
G1 Z.2
G1 E1 F2100
M204 S1000
;TYPE:Skirt/Brim
;WIDTH:0.42
G1 F1200
G1 X92.209 Y58.216 E.62047
G1 X93.89 Y57.519 E.05704
G1 X97.442 Y57.536 E.11138
G1 X157.574 Y64.606 E1.8984
G1 X158.978 Y65.286 E.04889
M73 P0 R150
G1 X164.714 Y71.022 E.25437
G1 X165.411 Y72.703 E.05704
G1 X165.411 Y137.297 E2.02529
G1 X164.714 Y138.978 E.05704
M73 Q0 S150
G1 X158.978 Y144.714 E.25437
G1 X157.297 Y145.411 E.05704
G1 X92.703 Y145.411 E2.02529
G1 X91.022 Y144.714 E.05704
G1 X85.286 Y138.978 E.25437
G1 X84.606 Y137.574 E.04889
G1 X77.536 Y77.442 E1.8984
G1 X77.519 Y73.89 E.11138
G1 X78.193 Y72.264 E.05516
; printing object FRONT_CASE.stl id:0 copy 0
;WIPE_START
G1 F8640
G1 X81.099 Y69.352 E-.95
;WIPE_END
G1 E-.05 F2100
G1 Z.4 F10800
G1 X103.724 Y66.457
G1 Z.2
G1 E1 F2100
;TYPE:Support material
G1 F1200
G1 X98.429 Y66.457 E.16602
G1 X98.131 Y66.755 E.01325
G1 X98.131 Y68.928 E.06812
G1 X98.429 Y69.226 E.01325
G1 X102.721 Y69.226 E.13457
G1 X97.164 Y74.784 E.24641
G1 X95.527 Y73.146 E.0726
G1 X93.146 Y75.527 E.10557
G1 X94.784 Y77.164 E.0726
G1 X89.226 Y82.721 E.24641
G1 X89.226 Y78.429 E.13457
G1 X88.928 Y78.131 E.01325
G1 X86.755 Y78.131 E.06812
G1 X86.457 Y78.429 E.01325
G1 X86.457 Y83.724 E.16602
G1 X79.897 Y77.164 E.29088
G1 X81.534 Y75.527 E.0726
G1 X79.897 Y73.89 E.0726
G1 X93.89 Y59.897 E.62047
G1 X95.527 Y61.534 E.0726
G1 X97.164 Y59.897 E.0726
G1 X103.684 Y66.417 E.28911
;WIPE_START
G1 F8640
G1 X100.775 Y63.507 E-.95
;WIPE_END
G1 E-.05 F2100
G1 Z.4 F10800
G1 X89.396 Y81.944
G1 Z.2
G1 E1 F2100
G1 F1200
G1 X94.24 Y77.101 E.21477
G1 X93.943 Y76.804 E.01314
G1 X89.566 Y81.182 E.19411
G1 X89.566 Y80.589 E.01858
G1 X93.647 Y76.508 E.18097
G1 X93.351 Y76.212 E.01314
G1 X89.566 Y79.997 E.16784
G1 X89.566 Y79.404 E.01858
G1 X93.175 Y75.795 E.16002
;WIPE_START
G1 F8640
G1 X90.265 Y78.705 E-.95
;WIPE_END
G1 E-.05 F2100
G1 Z.4 F10800
G1 X96.981 Y74.36
G1 Z.2
G1 E1 F2100
G1 F1200
G1 X101.774 Y69.566 E.21257
G1 X101.182 Y69.566 E.01858
G1 X96.804 Y73.943 E.19411
G1 X96.508 Y73.647 E.01314
G1 X100.589 Y69.566 E.18097
G1 X99.997 Y69.566 E.01858
G1 X96.212 Y73.351 E.16784
G1 X95.915 Y73.055 E.01314
G1 X99.404 Y69.566 E.1547
G1 X98.812 Y69.566 E.01858
G1 X89.566 Y78.812 E.40998
G1 X89.566 Y78.289 E.01639
G1 X89.531 Y78.254 E.00154
G1 X98.254 Y69.531 E.38679
G1 X97.958 Y69.235 E.01314
G1 X89.235 Y77.958 E.38679
G1 X89.068 Y77.791 E.00738
G1 X88.809 Y77.791 E.00814
G1 X97.791 Y68.809 E.3983
G1 X97.791 Y68.216 E.01858
G1 X88.216 Y77.791 E.42458
G1 X87.624 Y77.791 E.01858
G1 X97.791 Y67.624 E.45085
G1 X97.791 Y67.031 E.01858
G1 X87.031 Y77.791 E.47712
G1 X86.615 Y77.791 E.01306
G1 X86.117 Y78.289 E.02206
G1 X86.117 Y78.705 E.01306
G1 X84.017 Y80.805 E.09311
G1 X84.314 Y81.101 E.01314
G1 X86.117 Y79.298 E.07997
G1 X86.117 Y79.89 E.01858
G1 X84.61 Y81.398 E.06684
G1 X84.906 Y81.694 E.01314
G1 X86.117 Y80.483 E.0537
G1 X86.117 Y81.075 E.01858
G1 X85.202 Y81.99 E.04056
G1 X85.499 Y82.286 E.01314
G1 X86.117 Y81.668 E.02743
G1 X86.117 Y82.26 E.01858
G1 X85.795 Y82.583 E.01429
G1 X86.091 Y82.879 E.01314
G1 X86.287 Y82.683 E.00868
;WIPE_START
G1 F8640
G1 X86.091 Y82.879 E-.0639
G1 X85.795 Y82.583 E-.09674
G1 X86.117 Y82.26 E-.10523
G1 X86.117 Y81.668 E-.13682
G1 X85.499 Y82.286 E-.20198
G1 X85.202 Y81.99 E-.09674
G1 X85.964 Y81.229 E-.24859
;WIPE_END
G1 E-.05 F2100
G1 Z.4 F10800
G1 X102.683 Y66.287
G1 Z.2
G1 E1 F2100
G1 F1200
G1 X102.879 Y66.091 E.00868
G1 X102.583 Y65.795 E.01314
G1 X102.26 Y66.117 E.01429
G1 X101.668 Y66.117 E.01858
G1 X102.286 Y65.499 E.02743
G1 X101.99 Y65.202 E.01314
G1 X101.075 Y66.117 E.04056
G1 X100.483 Y66.117 E.01858
G1 X101.694 Y64.906 E.0537
G1 X101.398 Y64.61 E.01314
G1 X99.89 Y66.117 E.06684
G1 X99.298 Y66.117 E.01858
G1 X101.101 Y64.314 E.07997
G1 X100.805 Y64.017 E.01314
G1 X98.536 Y66.287 E.10063
G1 X83.601 Y80.629 F10800
G1 F1200
G1 X100.509 Y63.721 E.74972
G1 X100.213 Y63.425 E.01314
G1 X83.425 Y80.213 E.7444
G1 X83.129 Y79.916 E.01314
G1 X99.916 Y63.129 E.7444
G1 X99.62 Y62.832 E.01314
G1 X82.832 Y79.62 E.7444
G1 X82.536 Y79.324 E.01314
G1 X99.324 Y62.536 E.7444
G1 X99.028 Y62.24 E.01314
G1 X82.24 Y79.028 E.7444
G1 X81.943 Y78.731 E.01314
G1 X98.731 Y61.943 E.7444
G1 X98.435 Y61.647 E.01314
G1 X81.647 Y78.435 E.7444
G1 X81.351 Y78.139 E.01314
G1 X98.139 Y61.351 E.7444
G1 X97.843 Y61.055 E.01314
G1 X81.055 Y77.843 E.7444
G1 X80.758 Y77.546 E.01314
G1 X97.546 Y60.758 E.7444
G1 X97.25 Y60.462 E.01314
G1 X80.462 Y77.25 E.7444
G1 X80.376 Y77.164 E.0038
G1 X82.014 Y75.527 E.0726
G1 X81.803 Y75.316 E.00934
G1 X95.316 Y61.803 E.59919
G1 X95.02 Y61.507 E.01314
G1 X81.507 Y75.02 E.59919
G1 X81.211 Y74.724 E.01314
G1 X94.724 Y61.211 E.59919
G1 X94.428 Y60.915 E.01314
G1 X80.915 Y74.428 E.59919
G1 X80.618 Y74.131 E.01314
G1 X94.251 Y60.498 E.60451
;WIPE_START
G1 F8640
G1 X91.342 Y63.408 E-.95
;WIPE_END
G1 E-.05 F2100
G1 Z.4 F10800
G1 X99.051 Y67.376
G1 Z.2
G1 E1 F2100
;TYPE:External perimeter
;WIDTH:0.419999
G1 F1200
G1 X157.127 Y67.377 E1.82094
G1 X162.624 Y72.873 E.24372
G1 X162.624 Y137.127 E2.01464
G1 X157.127 Y142.624 E.24372
G1 X92.873 Y142.624 E2.01464
G1 X87.377 Y137.127 E.24372
G1 X87.376 Y79.051 E1.82094
G1 X88.307 Y79.051 E.02916
M73 P0 R149
M73 Q0 S149
G1 X88.307 Y136.664 E1.80641
G1 X88.362 Y136.797 E.00452
G1 X93.203 Y141.638 E.21467
G1 X93.336 Y141.693 E.00452
G1 X156.664 Y141.693 E1.98558
G1 X156.797 Y141.638 E.00452
G1 X161.638 Y136.797 E.21467
G1 X161.693 Y136.664 E.00452
G1 X161.693 Y73.336 E1.98558
G1 X161.638 Y73.203 E.00452
G1 X156.797 Y68.362 E.21467
G1 X156.664 Y68.307 E.00452
G1 X99.051 Y68.307 E1.80641
G1 X99.051 Y67.436 E.02728
G1 X99.451 Y67.379 F10800
G1 X99.516 Y67.842
;TYPE:Perimeter
;WIDTH:0.595842
G1 F1200
G1 X156.664 Y67.842 E2.62742
;WIDTH:0.621699
G1 X156.794 Y67.854 E.00629
;WIDTH:0.647556
G1 X156.924 Y67.867 E.00657
G1 X157.025 Y67.95 E.00657
;WIDTH:0.621698
G1 X157.126 Y68.033 E.00629
;WIDTH:0.595842
G1 X161.967 Y72.874 E.31478
;WIDTH:0.6217
G1 X162.05 Y72.975 E.00629
;WIDTH:0.647558
G1 X162.133 Y73.076 E.00657
G1 X162.146 Y73.206 E.00657
;WIDTH:0.6217
G1 X162.159 Y73.336 E.00629
;WIDTH:0.595842
G1 X162.159 Y136.664 E2.91152
;WIDTH:0.6217
G1 X162.146 Y136.794 E.00629
;WIDTH:0.647558
M73 P1 R149
M73 Q1 S149
G1 X162.133 Y136.924 E.00657
G1 X162.05 Y137.025 E.00657
;WIDTH:0.6217
G1 X161.967 Y137.126 E.00629
;WIDTH:0.595842
G1 X157.126 Y141.967 E.31478
;WIDTH:0.621699
G1 X157.025 Y142.05 E.00629
;WIDTH:0.647558
G1 X156.924 Y142.133 E.00657
G1 X156.794 Y142.146 E.00657
;WIDTH:0.6217
G1 X156.664 Y142.159 E.00629
;WIDTH:0.595842
G1 X93.336 Y142.159 E2.91152
;WIDTH:0.621699
G1 X93.206 Y142.146 E.00629
;WIDTH:0.647556
G1 X93.076 Y142.133 E.00657
G1 X92.975 Y142.05 E.00657
;WIDTH:0.621699
G1 X92.874 Y141.967 E.00629
;WIDTH:0.595842
G1 X88.033 Y137.126 E.31478
;WIDTH:0.621699
G1 X87.95 Y137.025 E.00629
;WIDTH:0.647556
G1 X87.867 Y136.924 E.00657
G1 X87.854 Y136.794 E.00657
;WIDTH:0.621699
G1 X87.842 Y136.664 E.00629
;WIDTH:0.595842
G1 X87.842 Y79.516 E2.62742
; stop printing object FRONT_CASE.stl id:0 copy 0
;LAYER_CHANGE
;Z:0.439571
;HEIGHT:0.239571
;BEFORE_LAYER_CHANGE
G92 E0.0
;0.439571


;WIPE_START
G1 F8640
G1 X87.842 Y83.63 E-.95
;WIPE_END
G1 E-.05 F2100
G1 Z.4 F10800
G1 Z.44
;AFTER_LAYER_CHANGE
;0.439571
M104 S240 ; set temperature
M140 S90 ; set bed temperature
; printing object FRONT_CASE.stl id:0 copy 0
G1 Z.64
G1 X88.201 Y78.183
G1 Z.44
G1 E1 F2100
;TYPE:Support material
;WIDTH:0.38
G1 F2700
G1 X86.777 Y78.183 E.0466
G1 X86.509 Y78.451 E.01241
G1 X86.509 Y79.608 E.03786
G1 X84.065 Y77.164 E.11309
G1 X85.524 Y75.706 E.06752
;WIPE_START
G1 F8640
G1 X84.065 Y77.164 E-.47638
G1 X85.516 Y78.615 E-.47362
;WIPE_END
G1 E-.05 F2100
G1 Z.64 F10800
G1 X84.065 Y73.89
G1 Z.44
G1 E1 F2100
G1 F2700
G1 X88.359 Y78.183 E.19871
G1 X88.906 Y78.183 E.01792
G1 X89.174 Y78.451 E.01241
G1 X89.174 Y78.605 E.00503
G1 X90.615 Y77.164 E.06667
G1 X85.703 Y72.252 E.22736
G1 X87.228 Y70.726 E.07062
G1 X89.156 Y75.348 F10800
G1 F2700
G1 X90.615 Y73.89 E.06752
G1 X87.34 Y70.615 E.15157
G1 X88.977 Y68.977 E.07579
G1 X92.252 Y72.252 E.15157
G1 X93.89 Y70.615 E.07579
G1 X90.615 Y67.34 E.15157
G1 X92.141 Y65.814 E.07062
;WIPE_START
G1 F8640
G1 X90.615 Y67.34 E-.49824
G1 X91.998 Y68.723 E-.45176
;WIPE_END
G1 E-.05 F2100
G1 Z.64 F10800
G1 X97.164 Y64.065
G1 Z.44
G1 E1 F2100
G1 F2700
G1 X99.608 Y66.509 E.11309
G1 X98.451 Y66.509 E.03786
G1 X98.183 Y66.777 E.01241
G1 X98.183 Y68.359 E.05177
G1 X93.89 Y64.065 E.19871
G1 X92.252 Y65.703 E.07579
G1 X97.164 Y70.615 E.22736
; stop printing object FRONT_CASE.stl id:0 copy 0
;LAYER_CHANGE
;Z:0.5
;HEIGHT:0.0604292
;BEFORE_LAYER_CHANGE
G92 E0.0
;0.5


;WIPE_START
G1 F8640
G1 X94.255 Y67.706 E-.95
;WIPE_END
G1 E-.05 F2100
G1 Z.64 F10800
;AFTER_LAYER_CHANGE
;0.5
G1 X88.487 Y61.937
G1 Z.5
G1 E1 F2100
;TYPE:Skirt/Brim
;WIDTH:0.42
;HEIGHT:0.3
G1 F2700
G1 X92.209 Y58.216 E.23345
G1 X93.89 Y57.519 E.0807
G1 X97.442 Y57.536 E.15757
G1 X157.574 Y64.606 E2.68554
G1 X158.978 Y65.286 E.06916
G1 X164.714 Y71.022 E.35984
G1 X165.411 Y72.703 E.0807
G1 X165.411 Y137.297 E2.86504
G1 X164.714 Y138.978 E.0807
G1 X158.978 Y144.714 E.35984
G1 X157.297 Y145.411 E.0807
G1 X92.703 Y145.411 E2.86504
G1 X91.022 Y144.714 E.0807
G1 X85.286 Y138.978 E.35984
G1 X84.606 Y137.574 E.06916
G1 X77.536 Y77.442 E2.68554
G1 X77.519 Y73.89 E.15757
G1 X78.216 Y72.209 E.0807
G1 X88.445 Y61.98 E.64163
; printing object FRONT_CASE.stl id:0 copy 0
;WIPE_START
G1 F8640
G1 X91.354 Y59.071 E-.95
;WIPE_END
G1 E-.05 F2100
G1 Z.7 F10800
G1 X99.362 Y67.995
G1 Z.5
G1 E1 F2100
M204 S800
;TYPE:Perimeter
;WIDTH:0.371572
G1 F3000
G1 X99.362 Y67.688 E.01177
G1 X156.585 Y67.688 E2.19248
;WIDTH:0.404918
G1 X156.991 Y67.705 E.01725
G1 X157.29 Y67.98 E.01725
;WIDTH:0.371572
G1 X162.02 Y72.71 E.25632
;WIDTH:0.404918
G1 X162.295 Y73.009 E.01725
G1 X162.295 Y73.079 E.003
G1 X162.312 Y73.415 E.01426
;WIDTH:0.371571
G1 X162.312 Y136.585 E2.42035
;WIDTH:0.404918
G1 X162.295 Y136.991 E.01725
G1 X162.02 Y137.29 E.01725
;WIDTH:0.371572
G1 X157.29 Y142.02 E.25632
;WIDTH:0.404918
G1 X156.991 Y142.295 E.01725
G1 X156.585 Y142.312 E.01725
;WIDTH:0.371572
G1 X93.415 Y142.312 E2.42035
;WIDTH:0.404918
G1 X93.009 Y142.295 E.01725
G1 X92.71 Y142.02 E.01725
;WIDTH:0.371572
G1 X87.98 Y137.29 E.25632
;WIDTH:0.404918
G1 X87.705 Y136.991 E.01725
G1 X87.688 Y136.585 E.01725
;WIDTH:0.371572
G1 X87.688 Y79.362 E2.19248
G1 X87.995 Y79.362 E.01177
G1 X87.995 Y136.585 E2.19248
;WIDTH:0.404918
G1 X88.032 Y136.855 E.01158
G1 X88.197 Y137.073 E.01158
;WIDTH:0.371572
G1 X92.927 Y141.803 E.25632
;WIDTH:0.404918
G1 X93.145 Y141.968 E.01158
G1 X93.415 Y142.005 E.01158
;WIDTH:0.371572
G1 X156.585 Y142.005 E2.42035
;WIDTH:0.404918
G1 X156.855 Y141.968 E.01158
G1 X157.073 Y141.803 E.01158
;WIDTH:0.371572
G1 X161.803 Y137.073 E.25632
;WIDTH:0.404918
G1 X161.968 Y136.855 E.01158
G1 X162.005 Y136.585 E.01158
;WIDTH:0.371571
G1 X162.005 Y73.415 E2.42035
;WIDTH:0.404918
G1 X161.968 Y73.145 E.01158
G1 X161.803 Y72.927 E.01158
;WIDTH:0.371572
G1 X157.073 Y68.197 E.25632
;WIDTH:0.404918
G1 X156.855 Y68.032 E.01158
G1 X156.585 Y67.995 E.01158
;WIDTH:0.371572
G1 X99.422 Y67.995 E2.19018
M204 S1000
G1 X98.941 Y68.417 F10800
M204 S800
;TYPE:External perimeter
;WIDTH:0.6
G1 F2100
G1 X98.941 Y67.266 E.07683
G1 X157.173 Y67.266 E3.8902
G1 X162.734 Y72.827 E.52538
G1 X162.734 Y137.173 E4.2986
G1 X157.173 Y142.734 E.52538
G1 X92.827 Y142.734 E4.2986
G1 X87.266 Y137.173 E.52538
G1 X87.266 Y78.941 E3.8902
G1 X88.417 Y78.941 E.07683
G1 X88.417 Y136.585 E3.85097
G1 X88.495 Y136.775 E.01369
M73 P1 R148
M73 Q1 S148
G1 X93.225 Y141.505 E.44691
G1 X93.415 Y141.584 E.01369
G1 X156.585 Y141.584 E4.22014
G1 X156.632 Y141.579 E.0031
G1 X156.775 Y141.505 E.01077
G1 X161.505 Y136.775 E.44691
G1 X161.535 Y136.739 E.0031
G1 X161.584 Y136.585 E.01077
G1 X161.584 Y73.415 E4.22014
G1 X161.505 Y73.225 E.01369
G1 X156.775 Y68.495 E.44691
G1 X156.585 Y68.417 E.01369
G1 X99.001 Y68.417 E3.84696
M204 S1000
G1 X99.141 Y68.07 F10800
; stop printing object FRONT_CASE.stl id:0 copy 0
;LAYER_CHANGE
;Z:0.679142
;HEIGHT:0.179142
;BEFORE_LAYER_CHANGE
G92 E0.0
;0.679142


;WIPE_START
G1 F8640
G1 X98.941 Y67.266 E-.2659
G1 X101.903 Y67.266 E-.6841
;WIPE_END
G1 E-.05 F2100
G1 Z.7 F10800
;AFTER_LAYER_CHANGE
;0.679142
; printing object FRONT_CASE.stl id:0 copy 0
G1 X97.164 Y64.065
G1 Z.679
G1 E1 F2100
;TYPE:Support material
;WIDTH:0.38
;HEIGHT:0.239571
G1 F2700
G1 X99.608 Y66.509 E.11309
G1 X98.451 Y66.509 E.03786
G1 X98.183 Y66.777 E.01241
G1 X98.183 Y68.359 E.05177
G1 X93.89 Y64.065 E.19871
G1 X92.252 Y65.703 E.07579
G1 X97.164 Y70.615 E.22736
G1 X92.141 Y65.814 F10800
G1 F2700
G1 X90.615 Y67.34 E.07062
G1 X93.89 Y70.615 E.15157
G1 X92.252 Y72.252 E.07579
G1 X88.977 Y68.977 E.15157
G1 X87.34 Y70.615 E.07579
G1 X90.615 Y73.89 E.15157
G1 X89.156 Y75.348 E.06752
G1 X88.201 Y78.183 F10800
G1 F2700
G1 X86.777 Y78.183 E.0466
G1 X86.509 Y78.451 E.01241
G1 X86.509 Y79.608 E.03786
G1 X84.065 Y77.164 E.11309
G1 X85.524 Y75.706 E.06752
;WIPE_START
G1 F8640
G1 X84.065 Y77.164 E-.47638
G1 X85.516 Y78.615 E-.47362
;WIPE_END
G1 E-.05 F2100
G1 Z.879 F10800
G1 X84.065 Y73.89
G1 Z.679
G1 E1 F2100
G1 F2700
G1 X88.359 Y78.183 E.19871
G1 X88.906 Y78.183 E.01792
G1 X89.174 Y78.451 E.01241
G1 X89.174 Y78.605 E.00503
G1 X90.615 Y77.164 E.06667
G1 X85.703 Y72.252 E.22736
G1 X87.228 Y70.726 E.07062
; stop printing object FRONT_CASE.stl id:0 copy 0
;LAYER_CHANGE
;Z:0.8
;HEIGHT:0.120858
;BEFORE_LAYER_CHANGE
G92 E0.0
;0.8


;WIPE_START
G1 F8640
G1 X85.703 Y72.252 E-.49824
G1 X87.086 Y73.636 E-.45176
;WIPE_END
G1 E-.05 F2100
G1 Z.879 F10800
;AFTER_LAYER_CHANGE
;0.8
G1 X81.937 Y68.487
G1 Z.8
G1 E1 F2100
;TYPE:Skirt/Brim
;WIDTH:0.42
;HEIGHT:0.3
G1 F2700
G1 X92.209 Y58.216 E.64429
G1 X93.89 Y57.519 E.0807
G1 X97.442 Y57.536 E.15757
G1 X157.574 Y64.606 E2.68554
G1 X158.978 Y65.286 E.06916
G1 X164.714 Y71.022 E.35984
G1 X165.411 Y72.703 E.0807
G1 X165.411 Y137.297 E2.86504
G1 X164.714 Y138.978 E.0807
G1 X158.978 Y144.714 E.35984
G1 X157.297 Y145.411 E.0807
G1 X92.703 Y145.411 E2.86504
G1 X91.022 Y144.714 E.0807
G1 X85.286 Y138.978 E.35984
G1 X84.606 Y137.574 E.06916
G1 X77.536 Y77.442 E2.68554
G1 X77.519 Y73.89 E.15757
G1 X78.216 Y72.209 E.0807
G1 X81.895 Y68.529 E.23079
; printing object FRONT_CASE.stl id:0 copy 0
;WIPE_START
G1 F8640
G1 X84.804 Y65.62 E-.95
;WIPE_END
G1 E-.05 F2100
G1 Z1 F10800
G1 X87.995 Y79.362
G1 Z.8
G1 E1 F2100
M204 S800
;TYPE:Perimeter
;WIDTH:0.371572
G1 F3000
