; generated by PrusaSlicer 2.5.0+win64 on 2023-07-21 at 05:36:54 UTC

; 

; external perimeters extrusion width = 0.60mm
; perimeters extrusion width = 0.50mm
; infill extrusion width = 0.50mm
; solid infill extrusion width = 0.50mm
; top infill extrusion width = 0.45mm
; first layer extrusion width = 0.42mm

; external perimeters extrusion width = 0.60mm
; perimeters extrusion width = 0.50mm
; infill extrusion width = 0.50mm
; solid infill extrusion width = 0.50mm
; top infill extrusion width = 0.45mm
; first layer extrusion width = 0.42mm

M73 P0 R173
M73 Q0 S174
M201 X1000 Y1000 Z200 E5000 ; sets maximum accelerations, mm/sec^2
M203 X200 Y200 Z12 E120 ; sets maximum feedrates, mm / sec
M204 P1250 R1250 T1250 ; sets acceleration (P, T) and retract acceleration (R), mm/sec^2
M205 X8.00 Y8.00 Z0.40 E4.50 ; sets the jerk limits, mm/sec
M205 S0 T0 ; sets the minimum extruding and travel feed rate, mm/sec
M107
;TYPE:Custom
M862.3 P "MK3S" ; printer model check
M862.1 P0.4 ; nozzle diameter check
M115 U3.10.1 ; tell printer latest fw version
G90 ; use absolute coordinates
M83 ; extruder relative mode
M104 S230 ; set extruder temp
M140 S85 ; set bed temp
M190 S85 ; wait for bed temp
M109 S230 ; wait for extruder temp
G28 W ; home all without mesh bed level
G80 ; mesh bed leveling
G1 Y-3.0 F1000.0 ; go outside print area
G92 E0.0
G1 X60.0 E9.0 F1000.0 ; intro line
G1 X100.0 E12.5 F1000.0 ; intro line
G92 E0.0
M221 S95

; Don't change E values below. Excessive value can damage the printer.

M907 E538 ; set extruder motor current
G21 ; set units to millimeters
G90 ; use absolute coordinates
M83 ; use relative distances for extrusion
M900 K0.08 ; Filament gcode LA 1.5
M900 K45 ; Filament gcode LA 1.0
M107
;LAYER_CHANGE
;Z:0.2
;HEIGHT:0.2
;BEFORE_LAYER_CHANGE
G92 E0.0
;0.2


G1 E-1 F2100
G1 Z.2 F10800
;AFTER_LAYER_CHANGE
;0.2
G1 Z.4
G1 X18.531 Y13.884
G1 Z.2
G1 E1 F2100
M204 S1000
;TYPE:Skirt/Brim
;WIDTH:0.42
G1 F1200
G1 X19.64 Y13.089 E.04278
G1 X20.413 Y12.959 E.02457
G1 X232.868 Y12.915 E6.6614
G1 X234.549 Y13.612 E.05704
M73 Q0 S173
G1 X238.372 Y17.435 E.16953
G1 X239.114 Y18.177 E.03289
G1 X239.81 Y19.858 E.05704
G1 X239.81 Y82.794 E1.97334
G1 X239.114 Y84.475 E.05704
G1 X234.549 Y89.04 E.20242
G1 X232.869 Y89.737 E.05702
G1 X20.456 Y89.78 E6.66006
G1 X18.775 Y89.084 E.05704
G1 X14.952 Y85.261 E.16953
G1 X14.21 Y84.519 E.03289
G1 X13.514 Y82.838 E.05704
G1 X13.521 Y75.33 E.23541
G1 X18.043 Y15.158 E1.89197
G1 X18.51 Y13.94 E.0409
; printing object MOUNT-1.stl id:0 copy 0
;WIPE_START
M73 P0 R172
G1 F8640
G1 X19.64 Y13.089 E-.32671
G1 X20.413 Y12.959 E-.18092
G1 X22.329 Y12.959 E-.44237
;WIPE_END
G1 E-.05 F2100
G1 Z.4 F10800
G1 X26.576 Y35.294
G1 Z.2
G1 E1 F2100
;TYPE:Perimeter
;WIDTH:0.419999
G1 F1200
G1 X26.692 Y35.272 E.00371
G1 X29.135 Y35.272 E.0766
G1 X29.254 Y35.285 E.00377
G1 X29.497 Y35.404 E.00848
G1 X29.645 Y35.594 E.00754
G1 X29.7 Y35.838 E.00786
G1 X29.7 Y40.281 E.1393
G1 X29.645 Y40.525 E.00784
G1 X29.458 Y40.745 E.00905
G1 X29.21 Y40.842 E.00835
G1 X29.135 Y40.847 E.00236
G1 X26.692 Y40.847 E.0766
G1 X26.444 Y40.789 E.00798
G1 X26.266 Y40.653 E.00704
G1 X26.135 Y40.379 E.00953
G1 X26.126 Y40.281 E.00308
G1 X26.126 Y35.838 E.1393
G1 X26.193 Y35.572 E.0086
G1 X26.353 Y35.386 E.00769
G1 X26.52 Y35.317 E.00568
G1 X26.692 Y35.649 F10800
;TYPE:External perimeter
G1 F1200
G1 X29.135 Y35.649 E.0766
G1 X29.175 Y35.654 E.00126
G1 X29.288 Y35.728 E.00425
G1 X29.323 Y35.838 E.00363
G1 X29.323 Y40.281 E.1393
G1 X29.256 Y40.426 E.005
G1 X29.135 Y40.469 E.00404
G1 X26.692 Y40.469 E.0766
G1 X26.55 Y40.405 E.00489
G1 X26.503 Y40.281 E.00415
G1 X26.503 Y35.838 E.1393
G1 X26.55 Y35.714 E.00415
G1 X26.637 Y35.674 E.00301
G1 X26.795 Y35.263 F10800
;WIPE_START
G1 F8640
G1 X29.135 Y35.649 E-.57672
G1 X29.175 Y35.654 E-.00925
G1 X29.288 Y35.728 E-.03127
G1 X29.323 Y35.838 E-.0267
G1 X29.323 Y37.164 E-.30607
;WIPE_END
G1 E-.05 F2100
G1 Z.4 F10800
G1 X35.083 Y35.293
G1 Z.2
G1 E1 F2100
;TYPE:Perimeter
G1 F1200
G1 X35.128 Y35.276 E.00153
G1 X35.448 Y35.272 E.01004
G1 X37.635 Y35.272 E.06855
G1 X37.808 Y35.3 E.00551
G1 X38.058 Y35.463 E.00935
G1 X38.19 Y35.73 E.00935
G1 X38.2 Y40.281 E.14268
G1 X38.14 Y40.535 E.00819
G1 X37.946 Y40.753 E.00916
G1 X37.665 Y40.846 E.00927
G1 X35.131 Y40.843 E.07947
G1 X34.868 Y40.745 E.00878
G1 X34.682 Y40.525 E.00905
G1 X34.626 Y40.281 E.00784
G1 X34.626 Y35.838 E.1393
G1 X34.682 Y35.594 E.00786
G1 X34.869 Y35.374 E.00905
G1 X35.027 Y35.314 E.00528
G1 X35.192 Y35.649 F10800
;TYPE:External perimeter
G1 F1200
G1 X37.635 Y35.649 E.0766
G1 X37.776 Y35.713 E.00485
G1 X37.823 Y35.838 E.00419
G1 X37.823 Y40.281 E.1393
G1 X37.774 Y40.409 E.0043
G1 X37.635 Y40.469 E.00475
G1 X35.192 Y40.469 E.0766
G1 X35.039 Y40.391 E.0054
G1 X35.003 Y40.281 E.00362
G1 X35.003 Y35.838 E.1393
G1 X35.071 Y35.693 E.00501
G1 X35.136 Y35.67 E.00215
G1 X35.295 Y35.263 F10800
;WIPE_START
G1 F8640
G1 X37.635 Y35.649 E-.57712
G1 X37.776 Y35.713 E-.03573
G1 X37.823 Y35.838 E-.03088
G1 X37.823 Y37.164 E-.30627
;WIPE_END
G1 E-.05 F2100
G1 Z.4 F10800
G1 X46.206 Y45.014
G1 Z.2
G1 E1 F2100
;TYPE:Perimeter
;WIDTH:0.453862
G1 F1200
G1 X46.816 Y44.536 E.02647
;WIDTH:0.419999
G1 X47.504 Y44.066 E.02613
G1 X48.044 Y43.766 E.01937
G1 X48.603 Y43.506 E.01933
G1 X49.179 Y43.286 E.01933
G1 X49.77 Y43.109 E.01933
G1 X50.348 Y42.981 E.01859
G1 X50.981 Y42.885 E.02007
G1 X51.596 Y42.839 E.01933
G1 X52.212 Y42.838 E.01933
G1 X52.827 Y42.881 E.01933
G1 X53.379 Y42.96 E.01747
G1 X54.04 Y43.099 E.02118
G1 X54.631 Y43.273 E.01933
G1 X55.172 Y43.476 E.01811
G1 X55.637 Y43.686 E.016
G1 X56.308 Y44.045 E.02386
G1 X56.825 Y44.38 E.01933
G1 X57.267 Y44.713 E.01734
G1 X57.597 Y45.001 E.01374
G1 X57.32 Y44.52 E.0174
G1 X57.131 Y43.935 E.01928
G1 X57.083 Y43.142 E.02493
G1 X57.204 Y42.569 E.01837
G1 X57.335 Y42.196 E.01239
G1 X57.626 Y41.691 E.01827
G1 X58.166 Y41.139 E.02422
G1 X58.659 Y40.833 E.01818
G1 X59.213 Y40.631 E.01849
G1 X60 Y40.549 E.02482
G1 X60.525 Y40.615 E.01659
G1 X61.154 Y40.843 E.02095
G1 X61.791 Y41.279 E.02422
G1 X62.298 Y41.889 E.02487
G1 X62.616 Y42.62 E.025
G1 X62.717 Y43.385 E.02419
G1 X62.601 Y44.169 E.02485
G1 X62.283 Y44.873 E.02422
G1 X61.77 Y45.478 E.02487
G1 X61.2 Y45.859 E.0215
G1 X60.871 Y46.007 E.0113
G1 X60.369 Y46.151 E.01637
G1 X59.812 Y46.173 E.0175
G1 X59.352 Y46.131 E.01448
G1 X58.829 Y45.981 E.01705
G1 X58.241 Y45.624 E.02158
;WIDTH:0.3898
G1 X58.154 Y45.565 E.00302
;WIDTH:0.419999
G1 X58.586 Y46.034 E.02
G1 X58.979 Y46.562 E.02065
G1 X59.307 Y47.084 E.01933
G1 X59.597 Y47.628 E.01933
G1 X59.847 Y48.191 E.01933
G1 X60.049 Y48.751 E.01866
G1 X60.222 Y49.363 E.01995
G1 X60.346 Y49.969 E.01937
G1 X60.425 Y50.58 E.01933
G1 X60.458 Y51.174 E.01866
G1 X60.45 Y51.81 E.01995
G1 X60.396 Y52.426 E.01937
G1 X60.298 Y53.034 E.01933
G1 X60.156 Y53.634 E.01933
G1 X59.971 Y54.222 E.01933
G1 X59.744 Y54.795 E.01933
G1 X59.476 Y55.351 E.01933
G1 X59.169 Y55.885 E.01933
G1 X58.825 Y56.396 E.01933
G1 X58.494 Y56.817 E.01679
;WIDTH:0.418564
G1 X58.265 Y57.071 E.01068
;WIDTH:0.419999
G1 X58.659 Y56.835 E.0144
G1 X59.213 Y56.633 E.01849
G1 X60 Y56.551 E.02482
G1 X60.52 Y56.616 E.01641
G1 X61.108 Y56.828 E.0196
G1 X61.292 Y56.919 E.00644
G1 X61.791 Y57.281 E.01934
G1 X62.298 Y57.891 E.02487
G1 X62.616 Y58.622 E.025
G1 X62.706 Y59.276 E.0207
G1 X62.712 Y59.544 E.0084
G1 X62.601 Y60.171 E.01996
G1 X62.317 Y60.804 E.02175
G1 X62.196 Y61.005 E.00735
G1 X61.77 Y61.48 E.02001
G1 X61.105 Y61.92 E.025
G1 X60.369 Y62.153 E.0242
G1 X59.577 Y62.175 E.02485
G1 X58.829 Y61.983 E.02422
G1 X58.144 Y61.583 E.02487
G1 X57.63 Y61.044 E.02335
G1 X57.366 Y60.628 E.01545
G1 X57.131 Y59.937 E.02289
G1 X57.091 Y59.381 E.01749
G1 X57.113 Y58.934 E.01402
G1 X57.249 Y58.39 E.01759
G1 X57.585 Y57.785 E.02171
;WIDTH:0.399314
G1 X57.635 Y57.698 E.00296
;WIDTH:0.419999
G1 X57.155 Y58.115 E.01993
G1 X56.604 Y58.51 E.02125
G1 X56.077 Y58.829 E.01933
G1 X55.527 Y59.109 E.01933
G1 X54.96 Y59.349 E.01933
G1 X54.458 Y59.519 E.0166
G1 X53.78 Y59.703 E.02205
G1 X53.173 Y59.815 E.01933
G1 X52.561 Y59.883 E.01933
G1 X51.945 Y59.907 E.01933
G1 X51.35 Y59.887 E.01866
G1 X50.717 Y59.821 E.01994
G1 X50.109 Y59.712 E.01937
G1 X49.512 Y59.559 E.01933
G1 X48.927 Y59.363 E.01933
G1 X48.447 Y59.163 E.01633
G1 X47.954 Y58.923 E.01719
G1 X47.279 Y58.532 E.02444
G1 X46.792 Y58.191 E.01866
;WIDTH:0.463993
G1 X46.339 Y57.852 E.01979
;WIDTH:0.474557
G1 X46.277 Y57.815 E.00259
G1 X46.392 Y58.084 E.01051
;WIDTH:0.447278
G1 X46.506 Y58.354 E.00984
;WIDTH:0.419999
G1 X46.651 Y58.774 E.01394
G1 X46.715 Y59.387 E.01933
G1 X46.638 Y59.95 E.01781
G1 X46.528 Y60.368 E.01354
G1 X46.28 Y60.877 E.01776
G1 X45.768 Y61.48 E.02481
G1 X45.103 Y61.92 E.025
G1 X44.367 Y62.153 E.0242
G1 X43.575 Y62.175 E.02485
G1 X42.827 Y61.983 E.02422
G1 X42.142 Y61.583 E.02487
G1 X41.593 Y61.005 E.025
G1 X41.328 Y60.552 E.01645
G1 X41.166 Y60.054 E.01641
G1 X41.102 Y59.782 E.00878
G1 X41.081 Y59.144 E.02001
G1 X41.247 Y58.39 E.02419
G1 X41.624 Y57.693 E.02485
G1 X42.164 Y57.141 E.02422
G1 X42.64 Y56.841 E.01762
G1 X43.211 Y56.633 E.01905
G1 X43.769 Y56.569 E.0176
G1 X44.22 Y56.569 E.01416
G1 X44.553 Y56.627 E.01061
G1 X45.152 Y56.845 E.01996
G1 X45.785 Y57.287 E.02422
G1 X45.431 Y56.912 E.01616
G1 X45.048 Y56.429 E.01933
G1 X44.701 Y55.92 E.01933
G1 X44.392 Y55.387 E.01933
G1 X44.131 Y54.852 E.01866
G1 X43.892 Y54.262 E.01994
G1 X43.722 Y53.731 E.01748
G1 X43.559 Y53.074 E.02121
G1 X43.458 Y52.466 E.01933
G1 X43.401 Y51.852 E.01933
G1 X43.39 Y51.302 E.01726
G1 X43.421 Y50.621 E.02139
G1 X43.497 Y50.009 E.01933
G1 X43.617 Y49.404 E.01933
G1 X43.78 Y48.81 E.01933
G1 X43.984 Y48.235 E.01914
G1 X44.234 Y47.664 E.01951
G1 X44.521 Y47.119 E.01933
G1 X44.847 Y46.596 E.01933
G1 X45.21 Y46.098 E.01933
G1 X45.609 Y45.628 E.01933
;WIDTH:0.41732
G1 X45.63 Y45.589 E.00137
;WIDTH:0.419999
G1 X45.106 Y45.916 E.01934
G1 X44.547 Y46.099 E.01844
G1 X44.212 Y46.173 E.01077
G1 X43.575 Y46.173 E.01996
G1 X42.987 Y46.027 E.019
G1 X42.641 Y45.892 E.01163
G1 X42.142 Y45.581 E.01844
G1 X41.737 Y45.164 E.01824
G1 X41.523 Y44.905 E.01053
G1 X41.318 Y44.52 E.01367
G1 X41.129 Y43.935 E.01928
G1 X41.081 Y43.142 E.02492
G1 X41.247 Y42.388 E.0242
G1 X41.624 Y41.691 E.02484
G1 X42.164 Y41.139 E.02422
G1 X42.657 Y40.833 E.01818
G1 X43.211 Y40.631 E.01849
G1 X43.998 Y40.549 E.02482
G1 X44.553 Y40.625 E.01756
G1 X45.152 Y40.843 E.01996
G1 X45.789 Y41.279 E.02422
G1 X46.243 Y41.821 E.02217
G1 X46.389 Y42.06 E.00877
G1 X46.614 Y42.62 E.01894
G1 X46.715 Y43.385 E.02419
G1 X46.606 Y44.131 E.02362
G1 X46.395 Y44.639 E.01727
;WIDTH:0.453862
G1 X46.233 Y44.96 E.01228
G1 X46.308 Y45.45 F10800
;TYPE:External perimeter
;WIDTH:0.419999
G1 F1200
G1 X46.75 Y45.061 E.01847
G1 X47.201 Y44.716 E.01781
G1 X47.711 Y44.382 E.01912
G1 X48.227 Y44.096 E.01849
G1 X48.761 Y43.848 E.01847
G1 X49.312 Y43.639 E.01847
G1 X49.877 Y43.471 E.01847
G1 X50.429 Y43.349 E.01773
G1 X51.035 Y43.258 E.01921
G1 X51.623 Y43.215 E.01847
G1 X52.212 Y43.215 E.01847
G1 X52.8 Y43.257 E.01847
G1 X53.324 Y43.333 E.01662
G1 X53.959 Y43.467 E.02033
G1 X54.523 Y43.635 E.01847
G1 X55.038 Y43.829 E.01725
G1 X55.61 Y44.09 E.01969
G1 X56.126 Y44.374 E.01847
G1 X56.619 Y44.696 E.01847
G1 X57.038 Y45.014 E.01649
G1 X57.531 Y45.441 E.02045
G1 X57.899 Y45.815 E.01645
G1 X58.299 Y46.278 E.01917
G1 X58.675 Y46.785 E.01979
G1 X58.988 Y47.284 E.01847
G1 X59.264 Y47.804 E.01847
G1 X59.502 Y48.343 E.01847
G1 X59.694 Y48.878 E.01781
G1 X59.859 Y49.465 E.01912
G1 X59.976 Y50.043 E.01849
G1 X60.051 Y50.627 E.01847
G1 X60.082 Y51.195 E.01781
G1 X60.073 Y51.804 E.01912
G1 X60.02 Y52.392 E.01849
G1 X59.925 Y52.973 E.01847
G1 X59.789 Y53.546 E.01847
G1 X59.611 Y54.108 E.01847
G1 X59.394 Y54.656 E.01847
G1 X59.137 Y55.186 E.01847
G1 X58.843 Y55.697 E.01847
G1 X58.513 Y56.185 E.01847
G1 X58.198 Y56.584 E.01594
G1 X57.751 Y57.083 E.021
G1 X57.383 Y57.432 E.01591
G1 X56.915 Y57.823 E.01913
G1 X56.387 Y58.202 E.02037
G1 X55.882 Y58.506 E.01847
G1 X55.357 Y58.773 E.01847
G1 X54.814 Y59.001 E.01847
G1 X54.338 Y59.162 E.01574
G1 X53.685 Y59.338 E.0212
G1 X53.106 Y59.444 E.01847
G1 X52.52 Y59.508 E.01847
G1 X51.931 Y59.53 E.01847
G1 X51.364 Y59.51 E.01781
G1 X50.757 Y59.446 E.01912
G1 X50.177 Y59.341 E.01849
G1 X49.606 Y59.194 E.01847
G1 X49.048 Y59.006 E.01847
G1 X48.504 Y58.779 E.01847
G1 X47.979 Y58.512 E.01847
G1 X47.474 Y58.209 E.01847
G1 X47.009 Y57.882 E.01781
G1 X46.591 Y57.543 E.01688
G1 X46.146 Y57.129 E.01905
G1 X45.71 Y56.658 E.02015
G1 X45.344 Y56.196 E.01847
G1 X45.013 Y55.708 E.01847
G1 X44.718 Y55.198 E.01847
G1 X44.47 Y54.687 E.01781
G1 X44.242 Y54.121 E.01912
G1 X44.082 Y53.617 E.0166
G1 X43.926 Y52.987 E.02036
G1 X43.83 Y52.405 E.01847
G1 X43.777 Y51.818 E.01847
G1 X43.767 Y51.295 E.0164
G1 X43.797 Y50.641 E.02054
G1 X43.871 Y50.056 E.01847
G1 X43.987 Y49.479 E.01847
G1 X44.144 Y48.911 E.01847
G1 X44.339 Y48.362 E.01829
G1 X44.579 Y47.817 E.01866
G1 X44.854 Y47.296 E.01847
G1 X45.167 Y46.796 E.01847
G1 X45.514 Y46.321 E.01847
G1 X45.895 Y45.871 E.01847
G1 X46.266 Y45.493 E.01659
G1 X46.215 Y45.061 F10800
G1 X45.942 Y44.708
G1 F1200
G1 X45.487 Y45.227 E.02163
G1 X44.907 Y45.596 E.02155
G1 X44.383 Y45.754 E.01718
G1 X44.037 Y45.796 E.01092
G1 X43.537 Y45.792 E.01569
G1 X42.936 Y45.62 E.01958
G1 X42.351 Y45.268 E.02141
G1 X41.874 Y44.751 E.02205
G1 X41.676 Y44.405 E.01251
G1 X41.487 Y43.819 E.01928
G1 X41.458 Y43.13 E.02165
G1 X41.613 Y42.48 E.02095
G1 X41.951 Y41.88 E.02158
G1 X42.426 Y41.41 E.02096
G1 X42.786 Y41.187 E.01325
G1 X43.34 Y40.986 E.01849
G1 X44.027 Y40.925 E.02164
G1 X44.424 Y40.98 E.01256
G1 X45.023 Y41.197 E.01996
G1 X45.568 Y41.584 E.02096
G1 X45.946 Y42.054 E.01893
G1 X46.039 Y42.2 E.00542
G1 X46.264 Y42.761 E.01894
G1 X46.34 Y43.425 E.02095
G1 X46.235 Y44.065 E.02036
G1 X45.967 Y44.653 E.02027
G1 X46.122 Y45.065 F10800
G1 X46.206 Y45.014
;TYPE:Perimeter
;WIDTH:0.453862
G1 F1200
G1 X45.764 Y45.474 E.02182
;WIDTH:0.416472
G1 X45.675 Y45.56 E.00383
;WIPE_START
G1 F8640
G1 X45.764 Y45.474 E-.02846
G1 X46.206 Y45.014 E-.14746
;WIPE_END
G1 E-.82408 F2100
G1 Z.4 F10800
G1 X41.676 Y60.407
G1 Z.2
G1 E1 F2100
;TYPE:External perimeter
;WIDTH:0.419999
G1 F1200
G1 X41.487 Y59.821 E.01928
G1 X41.458 Y59.132 E.02165
G1 X41.613 Y58.482 E.02095
G1 X41.951 Y57.882 E.02159
G1 X42.426 Y57.412 E.02096
G1 X42.889 Y57.152 E.01664
G1 X43.363 Y56.981 E.0158
G1 X44.027 Y56.927 E.0209
G1 X44.424 Y56.982 E.01256
G1 X45.023 Y57.199 E.01996
G1 X45.568 Y57.586 E.02096
G1 X46.026 Y58.17 E.02329
G1 X46.264 Y58.763 E.02001
G1 X46.34 Y59.427 E.02095
G1 X46.245 Y60.012 E.01859
G1 X46.189 Y60.202 E.00623
G1 X45.913 Y60.753 E.01932
G1 X45.487 Y61.229 E.02004
G1 X44.904 Y61.6 E.02164
G1 X44.264 Y61.79 E.02095
G1 X43.575 Y61.798 E.02159
G1 X42.93 Y61.621 E.02096
G1 X42.341 Y61.263 E.02163
G1 X41.874 Y60.753 E.02167
G1 X41.706 Y60.459 E.01063
G1 X41.278 Y60.368 F10800
;WIPE_START
G1 F8640
G1 X41.487 Y59.821 E-.15555
G1 X41.458 Y59.132 E-.15941
G1 X41.613 Y58.482 E-.15429
G1 X41.951 Y57.882 E-.15897
G1 X42.426 Y57.412 E-.15436
G1 X42.889 Y57.152 E-.12258
G1 X43.072 Y57.086 E-.04484
;WIPE_END
G1 E-.05 F2100
G1 Z.4 F10800
G1 X45.785 Y57.287
G1 Z.2
G1 E1 F2100
;TYPE:Perimeter
;WIDTH:0.440143
G1 F1200
G1 X46.016 Y57.535 E.01118
;WIDTH:0.476166
G1 X46.247 Y57.782 E.0122
;WIDTH:0.478754
G1 X46.258 Y57.794 E.00059
;WIPE_START
G1 F8640
G1 X46.247 Y57.782 E-.00373
G1 X46.016 Y57.535 E-.07818
G1 X45.785 Y57.287 E-.07818
;WIPE_END
G1 E-.83991 F2100
G1 Z.4 F10800
G1 X57.615 Y58.482
G1 Z.2
G1 E1 F2100
;TYPE:External perimeter
;WIDTH:0.419999
G1 F1200
G1 X57.985 Y57.841 E.02321
G1 X58.428 Y57.412 E.01933
G1 X58.788 Y57.189 E.01325
G1 X59.342 Y56.988 E.01849
G1 X60.029 Y56.927 E.02164
G1 X60.438 Y56.986 E.01293
G1 X61.025 Y57.199 E.01958
G1 X61.57 Y57.586 E.02096
G1 X62.02 Y58.153 E.02269
G1 X62.266 Y58.763 E.02062
G1 X62.331 Y59.316 E.01745
G1 X62.341 Y59.479 E.00513
G1 X62.23 Y60.106 E.01996
G1 X61.978 Y60.639 E.01849
G1 X61.489 Y61.229 E.02402
G1 X60.906 Y61.6 E.02167
G1 X60.266 Y61.79 E.02095
G1 X59.577 Y61.798 E.02159
G1 X58.932 Y61.621 E.02096
G1 X58.343 Y61.263 E.02163
G1 X57.911 Y60.793 E.02002
G1 X57.678 Y60.407 E.01413
