; generated by PrusaSlicer 2.5.0+win64 on 2023-04-29 at 21:10:14 UTC

; 

; external perimeters extrusion width = 0.60mm
; perimeters extrusion width = 0.50mm
; infill extrusion width = 0.50mm
; solid infill extrusion width = 0.50mm
; top infill extrusion width = 0.45mm
; support material extrusion width = 0.38mm
; first layer extrusion width = 0.42mm

M73 P0 R159
M73 Q0 S161
M201 X1000 Y1000 Z200 E5000 ; sets maximum accelerations, mm/sec^2
M203 X200 Y200 Z12 E120 ; sets maximum feedrates, mm / sec
M204 P1250 R1250 T1250 ; sets acceleration (P, T) and retract acceleration (R), mm/sec^2
M205 X8.00 Y8.00 Z0.40 E4.50 ; sets the jerk limits, mm/sec
M205 S0 T0 ; sets the minimum extruding and travel feed rate, mm/sec
M107
;TYPE:Custom
M862.3 P "MK3S" ; printer model check
M862.1 P0.4 ; nozzle diameter check
M115 U3.10.1 ; tell printer latest fw version
G90 ; use absolute coordinates
M83 ; extruder relative mode
M104 S230 ; set extruder temp
M140 S85 ; set bed temp
M190 S85 ; wait for bed temp
M109 S230 ; wait for extruder temp
G28 W ; home all without mesh bed level
G80 ; mesh bed leveling
G1 Y-3.0 F1000.0 ; go outside print area
G92 E0.0
G1 X60.0 E9.0 F1000.0 ; intro line
G1 X100.0 E12.5 F1000.0 ; intro line
G92 E0.0
M221 S95

; Don't change E values below. Excessive value can damage the printer.

M907 E538 ; set extruder motor current
G21 ; set units to millimeters
G90 ; use absolute coordinates
M83 ; use relative distances for extrusion
M900 K0.08 ; Filament gcode LA 1.5
M900 K45 ; Filament gcode LA 1.0
M107
;LAYER_CHANGE
;Z:0.2
;HEIGHT:0.2
;BEFORE_LAYER_CHANGE
G92 E0.0
;0.2


G1 E-1 F2100
G1 Z.2 F10800
;AFTER_LAYER_CHANGE
;0.2
G1 Z.4
G1 X24.67 Y76.924
G1 Z.2
G1 E1 F2100
M204 S1000
;TYPE:Skirt/Brim
;WIDTH:0.42
G1 F1200
G1 X119.92 Y76.924 E2.9865
G1 X120.45 Y76.984 E.01672
G1 X219.949 Y99.735 E3.20026
G1 X220.803 Y100.119 E.02936
G1 X232.285 Y108.339 E.44275
G1 X233.361 Y109.37 E.04671
G1 X234.057 Y111.051 E.05704
G1 X234.057 Y130.272 E.60267
G1 X233.665 Y131.579 E.04278
G1 X232.177 Y132.597 E.05653
G1 X219.917 Y135.219 E.39311
G1 X219.42 Y135.272 E.01568
G1 X122.052 Y135.272 E3.05288
G1 X18.229 Y131.293 E3.2577
G1 X16.938 Y130.852 E.04278
M73 Q0 S160
G1 X16.102 Y129.773 E.04278
G1 X15.943 Y128.918 E.02728
G1 X15.943 Y85.651 E1.35661
G1 X16.639 Y83.97 E.05704
G1 X22.989 Y77.62 E.28157
G1 X24.615 Y76.947 E.05516
; printing object Body1.stl id:0 copy 0
;WIPE_START
G1 F8640
G1 X28.729 Y76.946 E-.95
;WIPE_END
G1 E-.05 F2100
G1 Z.4 F10800
G1 X219.42 Y132.895
G1 Z.2
G1 E1 F2100
;TYPE:Support material
G1 F1200
G1 X122.052 Y132.895 E3.05288
G1 X122.052 Y102.052 E.96704
M73 P0 R158
G1 X219.42 Y102.052 E3.05288
G1 X219.42 Y132.838 E.96527
G1 X122.222 Y132.234 F10800
G1 F1200
G1 X219.08 Y132.234 E3.03692
G1 X219.08 Y131.815 E.01314
G1 X122.392 Y131.815 E3.0316
G1 X122.392 Y131.396 E.01314
G1 X219.08 Y131.396 E3.0316
G1 X219.08 Y130.977 E.01314
G1 X122.392 Y130.977 E3.0316
G1 X122.392 Y130.558 E.01314
G1 X219.08 Y130.558 E3.0316
G1 X219.08 Y130.139 E.01314
G1 X122.392 Y130.139 E3.0316
G1 X122.392 Y129.72 E.01314
G1 X219.08 Y129.72 E3.0316
G1 X219.08 Y129.301 E.01314
G1 X122.392 Y129.301 E3.0316
G1 X122.392 Y128.882 E.01314
M73 Q0 S159
G1 X219.08 Y128.882 E3.0316
G1 X219.08 Y128.463 E.01314
G1 X122.392 Y128.463 E3.0316
G1 X122.392 Y128.044 E.01314
M73 P1 R157
M73 Q1 S159
G1 X219.08 Y128.044 E3.0316
G1 X219.08 Y127.625 E.01314
G1 X122.392 Y127.625 E3.0316
G1 X122.392 Y127.206 E.01314
G1 X219.08 Y127.206 E3.0316
G1 X219.08 Y126.787 E.01314
G1 X122.392 Y126.787 E3.0316
G1 X122.392 Y126.368 E.01314
G1 X219.08 Y126.368 E3.0316
G1 X219.08 Y125.949 E.01314
G1 X122.392 Y125.949 E3.0316
G1 X122.392 Y125.53 E.01314
G1 X219.08 Y125.53 E3.0316
G1 X219.08 Y125.111 E.01314
G1 X122.392 Y125.111 E3.0316
G1 X122.392 Y124.692 E.01314
G1 X219.08 Y124.692 E3.0316
G1 X219.08 Y124.273 E.01314
G1 X122.392 Y124.273 E3.0316
G1 X122.392 Y123.854 E.01314
G1 X219.08 Y123.854 E3.0316
G1 X219.08 Y123.435 E.01314
M73 Q1 S158
G1 X122.392 Y123.435 E3.0316
G1 X122.392 Y123.016 E.01314
G1 X219.08 Y123.016 E3.0316
G1 X219.08 Y122.597 E.01314
M73 P1 R156
G1 X122.392 Y122.597 E3.0316
G1 X122.392 Y122.178 E.01314
G1 X219.08 Y122.178 E3.0316
G1 X219.08 Y121.759 E.01314
G1 X122.392 Y121.759 E3.0316
G1 X122.392 Y121.34 E.01314
G1 X219.08 Y121.34 E3.0316
G1 X219.08 Y120.921 E.01314
G1 X122.392 Y120.921 E3.0316
G1 X122.392 Y120.502 E.01314
G1 X219.08 Y120.502 E3.0316
G1 X219.08 Y120.083 E.01314
G1 X122.392 Y120.083 E3.0316
G1 X122.392 Y119.664 E.01314
M73 P2 R156
M73 Q2 S158
G1 X219.08 Y119.664 E3.0316
G1 X219.08 Y119.245 E.01314
G1 X122.392 Y119.245 E3.0316
G1 X122.392 Y118.826 E.01314
G1 X219.08 Y118.826 E3.0316
G1 X219.08 Y118.407 E.01314
M73 Q2 S157
G1 X122.392 Y118.407 E3.0316
G1 X122.392 Y117.988 E.01314
G1 X219.08 Y117.988 E3.0316
G1 X219.08 Y117.569 E.01314
M73 P2 R155
G1 X122.392 Y117.569 E3.0316
G1 X122.392 Y117.15 E.01314
G1 X219.08 Y117.15 E3.0316
G1 X219.08 Y116.731 E.01314
G1 X122.392 Y116.731 E3.0316
G1 X122.392 Y116.312 E.01314
G1 X219.08 Y116.312 E3.0316
G1 X219.08 Y115.893 E.01314
G1 X122.392 Y115.893 E3.0316
G1 X122.392 Y115.474 E.01314
G1 X219.08 Y115.474 E3.0316
G1 X219.08 Y115.055 E.01314
G1 X122.392 Y115.055 E3.0316
G1 X122.392 Y114.636 E.01314
G1 X219.08 Y114.636 E3.0316
G1 X219.08 Y114.217 E.01314
G1 X122.392 Y114.217 E3.0316
G1 X122.392 Y113.799 E.01314
G1 X219.08 Y113.799 E3.0316
G1 X219.08 Y113.38 E.01314
M73 Q2 S156
G1 X122.392 Y113.38 E3.0316
G1 X122.392 Y112.961 E.01314
G1 X219.08 Y112.961 E3.0316
G1 X219.08 Y112.542 E.01314
M73 P2 R154
G1 X122.392 Y112.542 E3.0316
G1 X122.392 Y112.123 E.01314
G1 X219.08 Y112.123 E3.0316
G1 X219.08 Y111.704 E.01314
G1 X122.392 Y111.704 E3.0316
G1 X122.392 Y111.285 E.01314
M73 P3 R154
M73 Q3 S156
G1 X219.08 Y111.285 E3.0316
G1 X219.08 Y110.866 E.01314
G1 X122.392 Y110.866 E3.0316
G1 X122.392 Y110.447 E.01314
G1 X219.08 Y110.447 E3.0316
G1 X219.08 Y110.028 E.01314
G1 X122.392 Y110.028 E3.0316
G1 X122.392 Y109.609 E.01314
G1 X219.08 Y109.609 E3.0316
G1 X219.08 Y109.19 E.01314
G1 X122.392 Y109.19 E3.0316
G1 X122.392 Y108.771 E.01314
G1 X219.08 Y108.771 E3.0316
G1 X219.08 Y108.352 E.01314
G1 X122.392 Y108.352 E3.0316
G1 X122.392 Y107.933 E.01314
M73 Q3 S155
G1 X219.08 Y107.933 E3.0316
G1 X219.08 Y107.514 E.01314
G1 X122.392 Y107.514 E3.0316
G1 X122.392 Y107.095 E.01314
M73 P3 R153
G1 X219.08 Y107.095 E3.0316
G1 X219.08 Y106.676 E.01314
G1 X122.392 Y106.676 E3.0316
G1 X122.392 Y106.257 E.01314
G1 X219.08 Y106.257 E3.0316
G1 X219.08 Y105.838 E.01314
G1 X122.392 Y105.838 E3.0316
G1 X122.392 Y105.419 E.01314
G1 X219.08 Y105.419 E3.0316
G1 X219.08 Y105 E.01314
G1 X122.392 Y105 E3.0316
G1 X122.392 Y104.581 E.01314
G1 X219.08 Y104.581 E3.0316
G1 X219.08 Y104.162 E.01314
G1 X122.392 Y104.162 E3.0316
G1 X122.392 Y103.743 E.01314
G1 X219.08 Y103.743 E3.0316
G1 X219.08 Y103.324 E.01314
M73 P4 R153
G1 X122.392 Y103.324 E3.0316
G1 X122.392 Y102.905 E.01314
M73 Q4 S154
G1 X219.08 Y102.905 E3.0316
G1 X219.08 Y102.486 E.01314
G1 X122.222 Y102.486 E3.03692
;WIPE_START
G1 F8640
M73 P4 R152
G1 X126.336 Y102.486 E-.95
;WIPE_END
G1 E-.05 F2100
G1 Z.4 F10800
G1 X222.467 Y129.485
G1 Z.2
G1 E1 F2100
;TYPE:Perimeter
;WIDTH:0.419999
G1 F1200
G1 X222.467 Y111.059 E.57773
G1 X230.575 Y111.059 E.25423
G1 X230.893 Y111.377 E.01408
G1 X230.893 Y129.485 E.56777
G1 X222.527 Y129.485 E.2623
G1 X222.09 Y129.862 F10800
;TYPE:External perimeter
G1 F1200
G1 X222.09 Y110.682 E.60137
G1 X230.732 Y110.682 E.27095
G1 X231.27 Y111.221 E.02388
G1 X231.27 Y129.862 E.58449
G1 X222.15 Y129.862 E.28595
G1 X222.151 Y129.467 F10800
;WIPE_START
G1 F8640
G1 X222.137 Y125.748 E-.95
;WIPE_END
G1 E-.05 F2100
G1 Z.4 F10800
G1 X230.288 Y111.172
G1 Z.2
G1 E1 F2100
;TYPE:Solid infill
;WIDTH:0.421183
G1 F1200
G1 X230.61 Y111.495 E.01435
G1 X230.61 Y112.03 E.01683
G1 X229.922 Y111.342 E.03059
G1 X229.387 Y111.342 E.01683
G1 X230.61 Y112.565 E.05439
G1 X230.61 Y113.1 E.01683
G1 X228.852 Y111.342 E.07818
G1 X228.318 Y111.342 E.01683
G1 X230.61 Y113.635 E.10198
G1 X230.61 Y114.17 E.01683
G1 X227.783 Y111.342 E.12577
G1 X227.248 Y111.342 E.01683
G1 X230.61 Y114.705 E.14957
G1 X230.61 Y115.24 E.01683
G1 X226.713 Y111.342 E.17336
G1 X226.178 Y111.342 E.01683
G1 X230.61 Y115.774 E.19716
G1 X230.61 Y116.309 E.01683
G1 X225.643 Y111.342 E.22095
G1 X225.108 Y111.342 E.01683
G1 X230.61 Y116.844 E.24475
G1 X230.61 Y117.379 E.01683
G1 X224.573 Y111.342 E.26854
G1 X224.038 Y111.342 E.01683
G1 X230.61 Y117.914 E.29234
G1 X230.61 Y118.449 E.01683
G1 X223.503 Y111.342 E.31613
G1 X222.968 Y111.342 E.01683
G1 X230.61 Y118.984 E.33993
G1 X230.61 Y119.519 E.01683
G1 X222.75 Y111.659 E.34963
G1 X222.75 Y112.194 E.01683
G1 X230.61 Y120.054 E.34963
G1 X230.61 Y120.589 E.01683
G1 X222.75 Y112.729 E.34963
G1 X222.75 Y113.264 E.01683
G1 X230.61 Y121.124 E.34963
G1 X230.61 Y121.659 E.01683
G1 X222.75 Y113.799 E.34963
G1 X222.75 Y114.334 E.01683
G1 X230.61 Y122.194 E.34963
G1 X230.61 Y122.729 E.01683
G1 X222.75 Y114.869 E.34963
G1 X222.75 Y115.403 E.01683
G1 X230.61 Y123.264 E.34963
G1 X230.61 Y123.799 E.01683
G1 X222.75 Y115.938 E.34963
G1 X222.75 Y116.473 E.01683
G1 X230.61 Y124.334 E.34963
G1 X230.61 Y124.869 E.01683
G1 X222.75 Y117.008 E.34963
G1 X222.75 Y117.543 E.01683
G1 X230.61 Y125.403 E.34963
G1 X230.61 Y125.938 E.01683
G1 X222.75 Y118.078 E.34963
G1 X222.75 Y118.613 E.01683
G1 X230.61 Y126.473 E.34963
G1 X230.61 Y127.008 E.01683
G1 X222.75 Y119.148 E.34963
G1 X222.75 Y119.683 E.01683
G1 X230.61 Y127.543 E.34963
G1 X230.61 Y128.078 E.01683
G1 X222.75 Y120.218 E.34963
G1 X222.75 Y120.753 E.01683
G1 X230.61 Y128.613 E.34963
G1 X230.61 Y129.148 E.01683
G1 X222.75 Y121.288 E.34963
G1 X222.75 Y121.823 E.01683
G1 X230.129 Y129.202 E.32825
G1 X229.595 Y129.202 E.01683
G1 X222.75 Y122.358 E.30446
G1 X222.75 Y122.893 E.01683
G1 X229.06 Y129.202 E.28066
G1 X228.525 Y129.202 E.01683
G1 X222.75 Y123.428 E.25687
G1 X222.75 Y123.963 E.01683
G1 X227.99 Y129.202 E.23307
G1 X227.455 Y129.202 E.01683
G1 X222.75 Y124.498 E.20928
G1 X222.75 Y125.032 E.01683
G1 X226.92 Y129.202 E.18548
G1 X226.385 Y129.202 E.01683
G1 X222.75 Y125.567 E.16169
G1 X222.75 Y126.102 E.01683
G1 X225.85 Y129.202 E.13789
G1 X225.315 Y129.202 E.01683
G1 X222.75 Y126.637 E.1141
G1 X222.75 Y127.172 E.01683
G1 X224.78 Y129.202 E.0903
G1 X224.245 Y129.202 E.01683
G1 X222.75 Y127.707 E.06651
G1 X222.75 Y128.242 E.01683
G1 X223.71 Y129.202 E.04271
G1 X223.175 Y129.202 E.01683
G1 X222.58 Y128.607 E.02647
;WIPE_START
G1 F8640
G1 X223.175 Y129.202 E-.19429
G1 X223.71 Y129.202 E-.12352
G1 X222.75 Y128.242 E-.31356
G1 X222.75 Y127.707 E-.12352
G1 X223.347 Y128.305 E-.19511
;WIPE_END
G1 E-.05 F2100
G1 Z.4 F10800
G1 X119.133 Y128.083
G1 Z.2
G1 E1 F2100
;TYPE:Perimeter
;WIDTH:0.419999
G1 F1200
G1 X19.107 Y128.083 E3.13623
G1 X19.107 Y85.977 E1.3202
G1 X24.996 Y80.088 E.26113
G1 X119.133 Y80.088 E2.95159
G1 X119.133 Y128.023 E1.50296
G1 X119.51 Y128.46 F10800
;TYPE:External perimeter
G1 F1200
G1 X18.73 Y128.46 E3.15988
G1 X18.73 Y85.821 E1.33692
M73 Q4 S153
G1 X24.84 Y79.711 E.27092
G1 X119.51 Y79.711 E2.96831
G1 X119.51 Y128.4 E1.52661
G1 X119.115 Y128.397 F10800
;WIPE_START
M73 P4 R151
G1 F8640
G1 X115.396 Y128.402 E-.95
;WIPE_END
G1 E-.05 F2100
G1 Z.4 F10800
G1 X50.557 Y89.962
G1 Z.2
G1 E1 F2100
;TYPE:Perimeter
G1 F1200
G1 X50.742 Y90.729 E.02476
G1 X50.843 Y91.553 E.02602
G1 X50.845 Y92.417 E.02708
G1 X50.754 Y93.208 E.02496
G1 X50.566 Y94.016 E.02602
G1 X50.286 Y94.797 E.02602
G1 X49.917 Y95.541 E.02602
G1 X49.464 Y96.236 E.02602
G1 X49.105 Y96.67 E.01768
G1 X48.403 Y97.38 E.03131
G1 X47.669 Y97.945 E.02903
G1 X46.952 Y98.364 E.02602
G1 X46.192 Y98.696 E.02602
G1 X45.398 Y98.937 E.02602
G1 X44.604 Y99.081 E.0253
G1 X43.845 Y99.132 E.02384
G1 X42.982 Y99.096 E.02707
G1 X42.042 Y98.937 E.0299
G1 X41.31 Y98.718 E.02396
G1 X40.547 Y98.393 E.02602
G1 X39.826 Y97.981 E.02602
G1 X39.158 Y97.489 E.02602
G1 X38.552 Y96.922 E.02602
G1 X38.015 Y96.289 E.02602
G1 X37.556 Y95.598 E.02602
G1 X37.18 Y94.858 E.02602
G1 X36.893 Y94.079 E.02602
G1 X36.698 Y93.272 E.02602
G1 X36.597 Y92.449 E.02602
G1 X36.594 Y91.619 E.02602
G1 X36.686 Y90.794 E.02602
G1 X36.874 Y89.986 E.02602
G1 X37.154 Y89.204 E.02602
G1 X37.523 Y88.461 E.02602
G1 X37.976 Y87.766 E.02602
G1 X38.507 Y87.127 E.02602
G1 X39.108 Y86.555 E.02602
G1 X39.771 Y86.056 E.02602
G1 X40.488 Y85.638 E.02602
G1 X41.248 Y85.306 E.02602
G1 X42.042 Y85.064 E.02602
G1 X42.859 Y84.916 E.02602
G1 X43.664 Y84.866 E.0253
G1 X44.514 Y84.909 E.02667
G1 X45.334 Y85.049 E.02608
G1 X46.13 Y85.284 E.02602
G1 X46.893 Y85.609 E.02602
G1 X47.614 Y86.02 E.02602
G1 X48.282 Y86.513 E.02602
G1 X48.888 Y87.08 E.02602
G1 X49.41 Y87.695 E.0253
G1 X49.883 Y88.403 E.02667
G1 X50.26 Y89.144 E.02608
G1 X50.54 Y89.904 E.02541
G1 X50.193 Y90.052 F10800
;TYPE:External perimeter
G1 F1200
G1 X50.375 Y90.816 E.02465
G1 X50.468 Y91.597 E.02465
G1 X50.469 Y92.394 E.025
G1 X50.379 Y93.164 E.0243
G1 X50.199 Y93.929 E.02465
G1 X49.932 Y94.668 E.02465
G1 X49.58 Y95.371 E.02465
G1 X49.149 Y96.029 E.02465
G1 X48.816 Y96.428 E.0163
G1 X48.144 Y97.106 E.02993
G1 X47.444 Y97.643 E.02765
G1 X46.764 Y98.037 E.02465
G1 X46.042 Y98.349 E.02465
G1 X45.29 Y98.576 E.02465
G1 X44.538 Y98.71 E.02393
G1 X43.822 Y98.755 E.0225
G1 X43.004 Y98.72 E.02566
G1 X42.15 Y98.576 E.02715
G1 X41.418 Y98.357 E.02396
G1 X40.696 Y98.047 E.02465
G1 X40.014 Y97.655 E.02465
G1 X39.383 Y97.186 E.02465
G1 X38.81 Y96.648 E.02465
G1 X38.304 Y96.046 E.02465
G1 X37.871 Y95.39 E.02465
G1 X37.517 Y94.688 E.02465
G1 X37.247 Y93.95 E.02465
G1 X37.065 Y93.186 E.02465
G1 X36.972 Y92.405 E.02465
G1 X36.971 Y91.619 E.02465
G1 X37.061 Y90.838 E.02465
G1 X37.241 Y90.073 E.02465
G1 X37.508 Y89.333 E.02465
G1 X37.86 Y88.63 E.02465
G1 X38.291 Y87.973 E.02465
G1 X38.795 Y87.37 E.02465
G1 X39.366 Y86.829 E.02465
G1 X39.996 Y86.359 E.02465
G1 X40.676 Y85.965 E.02465
G1 X41.398 Y85.652 E.02465
G1 X42.15 Y85.426 E.02465
G1 X42.924 Y85.288 E.02465
G1 X43.686 Y85.242 E.02393
G1 X44.493 Y85.285 E.02534
G1 X45.268 Y85.421 E.02467
G1 X46.022 Y85.645 E.02465
G1 X46.744 Y85.955 E.02465
G1 X47.426 Y86.347 E.02465
G1 X48.057 Y86.815 E.02465
G1 X48.63 Y87.354 E.02465
G1 X49.121 Y87.938 E.02393
G1 X49.569 Y88.611 E.02534
G1 X49.923 Y89.313 E.02467
G1 X50.172 Y89.995 E.02277
G1 X50.582 Y90.143 F10800
;WIPE_START
G1 F8640
G1 X50.375 Y90.816 E-.19529
G1 X50.468 Y91.597 E-.18152
G1 X50.469 Y92.394 E-.18413
G1 X50.379 Y93.164 E-.17892
G1 X50.199 Y93.929 E-.18152
G1 X50.157 Y94.046 E-.02863
;WIPE_END
G1 E-.05 F2100
G1 Z.4 F10800
G1 X43.197 Y114.432
G1 Z.2
G1 E1 F2100
;TYPE:Perimeter
G1 F1200
G1 X43.64 Y114.387 E.01395
G1 X44.228 Y114.424 E.01849
G1 X44.783 Y114.563 E.01792
G1 X45.299 Y114.794 E.01773
G1 X45.767 Y115.111 E.01773
G1 X46.173 Y115.505 E.01773
G1 X46.449 Y115.884 E.01471
G1 X46.751 Y116.471 E.02072
G1 X46.905 Y117.015 E.01773
G1 X46.963 Y117.578 E.01773
G1 X46.923 Y118.142 E.01773
G1 X46.784 Y118.69 E.01773
G1 X46.567 Y119.178 E.01675
G1 X46.24 Y119.669 E.01849
G1 X45.842 Y120.08 E.01792
G1 X45.384 Y120.411 E.01773
G1 X44.876 Y120.658 E.01773
G1 X44.332 Y120.812 E.01773
G1 X43.769 Y120.87 E.01773
G1 X43.205 Y120.83 E.01773
G1 X42.657 Y120.692 E.01773
G1 X42.141 Y120.46 E.01773
G1 X41.673 Y120.143 E.01773
G1 X41.267 Y119.749 E.01773
G1 X40.936 Y119.291 E.01773
G1 X40.689 Y118.783 E.01773
G1 X40.535 Y118.239 E.01773
G1 X40.477 Y117.676 E.01773
G1 X40.517 Y117.112 E.01773
G1 X40.656 Y116.564 E.01773
G1 X40.887 Y116.048 E.01773
G1 X41.204 Y115.58 E.01773
G1 X41.598 Y115.174 E.01773
G1 X42.056 Y114.843 E.01773
G1 X42.564 Y114.596 E.01773
G1 X43.137 Y114.439 E.01863
G1 X43.238 Y114.8 F10800
;TYPE:External perimeter
G1 F1200
G1 X43.703 Y114.762 E.01463
G1 X44.204 Y114.8 E.01575
G1 X44.695 Y114.929 E.0159
G1 X45.152 Y115.142 E.01583
G1 X45.569 Y115.434 E.01594
G1 X45.922 Y115.79 E.01574
G1 X46.14 Y116.1 E.01188
G1 X46.409 Y116.631 E.01866
G1 X46.544 Y117.123 E.01599
G1 X46.588 Y117.626 E.01585
G1 X46.545 Y118.124 E.01568
G1 X46.415 Y118.608 E.01568
G1 X46.209 Y119.045 E.01517
G1 X45.906 Y119.483 E.01669
G1 X45.551 Y119.834 E.01568
G1 X45.14 Y120.119 E.01567
G1 X44.685 Y120.327 E.01567
