; generated by PrusaSlicer 2.5.0+win64 on 2023-05-25 at 19:45:48 UTC

; 

; external perimeters extrusion width = 0.60mm
; perimeters extrusion width = 0.50mm
; infill extrusion width = 0.50mm
; solid infill extrusion width = 0.50mm
; top infill extrusion width = 0.45mm
; support material extrusion width = 0.38mm
; first layer extrusion width = 0.42mm

; external perimeters extrusion width = 0.60mm
; perimeters extrusion width = 0.50mm
; infill extrusion width = 0.50mm
; solid infill extrusion width = 0.50mm
; top infill extrusion width = 0.45mm
; support material extrusion width = 0.38mm
; first layer extrusion width = 0.42mm

; external perimeters extrusion width = 0.60mm
; perimeters extrusion width = 0.50mm
; infill extrusion width = 0.50mm
; solid infill extrusion width = 0.50mm
; top infill extrusion width = 0.45mm
; support material extrusion width = 0.38mm
; first layer extrusion width = 0.42mm

M73 P0 R101
M73 Q0 S102
M201 X1000 Y1000 Z200 E5000 ; sets maximum accelerations, mm/sec^2
M203 X200 Y200 Z12 E120 ; sets maximum feedrates, mm / sec
M204 P1250 R1250 T1250 ; sets acceleration (P, T) and retract acceleration (R), mm/sec^2
M205 X8.00 Y8.00 Z0.40 E4.50 ; sets the jerk limits, mm/sec
M205 S0 T0 ; sets the minimum extruding and travel feed rate, mm/sec
M107
;TYPE:Custom
M862.3 P "MK3S" ; printer model check
M862.1 P0.4 ; nozzle diameter check
M115 U3.10.1 ; tell printer latest fw version
G90 ; use absolute coordinates
M83 ; extruder relative mode
M104 S230 ; set extruder temp
M140 S85 ; set bed temp
M190 S85 ; wait for bed temp
M109 S230 ; wait for extruder temp
G28 W ; home all without mesh bed level
G80 ; mesh bed leveling
G1 Y-3.0 F1000.0 ; go outside print area
G92 E0.0
G1 X60.0 E9.0 F1000.0 ; intro line
G1 X100.0 E12.5 F1000.0 ; intro line
G92 E0.0
M221 S95

; Don't change E values below. Excessive value can damage the printer.

M907 E538 ; set extruder motor current
G21 ; set units to millimeters
G90 ; use absolute coordinates
M83 ; use relative distances for extrusion
M900 K0.08 ; Filament gcode LA 1.5
M900 K45 ; Filament gcode LA 1.0
M107
;LAYER_CHANGE
;Z:0.2
;HEIGHT:0.2
;BEFORE_LAYER_CHANGE
G92 E0.0
;0.2


G1 E-1 F2100
G1 Z.2 F10800
;AFTER_LAYER_CHANGE
;0.2
G1 Z.4
G1 X43.046 Y100.548
G1 Z.2
G1 E1 F2100
M204 S1000
;TYPE:Skirt/Brim
;WIDTH:0.42
G1 F1200
G1 X95.278 Y78.186 E1.78149
G1 X96.214 Y77.994 E.02994
G1 X99.214 Y77.994 E.09406
G1 X99.958 Y78.114 E.02364
G1 X153.558 Y95.789 E1.7696
G1 X154.677 Y96.57 E.04278
G1 X155.085 Y97.345 E.02746
G1 X170.992 Y148.856 E1.69035
G1 X171.098 Y149.557 E.02224
G1 X171.098 Y199.625 E1.56982
G1 X170.706 Y200.932 E.04278
G1 X169.661 Y201.808 E.04278
G1 X168.73 Y202.002 E.0298
G1 X86.594 Y202.318 E2.57534
G1 X10.385 Y202.318 E2.38948
G1 X9.574 Y202.256 E.02551
M73 P0 R100
G1 X8.552 Y202.004 E.033
G1 X7.68 Y201.612 E.02999
G1 X7.115 Y201.251 E.02101
G1 X6.137 Y200.338 E.04195
G1 X5.406 Y199.217 E.04195
G1 X4.964 Y197.955 E.04195
G1 X4.833 Y196.774 E.03723
G1 X4.833 Y120.566 E2.38945
G1 X4.895 Y119.755 E.02551
G1 X5.147 Y118.733 E.033
G1 X5.539 Y117.861 E.02999
G1 X5.901 Y117.297 E.02101
G1 X6.599 Y116.509 E.033
G1 X7.115 Y116.082 E.02101
G1 X8.323 Y115.412 E.04331
G1 X42.99 Y100.571 E1.18237
; printing object RWR_BEZEL.stl id:0 copy 0
;WIPE_START
G1 F8640
G1 X46.773 Y98.952 E-.95
;WIPE_END
G1 E-.05 F2100
G1 Z.4 F10800
G1 X88.978 Y122.257
G1 Z.2
G1 E1 F2100
;TYPE:Perimeter
;WIDTH:0.419999
G1 F1200
G1 X88.977 Y195.074 E2.2831
G1 X88.886 Y194.943 E.005
G1 X88.464 Y194.514 E.01886
G1 X87.966 Y194.172 E.01897
G1 X87.573 Y193.998 E.01346
G1 X87.159 Y193.884 E.01346
G1 X86.587 Y193.832 E.01801
G1 X85.921 Y193.907 E.02102
G1 X85.473 Y194.046 E.01469
G1 X85.089 Y194.236 E.01345
G1 X84.737 Y194.481 E.01345
G1 X84.424 Y194.774 E.01345
G1 X84.157 Y195.11 E.01345
G1 X83.941 Y195.482 E.01345
G1 X83.759 Y195.959 E.01603
G1 X83.653 Y196.626 E.02118
G1 X83.671 Y197.153 E.01653
G1 X83.759 Y197.574 E.01345
G1 X83.906 Y197.976 E.01345
G1 X84.111 Y198.354 E.01345
G1 X84.426 Y198.76 E.0161
G1 X84.895 Y199.159 E.01931
G1 X12.081 Y199.16 E2.28302
G1 X12.39 Y198.914 E.01239
G1 X12.685 Y198.596 E.01359
G1 X12.927 Y198.241 E.01349
G1 X13.115 Y197.855 E.01346
G1 X13.244 Y197.446 E.01345
G1 X13.313 Y197.022 E.01345
G1 X13.319 Y196.593 E.01345
G1 X13.231 Y196.048 E.01731
G1 X12.984 Y195.402 E.02168
G1 X12.712 Y194.97 E.01601
G1 X12.362 Y194.597 E.01604
G1 X11.872 Y194.246 E.01888
G1 X11.373 Y193.998 E.01748
G1 X10.928 Y193.877 E.01446
G1 X10.387 Y193.832 E.01701
G1 X9.721 Y193.907 E.02102
G1 X9.274 Y194.046 E.01469
G1 X8.889 Y194.236 E.01345
G1 X8.537 Y194.482 E.01346
G1 X8.223 Y194.777 E.0135
G1 X7.991 Y195.075 E.01185
G1 X7.992 Y122.26 E2.28306
G1 X8.165 Y122.49 E.00902
M73 Q0 S101
G1 X8.472 Y122.797 E.01363
G1 X8.818 Y123.053 E.0135
G1 X9.197 Y123.255 E.01346
G1 X9.602 Y123.399 E.01345
G1 X10.022 Y123.483 E.01345
G1 X10.451 Y123.505 E.01345
G1 X10.878 Y123.464 E.01345
G1 X11.253 Y123.372 E.01212
G1 X11.665 Y123.21 E.01387
G1 X12.045 Y122.991 E.01375
G1 X12.386 Y122.718 E.01368
G1 X12.712 Y122.363 E.01513
G1 X12.984 Y121.931 E.01602
G1 X13.231 Y121.285 E.02168
G1 X13.313 Y120.822 E.01473
G1 X13.319 Y120.393 E.01345
G1 X13.262 Y119.968 E.01345
G1 X13.145 Y119.555 E.01345
G1 X12.968 Y119.164 E.01346
G1 X12.736 Y118.803 E.01346
G1 X12.453 Y118.479 E.01349
G1 X12.083 Y118.174 E.01504
G1 X84.896 Y118.173 E2.28301
G1 X84.426 Y118.573 E.01937
G1 X84.157 Y118.91 E.01351
G1 X83.893 Y119.396 E.01733
G1 X83.694 Y120.058 E.02168
G1 X83.646 Y120.525 E.01473
G1 X83.694 Y121.075 E.0173
G1 X83.864 Y121.641 E.01853
G1 X84.101 Y122.135 E.01717
G1 X84.36 Y122.486 E.0137
G1 X84.668 Y122.794 E.01367
G1 X85.054 Y123.077 E.01498
G1 X85.513 Y123.299 E.016
G1 X86.182 Y123.474 E.02168
G1 X86.651 Y123.505 E.01473
G1 X87.078 Y123.464 E.01345
G1 X87.495 Y123.361 E.01345
G1 X87.892 Y123.199 E.01345
G1 X88.261 Y122.98 E.01346
G1 X88.657 Y122.65 E.01616
G1 X88.94 Y122.304 E.01402
G1 X88.975 Y121.43 F10800
;TYPE:External perimeter
;WIDTH:0.444332
G1 F1200
G1 X88.764 Y121.889 E.01686
;WIDTH:0.419999
G1 X88.603 Y122.14 E.00934
G1 X88.354 Y122.42 E.01176
G1 X88.065 Y122.659 E.01174
G1 X87.744 Y122.852 E.01173
G1 X87.399 Y122.996 E.01173
G1 X87.037 Y123.089 E.01173
G1 X86.665 Y123.128 E.01173
G1 X86.277 Y123.109 E.01216
G1 X85.609 Y122.934 E.02168
G1 X85.238 Y122.747 E.01302
G1 X84.935 Y122.527 E.01173
G1 X84.659 Y122.256 E.01215
G1 X84.429 Y121.95 E.01197
G1 X84.225 Y121.532 E.01459
G1 X84.055 Y120.966 E.01852
G1 X84.022 Y120.553 E.01302
G1 X84.055 Y120.166 E.01216
G1 X84.254 Y119.504 E.02168
G1 X84.455 Y119.141 E.01302
G1 X84.686 Y118.846 E.01175
G1 X84.96 Y118.587 E.01181
G1 X85.273 Y118.374 E.01186
;WIDTH:0.42072
G1 X85.621 Y118.216 E.01203
;WIDTH:0.422702
G1 X85.989 Y118.13 E.01193
G1 X86.583 Y118.097 E.01879
;WIDTH:0.425748
G1 X87.159 Y118.172 E.01847
G1 X87.69 Y118.357 E.01791
;WIDTH:0.423828
G1 X88.234 Y118.733 E.02095
;WIDTH:0.425173
G1 X88.603 Y119.154 E.01777
G1 X88.882 Y119.658 E.01834
;WIDTH:0.417427
G1 X88.999 Y120.055 E.01287
;WIDTH:0.425599
G1 X89.049 Y120.585 E.01695
;WIDTH:0.444332
G1 X88.98 Y121.37 E.02632
;WIPE_START
G1 F8640
G1 X88.764 Y121.889 E-.12979
G1 X88.603 Y122.14 E-.0688
G1 X88.354 Y122.42 E-.08662
G1 X88.065 Y122.659 E-.08646
G1 X87.744 Y122.852 E-.0864
G1 X87.399 Y122.996 E-.08639
G1 X87.037 Y123.089 E-.08639
G1 X86.665 Y123.128 E-.08639
G1 X86.277 Y123.109 E-.08952
G1 X85.677 Y122.952 E-.14324
;WIPE_END
G1 E-.05 F2100
G1 Z.4 F10800
G1 X89.261 Y119.598
G1 Z.2
G1 E1 F2100
;WIDTH:0.429026
G1 F1200
G1 X89.41 Y120.246 E.02136
G1 X89.424 Y120.794 E.01759
;WIDTH:0.446651
G1 X89.371 Y121.504 E.02392
G1 X89.355 Y122.06 E.01867
;WIDTH:0.419999
G1 X89.358 Y195.335 E2.29748
;WIDTH:0.444324
G1 X89.429 Y196.774 E.04811
;WIDTH:0.424843
G1 X89.343 Y197.471 E.02228
;WIDTH:0.421826
G1 X89.116 Y198.068 E.02014
G1 X89.024 Y198.217 E.00552
;WIDTH:0.414201
G1 X88.587 Y198.776 E.02189
;WIDTH:0.431148
G1 X88.179 Y199.119 E.01719
G1 X87.571 Y199.431 E.02207
;WIDTH:0.43015
G1 X86.905 Y199.593 E.02208
;WIDTH:0.426277
G1 X86.263 Y199.601 E.02047
;WIDTH:0.419999
G1 X85.092 Y199.537 E.03676
G1 X84.096 Y199.531 E.03125
G1 X11.868 Y199.538 E2.26463
;WIDTH:0.436109
G1 X10.377 Y199.611 E.04883
;WIDTH:0.431121
G1 X9.682 Y199.52 E.02262
G1 X9.044 Y199.272 E.02208
;WIDTH:0.427863
G1 X8.48 Y198.881 E.02197
;WIDTH:0.422259
G1 X7.977 Y198.271 E.02494
;WIDTH:0.415235
G1 X7.679 Y197.619 E.02219
;WIDTH:0.430891
G1 X7.564 Y197.12 E.01653
G1 X7.535 Y196.728 E.01267
;WIDTH:0.431825
G1 X7.614 Y195.273 E.04713
;WIDTH:0.419999
G1 X7.613 Y122.05 E2.29586
;WIDTH:0.428355
G1 X7.577 Y121.293 E.02427
;WIDTH:0.428777
M73 P1 R100
M73 Q1 S101
G1 X7.54 Y120.558 E.02361
;WIDTH:0.428949
G1 X7.631 Y119.865 E.02246
G1 X7.877 Y119.224 E.02202
;WIDTH:0.424184
G1 X8.32 Y118.613 E.02392
;WIDTH:0.425462
G1 X8.751 Y118.24 E.01813
G1 X8.938 Y118.127 E.00694
;WIDTH:0.429692
G1 X9.4 Y117.901 E.01654
;WIDTH:0.430956
G1 X10.03 Y117.745 E.02094
G1 X10.502 Y117.721 E.01527
;WIDTH:0.443066
G1 X11.877 Y117.795 E.04582
;WIDTH:0.419999
G1 X85.128 Y117.794 E2.29673
;WIDTH:0.422702
G1 X86.716 Y117.73 E.05017
;WIDTH:0.425748
G1 X87.288 Y117.812 E.01839
G1 X87.956 Y118.074 E.02286
;WIDTH:0.423828
G1 X88.454 Y118.422 E.01923
G1 X88.584 Y118.553 E.00586
;WIDTH:0.425173
G1 X88.938 Y118.97 E.0174
G1 X89.234 Y119.544 E.02052
G1 X89.002 Y119.902 F10800
;WIPE_START
G1 F8640
G1 X89.41 Y120.246 E-.16706
G1 X89.424 Y120.794 E-.12649
G1 X89.371 Y121.504 E-.16453
G1 X89.355 Y122.06 E-.12838
G1 X89.355 Y123.634 E-.36354
;WIPE_END
G1 E-.05 F2100
G1 Z.4 F10800
G1 X81.121 Y126.392
G1 Z.2
G1 E1 F2100
;TYPE:Perimeter
;WIDTH:0.419999
G1 F1200
G1 X81.389 Y126.773 E.01462
G1 X81.639 Y127.375 E.02044
G1 X81.739 Y127.878 E.01609
G1 X81.739 Y128.382 E.01581
G1 X81.668 Y128.794 E.0131
G1 X81.515 Y129.229 E.01444
G1 X81.178 Y129.797 E.02072
G1 X80.804 Y130.197 E.01715
G1 X80.468 Y130.445 E.0131
G1 X80.057 Y130.652 E.01444
G1 X79.419 Y130.827 E.02072
G1 X78.873 Y130.856 E.01715
G1 X78.296 Y130.757 E.01835
G1 X77.755 Y130.549 E.01818
G1 X77.332 Y130.275 E.01581
G1 X76.953 Y129.905 E.01659
G1 X76.594 Y129.38 E.01994
G1 X76.406 Y128.913 E.01581
G1 X76.317 Y128.504 E.0131
G1 X76.292 Y128.087 E.0131
G1 X76.33 Y127.671 E.0131
G1 X76.45 Y127.226 E.01444
G1 X76.743 Y126.634 E.02072
G1 X77.085 Y126.207 E.01715
G1 X77.401 Y125.934 E.0131
G1 X77.755 Y125.712 E.0131
G1 X78.18 Y125.538 E.0144
G1 X78.807 Y125.414 E.02005
G1 X79.377 Y125.424 E.01786
G1 X79.881 Y125.544 E.01624
G1 X80.468 Y125.816 E.02029
G1 X80.868 Y126.121 E.01576
G1 X81.08 Y126.348 E.00974
G1 X80.846 Y126.644 F10800
;TYPE:External perimeter
G1 F1200
G1 X81.051 Y126.94 E.0113
G1 X81.28 Y127.489 E.01863
G1 X81.368 Y127.965 E.01518
G1 X81.366 Y128.325 E.0113
G1 X81.309 Y128.681 E.0113
G1 X81.191 Y129.036 E.01174
G1 X80.853 Y129.604 E.02072
G1 X80.576 Y129.897 E.01265
G1 X80.288 Y130.113 E.0113
G1 X79.957 Y130.288 E.01174
G1 X79.319 Y130.463 E.02072
G1 X78.916 Y130.481 E.01265
G1 X78.396 Y130.393 E.01654
G1 X77.909 Y130.205 E.01637
G1 X77.583 Y129.993 E.0122
G1 X77.244 Y129.665 E.01478
G1 X76.918 Y129.187 E.01813
G1 X76.773 Y128.827 E.0122
G1 X76.693 Y128.475 E.0113
G1 X76.668 Y128.116 E.0113
G1 X76.697 Y127.757 E.0113
G1 X76.788 Y127.393 E.01174
G1 X77.081 Y126.801 E.02072
G1 X77.335 Y126.488 E.01265
G1 X77.606 Y126.25 E.0113
G1 X77.909 Y126.056 E.0113
G1 X78.253 Y125.908 E.01173
G1 X78.88 Y125.784 E.02005
G1 X79.341 Y125.801 E.01445
G1 X79.97 Y125.977 E.0205
G1 X80.312 Y126.163 E.0122
G1 X80.597 Y126.383 E.0113
G1 X80.804 Y126.601 E.00942
G1 X81.201 Y126.587 F10800
;WIPE_START
G1 F8640
G1 X81.051 Y126.94 E-.0969
G1 X81.28 Y127.489 E-.13723
G1 X81.368 Y127.965 E-.11177
G1 X81.366 Y128.325 E-.08319
G1 X81.309 Y128.681 E-.08319
G1 X81.191 Y129.036 E-.08647
G1 X80.853 Y129.604 E-.15261
G1 X80.576 Y129.897 E-.09314
G1 X80.288 Y130.113 E-.08319
G1 X80.202 Y130.158 E-.02232
;WIPE_END
G1 E-.05 F2100
G1 Z.4 F10800
G1 X75.541 Y134.166
G1 Z.2
G1 E1 F2100
;TYPE:Perimeter
G1 F1200
G1 X75.884 Y134.542 E.01596
G1 X76.724 Y135.531 E.04069
G1 X77.536 Y136.561 E.04111
G1 X78.32 Y137.629 E.04154
G1 X78.616 Y138.065 E.01652
G1 X79.04 Y138.692 E.02375
G1 X79.759 Y139.836 E.04237
G1 X80.419 Y140.978 E.04136
G1 X81.046 Y142.161 E.04197
G1 X81.612 Y143.329 E.04069
G1 X82.144 Y144.535 E.04133
G1 X82.64 Y145.778 E.04197
G1 X83.076 Y147 E.04069
G1 X83.475 Y148.257 E.04133
G1 X83.828 Y149.527 E.04133
G1 X84.139 Y150.829 E.04197
G1 X84.395 Y152.101 E.04069
G1 X84.609 Y153.402 E.04133
G1 X84.778 Y154.73 E.04197
G1 X84.895 Y156.022 E.04069
G1 X84.967 Y157.338 E.04133
G1 X84.991 Y158.677 E.04197
G1 X84.966 Y159.995 E.04133
G1 X84.898 Y161.257 E.03963
G1 X84.778 Y162.602 E.04236
G1 X84.612 Y163.911 E.04136
G1 X84.395 Y165.232 E.04197
G1 X84.146 Y166.471 E.03963
G1 X83.833 Y167.785 E.04236
G1 X83.481 Y169.056 E.04136
G1 X83.076 Y170.332 E.04197
G1 X82.651 Y171.523 E.03963
G1 X82.153 Y172.778 E.04237
G1 X81.621 Y173.985 E.04135
G1 X81.037 Y175.19 E.04197
G1 X80.429 Y176.337 E.04069
G1 X79.77 Y177.478 E.04133
G1 X79.071 Y178.596 E.04133
G1 X78.331 Y179.687 E.04133
G1 X78.022 Y180.11 E.01643
G1 X77.585 Y180.707 E.02323
G1 X76.737 Y181.785 E.04298
G1 X75.569 Y183.136 E.056
G1 X74.995 Y183.764 E.02668
G1 X74.378 Y184.392 E.0276
G1 X73.115 Y185.611 E.05506
G1 X72.297 Y186.332 E.03417
G1 X71.106 Y187.318 E.04849
G1 X70.057 Y188.116 E.04133
G1 X69.265 Y188.675 E.0304
G1 X67.904 Y189.578 E.05119
G1 X66.747 Y190.276 E.04236
G1 X65.575 Y190.924 E.042
G1 X64.4 Y191.52 E.04133
G1 X63.222 Y192.065 E.04069
G1 X61.988 Y192.583 E.04197
G1 X60.774 Y193.042 E.04069
G1 X59.525 Y193.463 E.04133
G1 X58.261 Y193.839 E.04133
G1 X56.965 Y194.174 E.04197
G1 X55.678 Y194.457 E.04133
G1 X54.397 Y194.69 E.04081
G1 X53.076 Y194.882 E.04185
G1 X51.766 Y195.024 E.04133
G1 X50.471 Y195.118 E.04069
G1 X49.154 Y195.166 E.04133
G1 X47.816 Y195.166 E.04197
G1 X46.519 Y195.119 E.04069
G1 X45.204 Y195.024 E.04133
G1 X43.873 Y194.88 E.04197
G1 X42.569 Y194.69 E.04133
G1 X41.326 Y194.462 E.03963
G1 X40.006 Y194.174 E.04236
G1 X38.728 Y193.844 E.04136
G1 X37.445 Y193.463 E.04197
G1 X36.215 Y193.049 E.04069
G1 X34.982 Y192.583 E.04133
G1 X33.767 Y192.074 E.04133
G1 X32.552 Y191.512 E.04197
G1 X31.394 Y190.924 E.04069
G1 X30.288 Y190.312 E.03965
G1 X29.094 Y189.596 E.04364
G1 X28.007 Y188.888 E.04069
G1 X27.444 Y188.491 E.0216
G1 X26.973 Y188.159 E.01806
G1 X26.156 Y187.541 E.03213
G1 X24.859 Y186.496 E.0522
G1 X23.91 Y185.661 E.03965
G1 X22.913 Y184.72 E.04298
G1 X21.989 Y183.779 E.04136
G1 X20.935 Y182.611 E.04932
G1 X20.246 Y181.802 E.03331
G1 X19.403 Y180.732 E.0427
G1 X18.65 Y179.703 E.03998
G1 X18.19 Y179.025 E.02572
G1 X17.21 Y177.497 E.05691
G1 X16.551 Y176.354 E.04136
G1 X15.924 Y175.172 E.04197
G1 X15.357 Y174.004 E.04069
G1 X14.825 Y172.798 E.04133
G1 X14.337 Y171.574 E.04133
G1 X13.893 Y170.332 E.04133
G1 X13.489 Y169.056 E.04197
G1 X13.142 Y167.806 E.04069
G1 X12.835 Y166.524 E.04133
G1 X12.571 Y165.212 E.04197
G1 X12.358 Y163.911 E.04133
G1 X12.192 Y162.603 E.04133
G1 X12.075 Y161.311 E.04069
G1 X12.003 Y159.974 E.04197
G1 X11.979 Y158.677 E.04069
G1 X12.003 Y157.359 E.04133
G1 X12.072 Y156.076 E.04027
G1 X12.192 Y154.73 E.04236
G1 X12.358 Y153.422 E.04136
G1 X12.574 Y152.101 E.04197
G1 X12.824 Y150.862 E.03963
G1 X13.136 Y149.547 E.04236
G1 X13.489 Y148.276 E.04136
G1 X13.893 Y147 E.04197
G1 X14.33 Y145.778 E.04069
G1 X14.817 Y144.554 E.04133
G1 X15.349 Y143.347 E.04133
G1 X15.933 Y142.143 E.04197
G1 X16.541 Y140.996 E.04069
G1 X17.173 Y139.901 E.03965
G1 X17.899 Y138.738 E.04298
G1 X18.639 Y137.645 E.04138
G1 X19.211 Y136.864 E.03036
G1 X20.232 Y135.548 E.05224
G1 X21.254 Y134.358 E.04916
G1 X21.975 Y133.569 E.03352
G1 X22.898 Y132.628 E.04133
G1 X23.858 Y131.718 E.04147
G1 X24.844 Y130.85 E.04119
G1 X25.822 Y130.048 E.03965
G1 X26.682 Y129.392 E.03392
G1 X27.99 Y128.457 E.05041
G1 X29.111 Y127.726 E.04197
G1 X30.241 Y127.046 E.04133
G1 X31.376 Y126.418 E.04069
G1 X32.552 Y125.821 E.04133
G1 X33.767 Y125.259 E.04197
G1 X34.963 Y124.757 E.04069
G1 X36.196 Y124.291 E.04133
G1 X37.445 Y123.87 E.04133
G1 X38.728 Y123.489 E.04197
G1 X39.985 Y123.164 E.04069
G1 X41.272 Y122.88 E.04133
