; generated by PrusaSlicer 2.5.0+win64 on 2023-05-19 at 05:51:03 UTC

; 

; external perimeters extrusion width = 0.60mm
; perimeters extrusion width = 0.50mm
; infill extrusion width = 0.50mm
; solid infill extrusion width = 0.50mm
; top infill extrusion width = 0.45mm
; first layer extrusion width = 0.42mm

; external perimeters extrusion width = 0.60mm
; perimeters extrusion width = 0.50mm
; infill extrusion width = 0.50mm
; solid infill extrusion width = 0.50mm
; top infill extrusion width = 0.45mm
; first layer extrusion width = 0.42mm

; external perimeters extrusion width = 0.60mm
; perimeters extrusion width = 0.50mm
; infill extrusion width = 0.50mm
; solid infill extrusion width = 0.50mm
; top infill extrusion width = 0.45mm
; first layer extrusion width = 0.42mm

; external perimeters extrusion width = 0.60mm
; perimeters extrusion width = 0.50mm
; infill extrusion width = 0.50mm
; solid infill extrusion width = 0.50mm
; top infill extrusion width = 0.45mm
; first layer extrusion width = 0.42mm

; external perimeters extrusion width = 0.60mm
; perimeters extrusion width = 0.50mm
; infill extrusion width = 0.50mm
; solid infill extrusion width = 0.50mm
; top infill extrusion width = 0.45mm
; first layer extrusion width = 0.42mm

; external perimeters extrusion width = 0.60mm
; perimeters extrusion width = 0.50mm
; infill extrusion width = 0.50mm
; solid infill extrusion width = 0.50mm
; top infill extrusion width = 0.45mm
; first layer extrusion width = 0.42mm

M73 P0 R124
M73 Q0 S125
M201 X1000 Y1000 Z200 E5000 ; sets maximum accelerations, mm/sec^2
M203 X200 Y200 Z12 E120 ; sets maximum feedrates, mm / sec
M204 P1250 R1250 T1250 ; sets acceleration (P, T) and retract acceleration (R), mm/sec^2
M205 X8.00 Y8.00 Z0.40 E4.50 ; sets the jerk limits, mm/sec
M205 S0 T0 ; sets the minimum extruding and travel feed rate, mm/sec
M107
;TYPE:Custom
M862.3 P "MK3S" ; printer model check
M862.1 P0.4 ; nozzle diameter check
M115 U3.10.1 ; tell printer latest fw version
G90 ; use absolute coordinates
M83 ; extruder relative mode
M104 S230 ; set extruder temp
M140 S85 ; set bed temp
M190 S85 ; wait for bed temp
M109 S230 ; wait for extruder temp
G28 W ; home all without mesh bed level
G80 ; mesh bed leveling
G1 Y-3.0 F1000.0 ; go outside print area
G92 E0.0
G1 X60.0 E9.0 F1000.0 ; intro line
G1 X100.0 E12.5 F1000.0 ; intro line
G92 E0.0
M221 S95

; Don't change E values below. Excessive value can damage the printer.

M907 E538 ; set extruder motor current
G21 ; set units to millimeters
G90 ; use absolute coordinates
M83 ; use relative distances for extrusion
M900 K0.08 ; Filament gcode LA 1.5
M900 K45 ; Filament gcode LA 1.0
M107
;LAYER_CHANGE
;Z:0.2
;HEIGHT:0.2
;BEFORE_LAYER_CHANGE
G92 E0.0
;0.2


M73 P0 R123
G1 E-1 F2100
G1 Z.2 F10800
;AFTER_LAYER_CHANGE
;0.2
G1 Z.4
G1 X9.45 Y6.146
G1 Z.2
G1 E1 F2100
M204 S1000
;TYPE:Skirt/Brim
;WIDTH:0.42
G1 F1200
G1 X10.363 Y5.167 E.04195
G1 X11.229 Y4.57 E.033
G1 X12.101 Y4.177 E.02999
G1 X13.123 Y3.925 E.033
G1 X13.915 Y3.863 E.02491
G1 X99.056 Y3.179 E2.66962
G1 X175.419 Y3.183 E2.39429
G1 X176.463 Y3.31 E.033
G1 X177.377 Y3.594 E.02999
G1 X178.308 Y4.083 E.033
G1 X179.061 Y4.673 E.02999
G1 X179.759 Y5.461 E.033
G1 X180.254 Y6.279 E.02999
G1 X180.627 Y7.264 E.033
G1 X180.8 Y8.204 E.02999
G1 X180.8 Y85.457 E2.4222
G1 X180.657 Y86.294 E.02663
G1 X162.875 Y154.015 E2.19532
G1 X162.164 Y155.18 E.04278
G1 X160.575 Y155.788 E.05334
G1 X154.499 Y155.787 E.19052
G1 X9.749 Y151.127 E4.5409
G1 X8.455 Y150.693 E.04278
G1 X7.613 Y149.62 E.04278
G1 X7.448 Y148.751 E.02773
G1 X7.448 Y92.424 E1.76609
G1 X8.382 Y9.388 E2.60369
G1 X8.513 Y8.227 E.03665
G1 X8.955 Y6.964 E.04195
G1 X9.419 Y6.197 E.02811
; printing object SARI_GLASS_RETAINER.stl id:0 copy 0
;WIPE_START
G1 F8640
G1 X10.363 Y5.167 E-.32247
G1 X11.229 Y4.57 E-.24303
G1 X12.101 Y4.177 E-.22085
G1 X12.789 Y4.007 E-.16365
;WIPE_END
G1 E-.05 F2100
G1 Z.4 F10800
G1 X88.519 Y11.867
G1 Z.2
G1 E1 F2100
;TYPE:Perimeter
;WIDTH:0.419999
G1 F1200
G1 X88.849 Y12.059 E.01198
G1 X89.248 Y12.217 E.01345
G1 X89.665 Y12.317 E.01345
G1 X90.093 Y12.354 E.01345
G1 X90.521 Y12.329 E.01345
G1 X90.941 Y12.241 E.01345
G1 X91.344 Y12.094 E.01345
G1 X91.721 Y11.889 E.01346
G1 X92.127 Y11.574 E.0161
G1 X92.526 Y11.105 E.01931
G1 X92.528 Y83.919 E2.28302
G1 X92.282 Y83.61 E.01239
G1 X91.964 Y83.315 E.01359
G1 X91.609 Y83.073 E.01349
G1 X91.223 Y82.885 E.01346
G1 X90.813 Y82.756 E.01345
G1 X90.39 Y82.687 E.01345
G1 X89.961 Y82.681 E.01345
G1 X89.535 Y82.738 E.01345
G1 X89.123 Y82.856 E.01345
G1 X88.626 Y83.097 E.01732
G1 X88.074 Y83.523 E.02186
G1 X87.72 Y83.939 E.01713
G1 X87.468 Y84.388 E.01614
G1 X87.252 Y85.041 E.02157
G1 X87.199 Y85.467 E.01345
G1 X87.208 Y85.896 E.01345
G1 X87.28 Y86.319 E.01345
G1 X87.413 Y86.727 E.01345
G1 X87.604 Y87.111 E.01346
G1 X87.849 Y87.463 E.01346
G1 X88.144 Y87.777 E.0135
G1 X88.442 Y88.009 E.01185
G1 X15.627 Y88.008 E2.28306
G1 X15.858 Y87.835 E.00902
G1 X16.165 Y87.528 E.01363
G1 X16.421 Y87.182 E.0135
G1 X16.623 Y86.803 E.01346
G1 X16.767 Y86.398 E.01345
G1 X16.851 Y85.978 E.01345
G1 X16.872 Y85.549 E.01345
G1 X16.817 Y85.041 E.01603
G1 X16.598 Y84.383 E.02172
G1 X16.348 Y83.939 E.01599
G1 X16.078 Y83.605 E.01345
G1 X15.763 Y83.314 E.01345
G1 X15.462 Y83.108 E.01145
G1 X15.023 Y82.885 E.01544
G1 X14.613 Y82.756 E.01345
G1 X14.19 Y82.687 E.01345
G1 X13.761 Y82.681 E.01345
G1 X13.335 Y82.738 E.01345
G1 X12.923 Y82.856 E.01345
G1 X12.532 Y83.032 E.01345
G1 X12.171 Y83.264 E.01346
G1 X11.847 Y83.547 E.01349
G1 X11.54 Y83.919 E.01511
G1 X11.542 Y11.105 E2.28302
G1 X11.941 Y11.574 E.01931
M73 Q0 S124
G1 X12.278 Y11.843 E.01351
G1 X12.649 Y12.059 E.01347
G1 X13.127 Y12.241 E.01604
G1 X13.794 Y12.347 E.02118
G1 X14.321 Y12.329 E.01653
G1 X14.82 Y12.217 E.01603
G1 X15.331 Y11.996 E.01745
;WIDTH:0.461372
G1 X15.453 Y11.939 E.0047
;WIDTH:0.502744
G1 X15.576 Y11.883 E.00516
;WIDTH:0.544117
G1 X15.699 Y11.826 E.00563
;WIDTH:0.585489
G1 X15.821 Y11.769 E.00609
G1 X15.79 Y11.843 E.00361
;WIDTH:0.551467
G1 X15.758 Y11.916 E.00338
;WIDTH:0.517444
G1 X15.726 Y11.99 E.00316
;WIDTH:0.483421
G1 X15.603 Y12.168 E.00793
;WIDTH:0.45171
G1 X15.479 Y12.346 E.00736
;WIDTH:0.419999
G1 X15.16 Y12.811 E.01768
G1 X14.88 Y13.304 E.01778
G1 X14.631 Y13.846 E.01872
G1 X14.431 Y14.409 E.01872
G1 X14.281 Y14.987 E.01872
G1 X14.183 Y15.575 E.01872
G1 X14.136 Y16.171 E.01872
G1 X14.142 Y16.768 E.01872
G1 X14.201 Y17.362 E.01872
G1 X14.311 Y17.948 E.01872
G1 X14.473 Y18.523 E.01872
G1 X14.684 Y19.081 E.01872
G1 X14.944 Y19.619 E.01872
G1 X15.25 Y20.131 E.01872
G1 X15.6 Y20.615 E.01872
G1 X15.991 Y21.066 E.01872
G1 X16.42 Y21.481 E.01872
G1 X16.884 Y21.857 E.01872
G1 X17.44 Y22.224 E.0209
G1 X17.901 Y22.479 E.01653
G1 X18.522 Y22.747 E.0212
G1 X19.013 Y22.914 E.01625
G1 X19.605 Y23.057 E.01908
G1 X20.148 Y23.13 E.01718
G1 X20.666 Y23.115 E.01625
G1 X20.027 Y23.882 E.03131
G1 X19.228 Y25.004 E.04317
G1 X18.469 Y26.152 E.04315
G1 X17.75 Y27.326 E.04316
G1 X17.072 Y28.523 E.04315
G1 X16.436 Y29.744 E.04316
G1 X15.843 Y30.986 E.04315
G1 X15.293 Y32.248 E.04315
G1 X14.787 Y33.527 E.04315
G1 X14.325 Y34.824 E.04315
G1 X13.909 Y36.136 E.04316
G1 X13.538 Y37.461 E.04315
G1 X13.214 Y38.799 E.04315
G1 X12.935 Y40.147 E.04316
G1 X12.704 Y41.504 E.04315
G1 X12.519 Y42.868 E.04316
G1 X12.382 Y44.237 E.04315
G1 X12.293 Y45.611 E.04316
G1 X12.251 Y46.984 E.04309
G1 X12.256 Y48.363 E.04322
G1 X12.309 Y49.738 E.04315
G1 X12.41 Y51.111 E.04316
G1 X12.558 Y52.479 E.04315
G1 X12.753 Y53.84 E.0431
G1 X12.992 Y55.177 E.0426
G1 X13.28 Y56.523 E.04315
G1 X13.615 Y57.858 E.04316
G1 X13.969 Y59.086 E.04009
G1 X14.421 Y60.488 E.04617
G1 X14.893 Y61.782 E.0432
G1 X15.409 Y63.058 E.04316
G1 X15.968 Y64.316 E.04315
G1 X16.571 Y65.553 E.04315
G1 X17.216 Y66.769 E.04315
G1 X17.903 Y67.962 E.04315
G1 X18.63 Y69.13 E.04315
G1 X19.398 Y70.273 E.04316
G1 X20.205 Y71.388 E.04315
G1 X21.049 Y72.474 E.04315
G1 X21.931 Y73.531 E.04315
G1 X22.909 Y74.619 E.04586
G1 X23.816 Y75.564 E.04107
G1 X24.803 Y76.523 E.04315
G1 X25.735 Y77.369 E.03947
G1 X26.857 Y78.323 E.04617
G1 X27.939 Y79.176 E.0432
G1 X29.048 Y79.991 E.04316
G1 X30.185 Y80.766 E.04315
G1 X31.349 Y81.502 E.04316
G1 X32.536 Y82.197 E.04315
G1 X33.748 Y82.851 E.04315
G1 X34.981 Y83.462 E.04315
G1 X36.234 Y84.031 E.04316
G1 X37.416 Y84.518 E.04008
G1 X38.795 Y85.035 E.04617
G1 X40.102 Y85.471 E.0432
G1 X41.422 Y85.861 E.04315
G1 X42.755 Y86.205 E.04316
G1 X44.099 Y86.503 E.04315
G1 X45.452 Y86.754 E.04315
G1 X46.813 Y86.958 E.04315
G1 X48.18 Y87.115 E.04316
G1 X50.01 Y87.245 E.05751
G1 X50.947 Y87.287 E.0294
G1 X52.304 Y87.301 E.04254
G1 X53.68 Y87.268 E.04316
G1 X55.053 Y87.187 E.04315
G1 X56.443 Y87.057 E.04377
G1 X57.808 Y86.881 E.04315
G1 X59.147 Y86.661 E.04254
G1 X60.383 Y86.414 E.03952
G1 X61.835 Y86.076 E.04674
G1 X63.164 Y85.714 E.0432
G1 X64.497 Y85.3 E.04377
G1 X65.797 Y84.846 E.04315
G1 X67.08 Y84.348 E.04315
G1 X68.345 Y83.805 E.04316
G1 X69.59 Y83.219 E.04315
G1 X70.815 Y82.591 E.04315
G1 X72.017 Y81.92 E.04315
G1 X73.178 Y81.219 E.04254
G1 X74.331 Y80.467 E.04315
G1 X75.473 Y79.665 E.04377
G1 X76.571 Y78.835 E.04316
G1 X77.64 Y77.968 E.04315
G1 X78.962 Y76.799 E.05532
G1 X79.684 Y76.124 E.03098
G1 X80.657 Y75.151 E.04315
G1 X81.596 Y74.144 E.04315
G1 X82.499 Y73.106 E.04316
G1 X83.366 Y72.037 E.04315
G1 X84.195 Y70.939 E.04315
G1 X84.986 Y69.812 E.04316
G1 X85.738 Y68.659 E.04315
G1 X86.439 Y67.498 E.04254
G1 X87.11 Y66.296 E.04315
G1 X87.738 Y65.071 E.04315
G1 X88.332 Y63.808 E.04377
G1 X88.694 Y62.964 E.02879
G1 X89.372 Y61.26 E.05751
G1 X89.825 Y59.96 E.04316
G1 X90.198 Y58.758 E.03947
G1 X90.589 Y57.338 E.04617
G1 X90.907 Y55.997 E.0432
G1 X91.177 Y54.648 E.04315
G1 X91.4 Y53.289 E.04315
G1 X91.576 Y51.924 E.04315
G1 X91.706 Y50.535 E.04377
G1 X91.787 Y49.161 E.04315
G1 X91.82 Y47.79 E.04297
G1 X91.806 Y46.428 E.04272
G1 X91.745 Y45.053 E.04316
G1 X91.636 Y43.681 E.04315
G1 X91.48 Y42.313 E.04316
G1 X91.273 Y40.933 E.04377
G1 X91.022 Y39.58 E.04315
G1 X90.724 Y38.236 E.04315
G1 X90.38 Y36.903 E.04316
G1 X89.99 Y35.583 E.04315
G1 X89.554 Y34.278 E.04315
G1 X89.074 Y32.988 E.04316
G1 X88.724 Y32.139 E.02879
G1 X87.992 Y30.484 E.05674
G1 X87.379 Y29.246 E.04331
G1 X86.726 Y28.035 E.04315
G1 X86.031 Y26.846 E.04315
G1 X85.348 Y25.766 E.04009
G1 X84.522 Y24.547 E.04617
G1 X83.695 Y23.42 E.04382
G1 X82.855 Y22.354 E.04254
G1 X82.043 Y21.393 E.03946
G1 X81.029 Y20.27 E.04746
G1 X80.151 Y19.367 E.03947
G1 X79.076 Y18.33 E.04683
G1 X77.714 Y17.132 E.05688
G1 X76.995 Y16.532 E.02935
G1 X76.462 Y16.118 E.02117
;WIDTH:0.465803
G1 X76.322 Y15.979 E.00693
;WIDTH:0.511607
G1 X76.181 Y15.841 E.00768
;WIDTH:0.55741
G1 X76.041 Y15.703 E.00843
G1 X76.084 Y15.715 E.00192
;WIDTH:0.542021
G1 X76.25 Y15.761 E.00714
;WIDTH:0.501347
G1 X76.416 Y15.806 E.00656
;WIDTH:0.460673
G1 X76.581 Y15.852 E.00598
;WIDTH:0.419999
G1 X77.411 Y15.981 E.02633
G1 X78.083 Y15.907 E.0212
G1 X78.329 Y15.828 E.0081
G1 X79.006 Y15.515 E.02337
G1 X79.525 Y15.082 E.0212
G1 X79.735 Y14.809 E.01082
G1 X80.081 Y14.238 E.02092
G1 X80.297 Y13.436 E.02604
G1 X80.297 Y12.76 E.0212
G1 X80.189 Y12.317 E.01431
G1 X80.008 Y11.8 E.01715
G1 X79.525 Y11.114 E.02632
G1 X78.865 Y10.596 E.02632
G1 X78.083 Y10.289 E.02632
G1 X77.247 Y10.221 E.02632
G1 X76.426 Y10.397 E.02632
M73 P0 R122
G1 X75.69 Y10.802 E.02633
G1 X75.103 Y11.402 E.02632
G1 X74.772 Y11.992 E.0212
G1 X74.65 Y12.43 E.01425
G1 X74.554 Y12.97 E.0172
G1 X74.639 Y13.805 E.02633
G1 X74.881 Y14.437 E.0212
G1 X75.026 Y14.665 E.00848
;WIDTH:0.458323
G1 X75.098 Y14.789 E.00496
;WIDTH:0.496647
G1 X75.17 Y14.913 E.00542
;WIDTH:0.534971
G1 X75.242 Y15.038 E.00588
;WIDTH:0.573294
G1 X75.314 Y15.162 E.00634
G1 X75.12 Y15.049 E.0099
;WIDTH:0.534971
G1 X74.926 Y14.936 E.00919
;WIDTH:0.496647
G1 X74.732 Y14.822 E.00847
;WIDTH:0.458323
G1 X74.539 Y14.709 E.00776
;WIDTH:0.419999
G1 X73.649 Y14.112 E.0336
G1 X72.229 Y13.239 E.05227
G1 X71.288 Y12.697 E.03403
G1 X70.072 Y12.052 E.04315
G1 X68.835 Y11.449 E.04315
G1 X67.577 Y10.89 E.04315
G1 X66.301 Y10.374 E.04316
G1 X65.008 Y9.903 E.04315
G1 X64.135 Y9.619 E.02879
G1 X62.377 Y9.096 E.05751
G1 X61.061 Y8.766 E.04254
G1 X59.715 Y8.477 E.04315
G1 X58.36 Y8.234 E.04316
G1 X56.998 Y8.039 E.04315
G1 X55.727 Y7.902 E.04009
G1 X54.258 Y7.79 E.04617
G1 X52.86 Y7.737 E.04389
G1 X51.07 Y7.745 E.05612
G1 X50.11 Y7.775 E.03012
G1 X48.756 Y7.863 E.04254
G1 X47.387 Y8.001 E.04315
G1 X46.003 Y8.188 E.04377
G1 X44.647 Y8.42 E.04315
G1 X43.318 Y8.695 E.04254
G1 X41.98 Y9.019 E.04315
G1 X40.636 Y9.396 E.04377
G1 X39.325 Y9.813 E.04316
G1 X38.046 Y10.268 E.04254
G1 X36.766 Y10.774 E.04315
G1 X35.487 Y11.332 E.04377
G1 X34.245 Y11.926 E.04315
G1 X33.025 Y12.563 E.04316
G1 X31.844 Y13.231 E.04254
G1 X30.654 Y13.961 E.04377
G1 X29.506 Y14.72 E.04316
G1 X28.458 Y15.468 E.04037
G1 X27.633 Y16.168 E.03392
G1 X27.649 Y15.629 E.0169
G1 X27.564 Y15.026 E.0191
G1 X27.418 Y14.446 E.01875
G1 X27.221 Y13.882 E.01872
G1 X26.976 Y13.338 E.01872
G1 X26.683 Y12.818 E.01872
G1 X26.346 Y12.325 E.01872
G1 X25.967 Y11.864 E.01872
G1 X25.549 Y11.438 E.01872
G1 X25.095 Y11.05 E.01872
G1 X24.609 Y10.704 E.01872
G1 X24.094 Y10.402 E.01872
G1 X23.554 Y10.146 E.01872
G1 X22.995 Y9.939 E.01872
G1 X22.419 Y9.781 E.01872
G1 X21.831 Y9.675 E.01872
G1 X21.237 Y9.621 E.01872
G1 X20.64 Y9.619 E.01872
G1 X20.045 Y9.67 E.01872
G1 X19.457 Y9.773 E.01872
G1 X18.804 Y9.954 E.02124
G1 X18.319 Y10.131 E.01619
G1 X17.739 Y10.406 E.02014
G1 X17.262 Y10.683 E.01729
G1 X16.774 Y11.027 E.01872
;WIDTH:0.463486
G1 X16.654 Y11.097 E.00485
;WIDTH:0.506972
G1 X16.535 Y11.168 E.00535
;WIDTH:0.550459
G1 X16.416 Y11.239 E.00585
;WIDTH:0.593945
G1 X16.297 Y11.309 E.00635
G1 X16.358 Y11.172 E.0069
;WIDTH:0.550459
G1 X16.419 Y11.034 E.00635
;WIDTH:0.506972
G1 X16.481 Y10.897 E.00581
;WIDTH:0.463486
G1 X16.542 Y10.759 E.00526
;WIDTH:0.419999
G1 X16.767 Y10.198 E.01895
G1 X16.86 Y9.696 E.01603
G1 X16.859 Y9.172 E.01641
G1 X16.729 Y8.505 E.02131
G1 X16.567 Y8.108 E.01345
G1 X16.348 Y7.739 E.01346
G1 X16.017 Y7.343 E.01616
G1 X15.627 Y7.023 E.01584
G1 X88.476 Y7.023 E2.28414
G1 X88.086 Y7.315 E.01527
G1 X87.882 Y7.536 E.00944
G1 X87.539 Y8.035 E.01897
G1 X87.366 Y8.427 E.01346
G1 X87.252 Y8.841 E.01345
G1 X87.199 Y9.267 E.01345
G1 X87.208 Y9.696 E.01345
G1 X87.283 Y10.13 E.01381
G1 X87.446 Y10.603 E.01568
G1 X87.703 Y11.06 E.01645
G1 X88.142 Y11.576 E.02126
G1 X88.468 Y11.835 E.01305
;WIPE_START
G1 F8640
G1 X88.849 Y12.059 E-.10201
G1 X89.248 Y12.217 E-.09907
G1 X89.665 Y12.317 E-.09908
G1 X90.093 Y12.354 E-.09908
G1 X90.521 Y12.329 E-.09907
G1 X90.941 Y12.241 E-.09908
G1 X91.344 Y12.094 E-.09908
G1 X91.721 Y11.889 E-.09909
G1 X92.127 Y11.574 E-.11859
G1 X92.228 Y11.456 E-.03585
;WIPE_END
G1 E-.05 F2100
G1 Z.4 F10800
G1 X91.436 Y6.884
G1 Z.2
G1 E1 F2100
;TYPE:External perimeter
;WIDTH:0.421827
G1 F1200
G1 X91.585 Y6.976 E.00552
;WIDTH:0.4142
G1 X92.143 Y7.413 E.02189
;WIDTH:0.431148
G1 X92.486 Y7.821 E.01719
G1 X92.799 Y8.429 E.02207
;WIDTH:0.430151
G1 X92.961 Y9.095 E.02208
;WIDTH:0.426278
G1 X92.969 Y9.737 E.02047
;WIDTH:0.419999
G1 X92.905 Y10.908 E.03676
G1 X92.899 Y11.904 E.03125
G1 X92.905 Y84.132 E2.26463
;WIDTH:0.436109
G1 X92.979 Y85.623 E.04883
;WIDTH:0.431121
M73 P1 R122
G1 X92.888 Y86.318 E.02262
G1 X92.64 Y86.956 E.02208
;WIDTH:0.427861
G1 X92.248 Y87.52 E.02197
;WIDTH:0.422259
G1 X91.639 Y88.023 E.02494
;WIDTH:0.415242
G1 X90.987 Y88.321 E.02219
;WIDTH:0.430887
G1 X90.487 Y88.436 E.01653
G1 X90.097 Y88.465 E.01264
;WIDTH:0.430654
G1 X88.641 Y88.386 E.04701
;WIDTH:0.419999
G1 X15.417 Y88.387 E2.29586
;WIDTH:0.428353
G1 X14.661 Y88.424 E.02427
;WIDTH:0.428777
M73 Q1 S124
G1 X13.926 Y88.46 E.02361
;WIDTH:0.42895
G1 X13.232 Y88.369 E.02246
G1 X12.592 Y88.123 E.02202
;WIDTH:0.424179
G1 X11.981 Y87.68 E.02392
;WIDTH:0.425461
G1 X11.607 Y87.249 E.01813
G1 X11.495 Y87.062 E.00694
;WIDTH:0.429697
G1 X11.269 Y86.6 E.01654
;WIDTH:0.431266
G1 X11.113 Y85.97 E.02096
G1 X11.089 Y85.482 E.01579
;WIDTH:0.443064
G1 X11.163 Y84.122 E.04533
;WIDTH:0.419999
G1 X11.164 Y10.942 E2.29449
;WIDTH:0.455251
G1 X11.155 Y10.414 E.0181
G1 X11.09 Y9.407 E.03459
