; generated by PrusaSlicer 2.5.0+win64 on 2023-04-23 at 20:24:42 UTC

; 

; external perimeters extrusion width = 0.45mm
; perimeters extrusion width = 0.45mm
; infill extrusion width = 0.45mm
; solid infill extrusion width = 0.45mm
; top infill extrusion width = 0.40mm
; first layer extrusion width = 0.42mm

M73 P0 R89
M73 Q0 S90
M201 X1000 Y1000 Z200 E5000 ; sets maximum accelerations, mm/sec^2
M203 X200 Y200 Z12 E120 ; sets maximum feedrates, mm / sec
M204 P1250 R1250 T1250 ; sets acceleration (P, T) and retract acceleration (R), mm/sec^2
M205 X8.00 Y8.00 Z0.40 E4.50 ; sets the jerk limits, mm/sec
M205 S0 T0 ; sets the minimum extruding and travel feed rate, mm/sec
M107
;TYPE:Custom
M862.3 P "MK3S" ; printer model check
M862.1 P0.4 ; nozzle diameter check
M115 U3.10.1 ; tell printer latest fw version
G90 ; use absolute coordinates
M83 ; extruder relative mode
M104 S230 ; set extruder temp
M140 S85 ; set bed temp
M190 S85 ; wait for bed temp
M109 S230 ; wait for extruder temp
G28 W ; home all without mesh bed level
G80 ; mesh bed leveling
G1 Y-3.0 F1000.0 ; go outside print area
G92 E0.0
G1 X60.0 E9.0 F1000.0 ; intro line
G1 X100.0 E12.5 F1000.0 ; intro line
G92 E0.0
M221 S95

; Don't change E values below. Excessive value can damage the printer.

M907 E538 ; set extruder motor current
G21 ; set units to millimeters
G90 ; use absolute coordinates
M83 ; use relative distances for extrusion
M900 K0.08 ; Filament gcode LA 1.5
M900 K45 ; Filament gcode LA 1.0
M107
;LAYER_CHANGE
;Z:0.2
;HEIGHT:0.2
;BEFORE_LAYER_CHANGE
G92 E0.0
;0.2


G1 E-1 F2100
G1 Z.2 F10800
;AFTER_LAYER_CHANGE
;0.2
G1 Z.4
G1 X67.605 Y12.726
G1 Z.2
G1 E1 F2100
M204 S1000
;TYPE:Skirt/Brim
;WIDTH:0.42
G1 F1200
G1 X67.889 Y11.813 E.02999
G1 X68.378 Y10.881 E.033
G1 X68.968 Y10.128 E.02999
G1 X69.992 Y9.267 E.04195
G1 X70.924 Y8.778 E.033
G1 X71.837 Y8.493 E.02999
G1 X73.025 Y8.362 E.03749
G1 X149.369 Y8.366 E2.3937
G1 X150.414 Y8.493 E.033
G1 X151.327 Y8.778 E.02999
G1 X152.259 Y9.267 E.033
G1 X153.012 Y9.857 E.02999
G1 X153.873 Y10.881 E.04194
G1 X154.362 Y11.813 E.033
G1 X154.646 Y12.726 E.02998
G1 X154.773 Y13.771 E.03301
G1 X154.778 Y90.114 E2.3937
G1 X154.646 Y91.302 E.03749
M73 Q0 S89
G1 X154.362 Y92.216 E.02999
G1 X153.873 Y93.147 E.033
G1 X153.283 Y93.9 E.02999
G1 X152.268 Y94.755 E.04159
G1 X151.327 Y95.25 E.03336
G1 X150.425 Y95.532 E.02963
G1 X149.225 Y95.666 E.03785
G1 X73.025 Y95.666 E2.3892
G1 X71.842 Y95.536 E.03733
M73 P0 R88
G1 X70.924 Y95.25 E.03014
G1 X69.996 Y94.764 E.03284
G1 X69.239 Y94.171 E.03014
G1 X68.378 Y93.147 E.04195
G1 X67.889 Y92.216 E.033
G1 X67.607 Y91.314 E.02962
G1 X67.473 Y90.114 E.03785
G1 X67.473 Y13.914 E2.3892
G1 X67.598 Y12.785 E.0356
; printing object SARI_BEZEL.stl id:0 copy 0
;WIPE_START
G1 F8640
G1 X67.889 Y11.813 E-.23446
G1 X68.378 Y10.881 E-.24302
G1 X68.968 Y10.128 E-.22085
G1 X69.802 Y9.426 E-.25168
;WIPE_END
G1 E-.05 F2100
G1 Z.4 F10800
G1 X151.619 Y15.606
G1 Z.2
G1 E1 F2100
;TYPE:Perimeter
;WIDTH:0.419999
G1 F1200
G1 X151.618 Y88.421 E2.28306
G1 X151.445 Y88.191 E.00902
G1 X151.138 Y87.883 E.01363
G1 X150.792 Y87.627 E.0135
G1 X150.413 Y87.426 E.01346
G1 X150.009 Y87.281 E.01345
G1 X149.588 Y87.197 E.01346
G1 X149.015 Y87.187 E.01797
G1 X148.355 Y87.311 E.02105
G1 X147.81 Y87.542 E.01855
G1 X147.248 Y87.945 E.02168
G1 X146.925 Y88.285 E.01473
G1 X146.683 Y88.64 E.01345
G1 X146.455 Y89.143 E.01731
G1 X146.339 Y89.667 E.01683
G1 X146.291 Y90.157 E.01543
G1 X146.348 Y90.713 E.01753
G1 X146.466 Y91.125 E.01345
G1 X146.642 Y91.516 E.01346
G1 X146.874 Y91.878 E.01346
G1 X147.158 Y92.201 E.01349
G1 X147.529 Y92.508 E.01511
G1 X74.716 Y92.506 E2.28302
G1 X75.185 Y92.107 E.01931
G1 X75.453 Y91.77 E.01351
G1 X75.669 Y91.399 E.01347
G1 X75.828 Y91 E.01346
G1 X75.927 Y90.583 E.01345
G1 X75.964 Y90.073 E.01603
G1 X75.895 Y89.503 E.018
G1 X75.704 Y88.904 E.01971
G1 X75.499 Y88.527 E.01345
G1 X75.242 Y88.184 E.01345
G1 X74.839 Y87.806 E.01731
G1 X74.249 Y87.446 E.02168
G1 X73.809 Y87.281 E.01473
G1 X73.388 Y87.197 E.01346
G1 X72.815 Y87.187 E.01797
G1 X72.155 Y87.311 E.02105
G1 X71.718 Y87.482 E.01469
G1 X71.349 Y87.7 E.01346
G1 X70.954 Y88.031 E.01616
G1 X70.632 Y88.423 E.01591
G1 X70.633 Y15.607 E2.2831
G1 X70.724 Y15.738 E.005
G1 X71.146 Y16.167 E.01886
G1 X71.645 Y16.509 E.01897
G1 X72.037 Y16.682 E.01346
G1 X72.451 Y16.797 E.01345
G1 X72.877 Y16.849 E.01345
G1 X73.306 Y16.84 E.01345
G1 X73.847 Y16.732 E.01731
G1 X74.53 Y16.439 E.0233
G1 X74.945 Y16.139 E.01603
G1 X75.391 Y15.651 E.02074
G1 X75.669 Y15.199 E.01665
G1 X75.828 Y14.8 E.01345
G1 X75.927 Y14.383 E.01345
G1 X75.964 Y13.955 E.01345
G1 X75.939 Y13.527 E.01345
G1 X75.852 Y13.107 E.01345
G1 X75.704 Y12.704 E.01345
G1 X75.499 Y12.327 E.01345
G1 X75.185 Y11.921 E.0161
G1 X74.714 Y11.521 E.01937
G1 X147.528 Y11.521 E2.28301
G1 X147.221 Y11.767 E.01232
G1 X146.968 Y12.037 E.01161
G1 X146.683 Y12.44 E.01545
G1 X146.495 Y12.826 E.01346
G1 X146.366 Y13.235 E.01346
G1 X146.297 Y13.658 E.01345
G1 X146.291 Y14.087 E.01345
G1 X146.379 Y14.633 E.01731
G1 X146.626 Y15.278 E.02168
G1 X146.874 Y15.678 E.01473
G1 X147.156 Y16.001 E.01345
G1 X147.482 Y16.28 E.01345
G1 X147.845 Y16.509 E.01345
G1 X148.238 Y16.682 E.01345
G1 X148.651 Y16.797 E.01345
G1 X149.077 Y16.849 E.01345
G1 X149.506 Y16.84 E.01345
G1 X149.929 Y16.768 E.01345
G1 X150.337 Y16.635 E.01345
G1 X150.721 Y16.444 E.01346
G1 X151.074 Y16.199 E.01346
G1 X151.387 Y15.904 E.0135
G1 X151.583 Y15.653 E.00997
;WIPE_START
G1 F8640
G1 X151.585 Y19.767 E-.95
;WIPE_END
G1 E-.05 F2100
G1 Z.4 F10800
G1 X151.272 Y12.527
G1 Z.2
G1 E1 F2100
;TYPE:External perimeter
;WIDTH:0.426891
G1 F1200
G1 X151.531 Y13.055 E.01876
;WIDTH:0.430888
G1 X151.666 Y13.636 E.01926
G1 X151.699 Y13.928 E.00948
;WIDTH:0.427981
G1 X151.651 Y14.599 E.02153
G1 X151.528 Y15 E.01343
;WIDTH:0.419999
G1 X151.352 Y15.334 E.01182
G1 X151.124 Y15.633 E.01179
G1 X150.854 Y15.892 E.01175
G1 X150.549 Y16.109 E.01173
G1 X150.215 Y16.278 E.01173
G1 X149.86 Y16.397 E.01173
G1 X149.492 Y16.463 E.01173
G1 X149.118 Y16.475 E.01173
G1 X148.746 Y16.432 E.01173
G1 X148.385 Y16.335 E.01173
G1 X148.041 Y16.187 E.01173
G1 X147.723 Y15.99 E.01173
G1 X147.437 Y15.749 E.01173
G1 X147.189 Y15.469 E.01173
G1 X146.979 Y15.144 E.01216
G1 X146.731 Y14.498 E.02168
G1 X146.669 Y14.087 E.01302
G1 X146.671 Y13.713 E.01173
G1 X146.727 Y13.343 E.01173
G1 X146.837 Y12.986 E.01173
G1 X146.997 Y12.648 E.01173
G1 X147.248 Y12.29 E.01371
G1 X147.459 Y12.059 E.00979
G1 X147.894 Y11.742 E.01688
;WIDTH:0.435998
G1 X148.407 Y11.515 E.01834
G1 X149.108 Y11.443 E.02305
;WIDTH:0.417047
G1 X149.522 Y11.464 E.01289
;WIDTH:0.41112
G1 X150.166 Y11.634 E.02037
;WIDTH:0.413941
G1 X150.783 Y12 E.02215
;WIDTH:0.420572
G1 X151.231 Y12.483 E.02069
G1 X151.634 Y12.41 F10800
;WIDTH:0.415445
G1 F1200
G1 X151.929 Y13.054 E.02196
;WIDTH:0.430888
G1 X152.052 Y13.595 E.0179
G1 X152.075 Y13.953 E.01158
;WIDTH:0.430181
G1 X151.997 Y15.408 E.04689
;WIDTH:0.419999
G1 X151.997 Y88.631 E2.29586
;WIDTH:0.428352
G1 X152.034 Y89.387 E.02427
;WIDTH:0.428777
G1 X152.071 Y90.122 E.02361
;WIDTH:0.428949
G1 X151.979 Y90.816 E.02246
G1 X151.733 Y91.457 E.02203
;WIDTH:0.424189
G1 X151.29 Y92.067 E.02392
;WIDTH:0.425462
G1 X150.86 Y92.441 E.01813
G1 X150.673 Y92.553 E.00694
;WIDTH:0.429686
G1 X150.211 Y92.779 E.01654
;WIDTH:0.431258
G1 X149.581 Y92.935 E.02096
G1 X149.092 Y92.959 E.01579
;WIDTH:0.443064
G1 X147.732 Y92.885 E.04533
;WIDTH:0.419999
G1 X74.482 Y92.886 E2.29669
;WIDTH:0.422694
G1 X73.641 Y92.93 E.02659
G1 X72.852 Y92.945 E.02493
;WIDTH:0.428285
G1 X72.323 Y92.868 E.01714
;WIDTH:0.431437
G1 X71.726 Y92.641 E.02062
G1 X71.383 Y92.424 E.01312
;WIDTH:0.412994
G1 X71.009 Y92.108 E.01508
;WIDTH:0.42875
G1 X70.674 Y91.709 E.0167
;WIDTH:0.431471
G1 X70.36 Y91.099 E.02216
G1 X70.2 Y90.435 E.02209
;WIDTH:0.429028
G1 X70.186 Y89.887 E.01759
;WIDTH:0.44433
G1 X70.236 Y89.212 E.02258
G1 X70.255 Y88.621 E.01975
;WIDTH:0.419999
G1 X70.252 Y15.346 E2.29748
;WIDTH:0.444333
G1 X70.181 Y13.906 E.04811
;WIDTH:0.424844
M73 P1 R88
M73 Q1 S89
G1 X70.267 Y13.21 E.02228
;WIDTH:0.42099
G1 X70.571 Y12.485 E.02471
;WIDTH:0.426612
G1 X70.913 Y12.012 E.01862
G1 X71.436 Y11.553 E.0222
;WIDTH:0.422679
G1 X71.994 Y11.262 E.01988
G1 X72.176 Y11.207 E.00598
;WIDTH:0.42785
G1 X72.706 Y11.088 E.01738
G1 X73.347 Y11.079 E.02054
;WIDTH:0.419999
G1 X74.519 Y11.144 E.03679
G1 X146.539 Y11.149 E2.25814
G1 X147.902 Y11.134 E.04272
;WIDTH:0.435313
G1 X149.235 Y11.067 E.04357
;WIDTH:0.431125
G1 X149.928 Y11.161 E.02258
G1 X150.566 Y11.408 E.02208
;WIDTH:0.427875
G1 X151.13 Y11.8 E.02197
;WIDTH:0.422251
G1 X151.595 Y12.363 E.02305
;WIPE_START
G1 F8640
G1 X151.929 Y13.054 E-.17714
G1 X152.052 Y13.595 E-.12813
G1 X152.075 Y13.953 E-.08289
G1 X151.997 Y15.408 E-.33624
G1 X151.997 Y16.385 E-.2256
;WIPE_END
G1 E-.05 F2100
G1 Z.4 F10800
G1 X127.529 Y18.537
G1 Z.2
G1 E1 F2100
;TYPE:Perimeter
;WIDTH:0.419999
G1 F1200
G1 X127.686 Y18.669 E.00643
G1 X127.786 Y18.948 E.00931
G1 X127.788 Y22.24 E.10321
G1 X128.477 Y22.63 E.02485
G1 X129.529 Y23.278 E.03872
G1 X130.574 Y23.974 E.03937
G1 X131.592 Y24.709 E.03937
G1 X132.583 Y25.48 E.03937
G1 X133.229 Y26.022 E.02643
G1 X134.472 Y27.126 E.05214
G1 X135.376 Y28.006 E.03954
G1 X135.956 Y28.613 E.02632
G1 X137.076 Y29.854 E.05242
G1 X137.874 Y30.824 E.03937
G1 X138.635 Y31.822 E.03937
G1 X139.359 Y32.848 E.03937
G1 X140.045 Y33.9 E.03937
G1 X140.703 Y34.994 E.04003
G1 X141.309 Y36.094 E.03937
G1 X141.887 Y37.24 E.04024
G1 X141.948 Y37.495 E.00821
G1 X141.948 Y65.801 E.88753
G1 X142.081 Y65.883 E.0049
G1 X142.141 Y66.153 E.00867
G1 X142.082 Y66.391 E.00768
G1 X141.379 Y67.8 E.04937
G1 X140.785 Y68.89 E.03893
G1 X140.084 Y70.063 E.04286
G1 X139.479 Y71.002 E.035
G1 X138.769 Y72.02 E.03893
G1 X138.044 Y72.978 E.03768
G1 X137.145 Y74.093 E.04491
G1 X136.299 Y75.052 E.0401
G1 X135.649 Y75.737 E.02961
G1 X134.527 Y76.851 E.04956
G1 X133.592 Y77.699 E.03959
G1 X132.326 Y78.748 E.05153
G1 X131.627 Y79.294 E.0278
G1 X130.608 Y80.03 E.03943
G1 X129.541 Y80.743 E.04023
G1 X128.483 Y81.394 E.03894
G1 X127.788 Y81.788 E.02508
G1 X127.788 Y85.039 E.10192
G1 X127.721 Y85.303 E.00856
G1 X127.546 Y85.5 E.00826
G1 X127.459 Y85.55 E.00313
G1 X126.18 Y86.141 E.04417
G1 X124.99 Y86.641 E.04046
G1 X123.766 Y87.106 E.04108
G1 X122.544 Y87.523 E.04046
G1 X121.328 Y87.891 E.03985
G1 X120.062 Y88.227 E.04108
G1 X118.823 Y88.511 E.03985
G1 X117.556 Y88.755 E.04046
G1 X116.262 Y88.958 E.04108
G1 X114.98 Y89.114 E.04046
G1 X113.714 Y89.224 E.03985
G1 X112.426 Y89.291 E.04046
G1 X111.135 Y89.314 E.04046
G1 X109.825 Y89.291 E.04108
G1 X108.537 Y89.224 E.04046
G1 X107.27 Y89.114 E.03985
G1 X105.97 Y88.956 E.04107
G1 X104.695 Y88.755 E.04046
G1 X103.447 Y88.515 E.03985
G1 X102.17 Y88.223 E.04108
G1 X100.942 Y87.896 E.03985
G1 X99.707 Y87.523 E.04046
G1 X98.467 Y87.1 E.04108
G1 X97.279 Y86.648 E.03985
G1 X96.089 Y86.148 E.04046
G1 X94.792 Y85.55 E.04478
G1 X94.578 Y85.378 E.0086
G1 X94.468 Y85.11 E.00909
G1 X94.463 Y81.788 E.10415
G1 X93.796 Y81.411 E.02405
G1 X92.73 Y80.756 E.03922
G1 X91.899 Y80.202 E.03131
G1 X90.674 Y79.331 E.04712
G1 X89.687 Y78.563 E.03922
G1 X88.507 Y77.561 E.04853
G1 X87.799 Y76.922 E.02991
G1 X86.902 Y76.05 E.03922
G1 X86.096 Y75.207 E.03658
G1 X85.207 Y74.211 E.04186
G1 X84.411 Y73.246 E.03922
G1 X83.65 Y72.253 E.03922
G1 X82.927 Y71.232 E.03922
G1 X82.242 Y70.186 E.03922
G1 X81.585 Y69.097 E.03987
G1 X80.978 Y68.003 E.03922
G1 X80.4 Y66.862 E.0401
G1 X80.338 Y66.606 E.00825
G1 X80.338 Y37.424 E.915
G1 X80.399 Y37.169 E.00823
G1 X80.958 Y36.064 E.03881
G1 X81.564 Y34.967 E.03931
G1 X82.21 Y33.892 E.03931
G1 X82.895 Y32.843 E.03931
G1 X83.619 Y31.819 E.03931
G1 X84.379 Y30.822 E.03931
G1 X85.175 Y29.854 E.03931
G1 X86.007 Y28.916 E.03931
G1 X86.872 Y28.009 E.03931
G1 X87.774 Y27.13 E.03948
G1 X88.716 Y26.279 E.03978
G1 X89.676 Y25.473 E.03931
G1 X90.649 Y24.716 E.03865
G1 X91.665 Y23.982 E.03931
G1 X92.725 Y23.275 E.03996
G1 X93.776 Y22.629 E.03865
G1 X94.463 Y22.24 E.02478
G1 X94.463 Y18.992 E.10185
G1 X94.521 Y18.742 E.00802
G1 X94.7 Y18.531 E.00868
G1 X96.071 Y17.888 E.04749
G1 X97.279 Y17.38 E.04108
G1 X98.467 Y16.928 E.03985
G1 X99.688 Y16.511 E.04046
G1 X100.942 Y16.132 E.04108
G1 X102.17 Y15.806 E.03985
G1 X103.428 Y15.517 E.04046
G1 X104.714 Y15.27 E.04108
G1 X105.97 Y15.073 E.03985
G1 X107.251 Y14.916 E.04046
G1 X108.556 Y14.803 E.04108
G1 X109.825 Y14.737 E.03985
G1 X110.775 Y14.72 E.02979
G1 X112.425 Y14.737 E.05174
G1 X113.714 Y14.804 E.04046
G1 X114.98 Y14.914 E.03985
G1 X116.281 Y15.073 E.04107
G1 X117.536 Y15.27 E.03985
G1 X118.804 Y15.513 E.04046
G1 X120.081 Y15.806 E.04108
G1 X121.309 Y16.132 E.03985
G1 X122.544 Y16.505 E.04046
G1 X123.784 Y16.928 E.04108
G1 X124.972 Y17.38 E.03985
G1 X126.162 Y17.88 E.04046
G1 X127.483 Y18.498 E.04574
G1 X127.301 Y18.82 F10800
;TYPE:External perimeter
G1 F1200
G1 X127.401 Y18.933 E.00472
G1 X127.41 Y18.992 E.00187
G1 X127.41 Y22.46 E.10875
G1 X128.28 Y22.952 E.03131
G1 X129.337 Y23.602 E.03894
G1 X130.365 Y24.288 E.03872
G1 X131.377 Y25.019 E.03916
G1 X132.351 Y25.778 E.03872
G1 X132.986 Y26.311 E.026
G1 X134.224 Y27.41 E.05189
G1 X135.113 Y28.276 E.03892
G1 X135.683 Y28.873 E.02589
G1 X136.794 Y30.104 E.05198
G1 X137.582 Y31.063 E.03894
G1 X138.335 Y32.051 E.03894
G1 X139.051 Y33.066 E.03894
G1 X139.73 Y34.106 E.03894
G1 X140.373 Y35.176 E.03916
G1 X140.972 Y36.264 E.03894
G1 X141.55 Y37.41 E.04024
G1 X141.571 Y37.495 E.00274
G1 X141.571 Y65.95 E.89218
G1 X141.758 Y66.088 E.0073
M73 Q1 S88
G1 X141.745 Y66.223 E.00423
G1 X141.042 Y67.632 E.04937
G1 X140.454 Y68.709 E.0385
G1 X139.767 Y69.859 E.042
G1 X139.162 Y70.797 E.035
G1 X138.567 Y71.65 E.0326
G1 X137.58 Y72.967 E.05159
G1 X136.853 Y73.854 E.03597
G1 X136.016 Y74.803 E.03967
G1 X135.375 Y75.478 E.02918
G1 X134.263 Y76.581 E.04912
G1 X133.338 Y77.42 E.03915
G1 X132.094 Y78.451 E.05066
G1 X131.398 Y78.994 E.0277
G1 X130.387 Y79.725 E.0391
G1 X129.349 Y80.418 E.03913
G1 X128.286 Y81.073 E.03916
G1 X127.41 Y81.568 E.03153
G1 X127.41 Y85.037 E.10877
G1 X127.354 Y85.171 E.00455
G1 X126.022 Y85.798 E.04617
G1 X124.844 Y86.293 E.04005
G1 X123.644 Y86.75 E.04026
G1 X122.435 Y87.162 E.04005
G1 X121.219 Y87.53 E.03985
G1 X119.978 Y87.86 E.04026
G1 X118.739 Y88.143 E.03985
G1 X117.481 Y88.385 E.04015
G1 X116.216 Y88.584 E.04016
G1 X114.948 Y88.738 E.04005
G1 X113.682 Y88.848 E.03985
G1 X112.399 Y88.915 E.04026
G1 X111.125 Y88.937 E.03995
G1 X109.845 Y88.914 E.04016
G1 X108.576 Y88.848 E.03985
G1 X107.303 Y88.738 E.04006
G1 X106.028 Y88.583 E.04026
G1 X104.773 Y88.386 E.03985
G1 X103.519 Y88.144 E.04005
G1 X102.267 Y87.858 E.04026
G1 X101.039 Y87.532 E.03985
G1 X99.816 Y87.162 E.04005
G1 X98.601 Y86.747 E.04026
G1 X97.407 Y86.293 E.04005
M73 P1 R87
G1 X96.235 Y85.801 E.03985
G1 X94.95 Y85.208 E.04438
G1 X94.846 Y85.082 E.00511
G1 X94.84 Y81.568 E.11018
G1 X93.981 Y81.083 E.03095
G1 X93.435 Y80.747 E.02011
G1 X92.928 Y80.435 E.01868
G1 X92.108 Y79.888 E.03088
G1 X90.895 Y79.025 E.04669
G1 X89.918 Y78.266 E.03879
G1 X88.76 Y77.281 E.04766
G1 X88.052 Y76.642 E.02991
G1 X87.165 Y75.78 E.03879
G1 X86.368 Y74.946 E.03615
G1 X85.489 Y73.961 E.04142
G1 X84.701 Y73.006 E.03879
G1 X83.95 Y72.024 E.03879
G1 X83.235 Y71.014 E.03879
G1 X82.557 Y69.979 E.03879
G1 X81.914 Y68.914 E.039
G1 X81.315 Y67.832 E.03879
G1 X80.736 Y66.692 E.0401
G1 X80.715 Y66.606 E.00275
G1 X80.715 Y37.424 E.91499
G1 X80.736 Y37.339 E.00274
G1 X81.294 Y36.234 E.03881
G1 X81.894 Y35.149 E.03887
G1 X82.533 Y34.087 E.03887
G1 X83.211 Y33.049 E.03887
G1 X83.927 Y32.036 E.03887
G1 X84.679 Y31.051 E.03887
G1 X85.467 Y30.093 E.03887
G1 X86.289 Y29.166 E.03887
G1 X87.145 Y28.269 E.03887
G1 X88.035 Y27.403 E.03893
G1 X88.958 Y26.568 E.03903
G1 X89.908 Y25.771 E.03887
G1 X90.88 Y25.014 E.03865
G1 X91.889 Y24.286 E.03898
G1 X92.923 Y23.596 E.03898
G1 X93.973 Y22.951 E.03865
G1 X94.84 Y22.46 E.03125
G1 X94.84 Y18.992 E.10874
G1 X94.894 Y18.86 E.00446
G1 X96.229 Y18.23 E.04628
G1 X97.413 Y17.732 E.04026
G1 X98.607 Y17.279 E.04005
G1 X99.81 Y16.868 E.03985
G1 X101.032 Y16.498 E.04005
G1 X102.273 Y16.168 E.04026
G1 X103.512 Y15.885 E.03985
G1 X104.77 Y15.643 E.04015
