; generated by PrusaSlicer 2.5.0+win64 on 2023-07-05 at 21:24:19 UTC

; 

; external perimeters extrusion width = 0.25mm
; perimeters extrusion width = 0.25mm
; infill extrusion width = 0.25mm
; solid infill extrusion width = 0.25mm
; top infill extrusion width = 0.25mm
; first layer extrusion width = 0.30mm

; external perimeters extrusion width = 0.25mm
; perimeters extrusion width = 0.25mm
; infill extrusion width = 0.25mm
; solid infill extrusion width = 0.25mm
; top infill extrusion width = 0.25mm
; first layer extrusion width = 0.30mm

; external perimeters extrusion width = 0.25mm
; perimeters extrusion width = 0.25mm
; infill extrusion width = 0.25mm
; solid infill extrusion width = 0.25mm
; top infill extrusion width = 0.25mm
; first layer extrusion width = 0.30mm

; external perimeters extrusion width = 0.25mm
; perimeters extrusion width = 0.25mm
; infill extrusion width = 0.25mm
; solid infill extrusion width = 0.25mm
; top infill extrusion width = 0.25mm
; first layer extrusion width = 0.30mm

; external perimeters extrusion width = 0.25mm
; perimeters extrusion width = 0.25mm
; infill extrusion width = 0.25mm
; solid infill extrusion width = 0.25mm
; top infill extrusion width = 0.25mm
; first layer extrusion width = 0.30mm

; external perimeters extrusion width = 0.25mm
; perimeters extrusion width = 0.25mm
; infill extrusion width = 0.25mm
; solid infill extrusion width = 0.25mm
; top infill extrusion width = 0.25mm
; first layer extrusion width = 0.30mm

; external perimeters extrusion width = 0.25mm
; perimeters extrusion width = 0.25mm
; infill extrusion width = 0.25mm
; solid infill extrusion width = 0.25mm
; top infill extrusion width = 0.25mm
; first layer extrusion width = 0.30mm

; external perimeters extrusion width = 0.25mm
; perimeters extrusion width = 0.25mm
; infill extrusion width = 0.25mm
; solid infill extrusion width = 0.25mm
; top infill extrusion width = 0.25mm
; first layer extrusion width = 0.30mm

; external perimeters extrusion width = 0.25mm
; perimeters extrusion width = 0.25mm
; infill extrusion width = 0.25mm
; solid infill extrusion width = 0.25mm
; top infill extrusion width = 0.25mm
; first layer extrusion width = 0.30mm

; external perimeters extrusion width = 0.25mm
; perimeters extrusion width = 0.25mm
; infill extrusion width = 0.25mm
; solid infill extrusion width = 0.25mm
; top infill extrusion width = 0.25mm
; first layer extrusion width = 0.30mm

; external perimeters extrusion width = 0.25mm
; perimeters extrusion width = 0.25mm
; infill extrusion width = 0.25mm
; solid infill extrusion width = 0.25mm
; top infill extrusion width = 0.25mm
; first layer extrusion width = 0.30mm

; external perimeters extrusion width = 0.25mm
; perimeters extrusion width = 0.25mm
; infill extrusion width = 0.25mm
; solid infill extrusion width = 0.25mm
; top infill extrusion width = 0.25mm
; first layer extrusion width = 0.30mm

; external perimeters extrusion width = 0.25mm
; perimeters extrusion width = 0.25mm
; infill extrusion width = 0.25mm
; solid infill extrusion width = 0.25mm
; top infill extrusion width = 0.25mm
; first layer extrusion width = 0.30mm

; external perimeters extrusion width = 0.25mm
; perimeters extrusion width = 0.25mm
; infill extrusion width = 0.25mm
; solid infill extrusion width = 0.25mm
; top infill extrusion width = 0.25mm
; first layer extrusion width = 0.30mm

; external perimeters extrusion width = 0.25mm
; perimeters extrusion width = 0.25mm
; infill extrusion width = 0.25mm
; solid infill extrusion width = 0.25mm
; top infill extrusion width = 0.25mm
; first layer extrusion width = 0.30mm

; external perimeters extrusion width = 0.25mm
; perimeters extrusion width = 0.25mm
; infill extrusion width = 0.25mm
; solid infill extrusion width = 0.25mm
; top infill extrusion width = 0.25mm
; first layer extrusion width = 0.30mm

; external perimeters extrusion width = 0.25mm
; perimeters extrusion width = 0.25mm
; infill extrusion width = 0.25mm
; solid infill extrusion width = 0.25mm
; top infill extrusion width = 0.25mm
; first layer extrusion width = 0.30mm

; external perimeters extrusion width = 0.25mm
; perimeters extrusion width = 0.25mm
; infill extrusion width = 0.25mm
; solid infill extrusion width = 0.25mm
; top infill extrusion width = 0.25mm
; first layer extrusion width = 0.30mm

; external perimeters extrusion width = 0.25mm
; perimeters extrusion width = 0.25mm
; infill extrusion width = 0.25mm
; solid infill extrusion width = 0.25mm
; top infill extrusion width = 0.25mm
; first layer extrusion width = 0.30mm

; external perimeters extrusion width = 0.25mm
; perimeters extrusion width = 0.25mm
; infill extrusion width = 0.25mm
; solid infill extrusion width = 0.25mm
; top infill extrusion width = 0.25mm
; first layer extrusion width = 0.30mm

; external perimeters extrusion width = 0.25mm
; perimeters extrusion width = 0.25mm
; infill extrusion width = 0.25mm
; solid infill extrusion width = 0.25mm
; top infill extrusion width = 0.25mm
; first layer extrusion width = 0.30mm

; external perimeters extrusion width = 0.25mm
; perimeters extrusion width = 0.25mm
; infill extrusion width = 0.25mm
; solid infill extrusion width = 0.25mm
; top infill extrusion width = 0.25mm
; first layer extrusion width = 0.30mm

; external perimeters extrusion width = 0.25mm
; perimeters extrusion width = 0.25mm
; infill extrusion width = 0.25mm
; solid infill extrusion width = 0.25mm
; top infill extrusion width = 0.25mm
; first layer extrusion width = 0.30mm

; external perimeters extrusion width = 0.25mm
; perimeters extrusion width = 0.25mm
; infill extrusion width = 0.25mm
; solid infill extrusion width = 0.25mm
; top infill extrusion width = 0.25mm
; first layer extrusion width = 0.30mm

; external perimeters extrusion width = 0.25mm
; perimeters extrusion width = 0.25mm
; infill extrusion width = 0.25mm
; solid infill extrusion width = 0.25mm
; top infill extrusion width = 0.25mm
; first layer extrusion width = 0.30mm

; external perimeters extrusion width = 0.25mm
; perimeters extrusion width = 0.25mm
; infill extrusion width = 0.25mm
; solid infill extrusion width = 0.25mm
; top infill extrusion width = 0.25mm
; first layer extrusion width = 0.30mm

; external perimeters extrusion width = 0.25mm
; perimeters extrusion width = 0.25mm
; infill extrusion width = 0.25mm
; solid infill extrusion width = 0.25mm
; top infill extrusion width = 0.25mm
; first layer extrusion width = 0.30mm

; external perimeters extrusion width = 0.25mm
; perimeters extrusion width = 0.25mm
; infill extrusion width = 0.25mm
; solid infill extrusion width = 0.25mm
; top infill extrusion width = 0.25mm
; first layer extrusion width = 0.30mm

; external perimeters extrusion width = 0.25mm
; perimeters extrusion width = 0.25mm
; infill extrusion width = 0.25mm
; solid infill extrusion width = 0.25mm
; top infill extrusion width = 0.25mm
; first layer extrusion width = 0.30mm

; external perimeters extrusion width = 0.25mm
; perimeters extrusion width = 0.25mm
; infill extrusion width = 0.25mm
; solid infill extrusion width = 0.25mm
; top infill extrusion width = 0.25mm
; first layer extrusion width = 0.30mm

M73 P0 R58
M73 Q0 S58
M201 X1000 Y1000 Z200 E5000 ; sets maximum accelerations, mm/sec^2
M203 X200 Y200 Z12 E120 ; sets maximum feedrates, mm / sec
M204 P1250 R1250 T1250 ; sets acceleration (P, T) and retract acceleration (R), mm/sec^2
M205 X8.00 Y8.00 Z0.40 E4.50 ; sets the jerk limits, mm/sec
M205 S0 T0 ; sets the minimum extruding and travel feed rate, mm/sec
M107
;TYPE:Custom
M862.3 P "MK3S" ; printer model check
M862.1 P0.25 ; nozzle diameter check
M115 U3.10.1 ; tell printer latest fw version
G90 ; use absolute coordinates
M83 ; extruder relative mode
M104 S230 ; set extruder temp
M140 S85 ; set bed temp
M190 S85 ; wait for bed temp
M109 S230 ; wait for extruder temp
G28 W ; home all without mesh bed level
G80 ; mesh bed leveling
G1 Y-3.0 F1000.0 ; go outside print area
G92 E0.0
G1 X60.0 E8.0 F700.0 ; intro line
G1 X100.0 E12.5 F700.0 ; intro line
G92 E0.0
M221 S100

; Don't change E value below. Excessive value can damage the printer.
M907 E430 ; set extruder motor current
G21 ; set units to millimeters
G90 ; use absolute coordinates
M83 ; use relative distances for extrusion
M900 K0.08 ; Filament gcode LA 1.5
M900 K45 ; Filament gcode LA 1.0
M107
;LAYER_CHANGE
;Z:0.2
;HEIGHT:0.2
;BEFORE_LAYER_CHANGE
G92 E0.0
;0.2


G1 E-1 F2100
G1 Z.2 F10800
;AFTER_LAYER_CHANGE
;0.2
G1 Z.4
G1 X14.644 Y23.119
G1 Z.2
G1 E1 F2100
M204 S500
;TYPE:Skirt/Brim
;WIDTH:0.3
G1 F1200
G1 X34.576 Y10.494 E.50435
G1 X35.766 Y10.144 E.02653
G1 X45.901 Y10.067 E.21666
G1 X47.477 Y10.692 E.03624
G1 X64.346 Y26.802 E.49861
G1 X65.041 Y28.314 E.03557
G1 X71.319 Y145.723 E2.51336
G1 X71.322 Y147.844 E.04533
M73 P0 R57
G1 X70.931 Y149.114 E.0284
G1 X69.893 Y149.943 E.0284
G1 X69.065 Y150.101 E.01802
G1 X16.552 Y149.851 E1.12255
G1 X15.887 Y149.771 E.0143
G1 X15.301 Y149.57 E.01325
G1 X14.484 Y149.012 E.02114
G1 X13.952 Y148.328 E.01853
G1 X13.611 Y147.4 E.02114
G1 X10.016 Y125.513 E.47412
G1 X8.06 Y103.232 E.47811
G1 X7.282 Y29.52 E1.57579
G1 X7.333 Y28.878 E.01375
G1 X7.615 Y28.059 E.01853
G1 X7.878 Y27.638 E.01061
G1 X8.591 Y26.953 E.02115
G1 X14.612 Y23.139 E.15235
M204 S1000
; printing object WATER_LINE V.stl id:1 copy 0
;WIPE_START
G1 F8640
G1 X18.088 Y20.938 E-.95
;WIPE_END
G1 E-.05 F2100
G1 Z.4 F10800
G1 X35.704 Y13.853
G1 Z.2
G1 E1 F2100
M204 S500
;TYPE:Perimeter
;WIDTH:0.38222
G1 F1200
G1 X35.637 Y13.89 E.00215
;WIDTH:0.340502
G1 X35.491 Y13.971 E.00415
;WIDTH:0.298784
G1 X35.344 Y14.053 E.00357
;WIDTH:0.257065
G1 X32.028 Y17.37 E.08352
;WIDTH:0.256323
G1 X31.872 Y17.437 E.00301
G1 X31.805 Y17.342 E.00207
G1 X31.877 Y17.219 E.00254
;WIDTH:0.257065
G1 X35.193 Y13.901 E.08352
;WIDTH:0.298784
G1 X35.39 Y13.734 E.0055
;WIDTH:0.340502
G1 X35.587 Y13.566 E.0064
;WIDTH:0.38222
G1 X35.784 Y13.399 E.0073
G1 X36.06 Y13.646 E.01047
;WIDTH:0.340583
G1 X36.217 Y13.773 E.005
;WIDTH:0.298945
G1 X36.374 Y13.901 E.0043
;WIDTH:0.257307
G1 X38.237 Y15.763 E.04696
;WIDTH:0.256511
G1 X38.638 Y16.17 E.01014
;WIDTH:0.253273
G1 X38.71 Y16.282 E.00233
G1 X38.706 Y16.318 E.00064
G1 X38.607 Y16.383 E.00206
G1 X38.488 Y16.318 E.00236
;WIDTH:0.256511
G1 X38.086 Y15.914 E.01012
;WIDTH:0.257307
G1 X36.223 Y14.052 E.04696
;WIDTH:0.298945
G1 X36.076 Y13.971 E.00356
;WIDTH:0.340583
G1 X35.93 Y13.89 E.00414
;WIDTH:0.38222
G1 X35.784 Y13.808 E.00472
G1 X35.737 Y13.834 E.00152
M204 S1000
G1 X35.756 Y14.118 F10800
M204 S500
;WIDTH:0.299999
G1 F1200
G1 X35.511 Y14.219 E.00568
G1 X32.194 Y17.536 E.10026
G1 X32.008 Y17.664 E.00484
G1 X31.799 Y17.661 E.00446
G1 X31.61 Y17.518 E.00507
G1 X31.563 Y17.35 E.00373
G1 X31.646 Y17.117 E.00529
G1 X35.784 Y12.977 E.12513
G1 X38.406 Y15.6 E.07929
G1 X38.904 Y16.127 E.0155
G1 X38.942 Y16.312 E.00404
G1 X38.865 Y16.505 E.00444
G1 X38.621 Y16.626 E.00581
G1 X38.363 Y16.523 E.00595
G1 X36.056 Y14.219 E.06969
G1 X35.791 Y14.109 E.00613
M204 S1000
G1 X35.783 Y14.363 F10800
M204 S500
;TYPE:External perimeter
G1 F1200
G1 X35.693 Y14.401 E.0021
G1 X32.376 Y17.718 E.10026
G1 X32.097 Y17.912 E.00726
G1 X31.84 Y17.945 E.00554
G1 X31.59 Y17.863 E.00563
G1 X31.38 Y17.652 E.00636
G1 X31.298 Y17.359 E.0065
G1 X31.331 Y17.205 E.00336
G1 X31.444 Y16.955 E.00588
G1 X35.783 Y12.613 E.13122
G1 X38.988 Y15.827 E.09702
G1 X39.175 Y16.087 E.00683
G1 X39.197 Y16.345 E.00554
G1 X39.143 Y16.551 E.00456
G1 X38.954 Y16.779 E.00634
G1 X38.735 Y16.858 E.00498
G1 X38.5 Y16.877 E.00504
G1 X38.211 Y16.735 E.00687
G1 X35.874 Y14.401 E.0706
G1 X35.818 Y14.378 E.0013
M204 S1000
G1 X35.734 Y14.278 F10800
; stop printing object WATER_LINE V.stl id:1 copy 0
; printing object WATER_LINE V.stl id:4 copy 0
;WIPE_START
G1 F8640
G1 X35.693 Y14.401 E-.02949
G1 X32.874 Y17.22 E-.92051
;WIPE_END
G1 E-.05 F2100
G1 Z.4 F10800
G1 X45.584 Y13.918
G1 Z.2
G1 E1 F2100
M204 S500
;TYPE:Perimeter
;WIDTH:0.297913
G1 F1200
G1 X45.48 Y13.976 E.00254
;WIDTH:0.256084
G1 X43.196 Y16.261 E.05726
;WIDTH:0.253429
G1 X43.165 Y16.287 E.00071
;WIDTH:0.25268
G1 X43.04 Y16.298 E.00219
G1 X42.99 Y16.206 E.00184
;WIDTH:0.253429
G1 X43.047 Y16.112 E.00192
;WIDTH:0.256084
G1 X45.329 Y13.825 E.05726
;WIDTH:0.297913
G1 X45.525 Y13.658 E.00548
;WIDTH:0.339741
G1 X45.722 Y13.49 E.00638
;WIDTH:0.381569
G1 X45.919 Y13.322 E.00728
G1 X46.195 Y13.57 E.01044
;WIDTH:0.339846
G1 X46.351 Y13.697 E.00498
;WIDTH:0.298123
G1 X46.508 Y13.824 E.00428
;WIDTH:0.2564
G1 X49.87 Y17.19 E.08446
;WIDTH:0.249489
G1 X49.906 Y17.262 E.00138
G1 X49.907 Y17.283 E.00035
G1 X49.823 Y17.372 E.0021
G1 X49.724 Y17.337 E.0018
;WIDTH:0.2564
G1 X46.357 Y13.975 E.08446
;WIDTH:0.298123
G1 X46.211 Y13.894 E.00355
;WIDTH:0.339846
G1 X46.065 Y13.813 E.00413
;WIDTH:0.381569
G1 X45.919 Y13.731 E.00471
G1 X45.772 Y13.813 E.00472
;WIDTH:0.339741
G1 X45.626 Y13.894 E.00414
;WIDTH:0.297913
G1 X45.617 Y13.899 E.00021
M204 S1000
G1 X45.891 Y14.041 F10800
M204 S500
;WIDTH:0.299999
G1 F1200
G1 X45.646 Y14.142 E.00568
G1 X43.285 Y16.491 E.07119
G1 X43.035 Y16.544 E.00545
G1 X42.822 Y16.418 E.00529
G1 X42.753 Y16.212 E.00466
G1 X42.824 Y16.005 E.00467
G1 X45.919 Y12.9 E.09371
G1 X50.074 Y17.066 E.12577
G1 X50.136 Y17.241 E.00398
G1 X50.127 Y17.357 E.00249
G1 X50.008 Y17.544 E.00474
G1 X49.807 Y17.611 E.00453
G1 X49.6 Y17.54 E.00468
G1 X46.191 Y14.142 E.10289
G1 X45.926 Y14.032 E.00613
M204 S1000
G1 X45.919 Y14.286 F10800
M204 S500
;TYPE:External perimeter
G1 F1200
G1 X45.828 Y14.324 E.0021
G1 X43.543 Y16.608 E.06906
G1 X43.335 Y16.748 E.00537
G1 X43.101 Y16.8 E.00512
G1 X42.89 Y16.765 E.00456
G1 X42.706 Y16.658 E.00456
G1 X42.537 Y16.439 E.00591
G1 X42.503 Y16.137 E.00649
G1 X42.612 Y15.854 E.00649
G1 X45.919 Y12.536 E.10013
G1 X50.217 Y16.845 E.1301
M73 P1 R57
M73 Q1 S58
G1 X50.329 Y17.002 E.00413
G1 X50.392 Y17.218 E.0048
G1 X50.403 Y17.328 E.00237
G1 X50.344 Y17.535 E.0046
G1 X50.236 Y17.67 E.00369
G1 X50.028 Y17.829 E.00561
G1 X49.733 Y17.861 E.00634
G1 X49.448 Y17.752 E.00651
G1 X46.009 Y14.324 E.1038
G1 X45.953 Y14.301 E.0013
M204 S1000
G1 X45.869 Y14.201 F10800
; stop printing object WATER_LINE V.stl id:4 copy 0
; printing object WATER_LINE bar.stl id:3 copy 0
;WIPE_START
G1 F8640
G1 X45.828 Y14.324 E-.02949
G1 X43.543 Y16.608 E-.74593
G1 X43.335 Y16.748 E-.05798
G1 X43.101 Y16.8 E-.05532
G1 X42.89 Y16.765 E-.04928
G1 X42.845 Y16.739 E-.01199
;WIPE_END
G1 E-.05 F2100
G1 Z.4 F10800
G1 X46.798 Y20.588
G1 Z.2
G1 E1 F2100
M204 S500
;TYPE:Perimeter
;WIDTH:0.255917
G1 F1200
G1 X46.655 Y20.634 E.00266
G1 X35.768 Y20.635 E.19282
;WIDTH:0.254881
G1 X35.648 Y20.572 E.00238
G1 X35.656 Y20.474 E.00174
G1 X35.768 Y20.423 E.00217
;WIDTH:0.255917
G1 X46.655 Y20.421 E.19282
G1 X46.76 Y20.441 E.00188
G1 X46.82 Y20.541 E.00207
G1 X46.814 Y20.554 E.00025
M204 S1000
G1 X46.891 Y20.799 F10800
M204 S500
;WIDTH:0.299999
G1 F1200
G1 X46.727 Y20.869 E.0038
G1 X35.768 Y20.869 E.23427
G1 X35.56 Y20.823 E.00454
G1 X35.402 Y20.615 E.0056
G1 X35.424 Y20.387 E.0049
G1 X35.53 Y20.257 E.00358
G1 X35.696 Y20.188 E.00385
G1 X46.655 Y20.186 E.23427
G1 X46.854 Y20.22 E.00431
G1 X47.026 Y20.383 E.00507
G1 X47.047 Y20.621 E.0051
G1 X46.925 Y20.785 E.00436
M204 S1000
G1 X47.001 Y21.058 F10800
M204 S500
;TYPE:External perimeter
G1 F1200
G1 X46.764 Y21.126 E.00528
G1 X35.768 Y21.126 E.23505
G1 X35.528 Y21.081 E.00523
G1 X35.296 Y20.946 E.00573
G1 X35.137 Y20.624 E.00768
G1 X35.185 Y20.274 E.00757
G1 X35.367 Y20.05 E.00617
G1 X35.675 Y19.931 E.00705
G1 X46.655 Y19.929 E.23471
G1 X46.957 Y19.979 E.00655
G1 X47.156 Y20.116 E.00515
G1 X47.288 Y20.371 E.00614
G1 X47.308 Y20.603 E.00499
G1 X47.186 Y20.906 E.00698
G1 X47.03 Y21.034 E.00431
M204 S1000
G1 X46.788 Y20.932 F10800
; stop printing object WATER_LINE bar.stl id:3 copy 0
; printing object WATER_LINE Dot.stl id:2 copy 0
;WIPE_START
G1 F8640
G1 X46.764 Y21.126 E-.06508
G1 X42.931 Y21.126 E-.88492
;WIPE_END
G1 E-.05 F2100
G1 Z.4 F10800
G1 X39.25 Y24.714
G1 Z.2
M73 Q1 S57
G1 E1 F2100
M204 S500
;TYPE:Perimeter
;WIDTH:0.242264
G1 F1200
G1 X39.174 Y24.635 E.00183
