; generated by PrusaSlicer 2.5.0+win64 on 2023-04-14 at 01:53:00 UTC

; 

; external perimeters extrusion width = 0.60mm
; perimeters extrusion width = 0.50mm
; infill extrusion width = 0.50mm
; solid infill extrusion width = 0.50mm
; top infill extrusion width = 0.45mm
; first layer extrusion width = 0.42mm

M73 P0 R50
M73 Q0 S51
M201 X1000 Y1000 Z200 E5000 ; sets maximum accelerations, mm/sec^2
M203 X200 Y200 Z12 E120 ; sets maximum feedrates, mm / sec
M204 P1250 R1250 T1250 ; sets acceleration (P, T) and retract acceleration (R), mm/sec^2
M205 X8.00 Y8.00 Z0.40 E4.50 ; sets the jerk limits, mm/sec
M205 S0 T0 ; sets the minimum extruding and travel feed rate, mm/sec
M107
;TYPE:Custom
M862.3 P "MK3S" ; printer model check
M862.1 P0.4 ; nozzle diameter check
M115 U3.10.1 ; tell printer latest fw version
G90 ; use absolute coordinates
M83 ; extruder relative mode
M104 S230 ; set extruder temp
M140 S85 ; set bed temp
M190 S85 ; wait for bed temp
M109 S230 ; wait for extruder temp
G28 W ; home all without mesh bed level
G80 ; mesh bed leveling
G1 Y-3.0 F1000.0 ; go outside print area
G92 E0.0
G1 X60.0 E9.0 F1000.0 ; intro line
G1 X100.0 E12.5 F1000.0 ; intro line
G92 E0.0
M221 S95

; Don't change E values below. Excessive value can damage the printer.

M907 E538 ; set extruder motor current
G21 ; set units to millimeters
G90 ; use absolute coordinates
M83 ; use relative distances for extrusion
M900 K0.08 ; Filament gcode LA 1.5
M900 K45 ; Filament gcode LA 1.0
M107
;LAYER_CHANGE
;Z:0.2
;HEIGHT:0.2
;BEFORE_LAYER_CHANGE
G92 E0.0
;0.2


G1 E-1 F2100
G1 Z.2 F10800
;AFTER_LAYER_CHANGE
;0.2
G1 Z.4
G1 X42.28 Y22.19
G1 Z.2
G1 E1 F2100
M204 S1000
;TYPE:Skirt/Brim
;WIDTH:0.42
G1 F1200
G1 X42.729 Y21.334 E.03029
G1 X43.319 Y20.581 E.02999
G1 X44.107 Y19.884 E.033
G1 X45.275 Y19.231 E.04195
G1 X46.188 Y18.947 E.02999
G1 X47.376 Y18.816 E.03749
G1 X123.72 Y18.82 E2.3937
G1 X124.765 Y18.947 E.033
G1 X125.678 Y19.231 E.02999
G1 X126.61 Y19.72 E.033
G1 X127.381 Y20.329 E.03079
G1 X128.224 Y21.334 E.04114
G1 X128.713 Y22.266 E.033
G1 X128.997 Y23.179 E.02999
G1 X129.124 Y24.224 E.033
G1 X129.128 Y100.568 E2.3937
G1 X128.997 Y101.756 E.03749
G1 X128.713 Y102.669 E.02999
G1 X128.224 Y103.601 E.033
G1 X127.634 Y104.354 E.02999
G1 X126.61 Y105.215 E.04195
G1 X125.678 Y105.704 E.033
G1 X124.765 Y105.989 E.02999
G1 X123.576 Y106.12 E.03748
G1 X47.376 Y106.12 E2.3892
G1 X46.188 Y105.989 E.03748
G1 X45.275 Y105.704 E.02999
G1 X44.343 Y105.215 E.033
G1 X43.59 Y104.625 E.02999
G1 X42.892 Y103.837 E.033
G1 X42.24 Y102.669 E.04195
G1 X41.955 Y101.756 E.02999
G1 X41.824 Y100.568 E.03749
G1 X41.824 Y24.368 E2.3892
G1 X41.955 Y23.179 E.03749
G1 X42.252 Y22.243 E.0308
; printing object Body1.stl id:0 copy 0
;WIPE_START
G1 F8640
G1 X42.729 Y21.334 E-.23694
G1 X43.319 Y20.581 E-.22084
G1 X44.107 Y19.884 E-.24302
G1 X45.049 Y19.357 E-.2492
;WIPE_END
G1 E-.05 F2100
G1 Z.4 F10800
G1 X121.853 Y102.938
G1 Z.2
G1 E1 F2100
;TYPE:Perimeter
;WIDTH:0.419999
G1 F1200
G1 X121.881 Y102.962 E.00114
G1 X49.065 Y102.96 E2.28308
G1 X49.321 Y102.764 E.01011
G1 X49.771 Y102.264 E.02108
G1 X50.072 Y101.73 E.01922
G1 X50.265 Y101.086 E.02108
G1 X50.314 Y100.621 E.01466
G1 X50.291 Y100.193 E.01345
G1 X50.205 Y99.772 E.01345
G1 X49.993 Y99.239 E.01798
G1 X49.606 Y98.655 E.02196
G1 X49.25 Y98.303 E.01572
G1 X48.826 Y98.016 E.01605
G1 X48.207 Y97.753 E.02108
G1 X47.729 Y97.651 E.01533
G1 X47.177 Y97.639 E.01731
G1 X46.516 Y97.761 E.02108
G1 X45.953 Y98.001 E.0192
G1 X45.312 Y98.478 E.02504
G1 X44.983 Y98.877 E.0162
G1 X44.984 Y26.06 E2.2831
G1 X45.406 Y26.543 E.02009
M73 P1 R50
M73 Q1 S50
G1 X45.953 Y26.934 E.02108
G1 X46.377 Y27.131 E.01467
G1 X46.934 Y27.269 E.01798
G1 X47.606 Y27.294 E.02108
G1 X48.068 Y27.224 E.01466
G1 X48.608 Y27.032 E.01798
G1 X49.182 Y26.682 E.02107
G1 X49.543 Y26.352 E.01533
G1 X50.026 Y25.641 E.02693
G1 X50.212 Y25.125 E.01721
G1 X50.31 Y24.46 E.02108
G1 X50.291 Y23.993 E.01466
G1 X50.159 Y23.434 E.01799
G1 X49.874 Y22.826 E.02108
G1 X49.527 Y22.366 E.01805
G1 X49.066 Y21.975 E.01895
G1 X121.881 Y21.974 E2.28308
G1 X121.475 Y22.32 E.01672
G1 X121.064 Y22.851 E.02108
G1 X120.803 Y23.406 E.01921
G1 X120.657 Y24.062 E.02108
G1 X120.657 Y24.674 E.01918
G1 X120.803 Y25.33 E.02108
G1 X120.988 Y25.759 E.01466
G1 X121.218 Y26.121 E.01345
G1 X121.537 Y26.485 E.01518
G1 X121.944 Y26.807 E.01626
G1 X122.594 Y27.138 E.02286
G1 X123.134 Y27.269 E.01742
G1 X123.806 Y27.294 E.02108
G1 X124.407 Y27.183 E.01918
G1 X125.026 Y26.92 E.02107
G1 X125.432 Y26.646 E.01535
G1 X125.745 Y26.348 E.01356
G1 X125.97 Y26.058 E.01151
G1 X125.969 Y98.876 E2.28317
G1 X125.7 Y98.543 E.01344
G1 X125.184 Y98.112 E.02107
G1 X124.639 Y97.832 E.01922
G1 X123.989 Y97.662 E.02108
G1 X123.377 Y97.639 E.01919
G1 X122.738 Y97.757 E.02038
G1 X122.397 Y97.882 E.01138
G1 X121.91 Y98.147 E.01738
G1 X121.56 Y98.43 E.01413
G1 X121.198 Y98.848 E.01731
G1 X120.869 Y99.434 E.02108
G1 X120.693 Y100.014 E.019
G1 X120.644 Y100.69 E.02126
G1 X120.733 Y101.295 E.01919
G1 X120.973 Y101.923 E.02108
G1 X121.232 Y102.339 E.01534
G1 X121.518 Y102.663 E.01356
G1 X121.807 Y102.9 E.01172
;WIPE_START
G1 F8640
G1 X121.881 Y102.962 E-.02226
G1 X117.863 Y102.961 E-.92774
;WIPE_END
G1 E-.05 F2100
G1 Z.4 F10800
G1 X121.33 Y25.6
G1 Z.2
G1 E1 F2100
;TYPE:External perimeter
G1 F1200
G1 X121.171 Y25.248 E.01213
G1 X121.025 Y24.592 E.02108
G1 X121.025 Y24.144 E.01404
G1 X121.171 Y23.488 E.02108
G1 X121.362 Y23.082 E.01405
G1 X121.773 Y22.55 E.02108
G1 X122.241 Y22.198 E.01837
;WIDTH:0.435388
G1 X122.767 Y21.967 E.01874
G1 X123.467 Y21.896 E.02296
;WIDTH:0.416955
G1 X123.88 Y21.919 E.01285
;WIDTH:0.411167
G1 X124.511 Y22.085 E.01998
;WIDTH:0.414397
G1 X125.139 Y22.457 E.02257
G1 X125.436 Y22.746 E.01279
;WIDTH:0.411371
G1 X125.795 Y23.291 E.02
G1 X125.947 Y23.688 E.01303
;WIDTH:0.420086
G1 X126.048 Y24.333 E.02046
;WIDTH:0.427345
G1 X126.003 Y25.044 E.02279
G1 X125.882 Y25.445 E.01337
;WIDTH:0.419999
G1 X125.725 Y25.752 E.01083
G1 X125.482 Y26.079 E.01276
G1 X125.212 Y26.339 E.01176
G1 X124.878 Y26.573 E.01277
G1 X124.26 Y26.836 E.02107
G1 X123.819 Y26.917 E.01404
G1 X123.148 Y26.892 E.02108
G1 X122.714 Y26.779 E.01404
G1 X122.117 Y26.472 E.02108
G1 X121.795 Y26.209 E.01301
G1 X121.534 Y25.914 E.01236
G1 X121.363 Y25.651 E.00985
G1 X120.943 Y25.591 F10800
;WIPE_START
G1 F8640
G1 X121.171 Y25.248 E-.10305
G1 X121.025 Y24.592 E-.15521
G1 X121.025 Y24.144 E-.10339
G1 X121.171 Y23.488 E-.15522
G1 X121.362 Y23.082 E-.10349
G1 X121.773 Y22.55 E-.15523
G1 X122.241 Y22.198 E-.13525
G1 X122.396 Y22.13 E-.03917
;WIPE_END
G1 E-.05 F2100
G1 Z.4 F10800
G1 X126.403 Y24.049
G1 Z.2
G1 E1 F2100
;WIDTH:0.430628
G1 F1200
G1 X126.427 Y24.4 E.01133
;WIDTH:0.429632
G1 X126.347 Y25.861 E.04707
;WIDTH:0.419999
G1 X126.348 Y99.084 E2.29586
;WIDTH:0.427691
G1 X126.385 Y99.85 E.02452
;WIDTH:0.42886
G1 X126.421 Y100.576 E.02332
G1 X126.341 Y101.225 E.02099
;WIDTH:0.428689
G1 X126.174 Y101.704 E.01626
;WIDTH:0.412724
G1 X125.95 Y102.117 E.01445
;WIDTH:0.416891
G1 X125.636 Y102.525 E.01602
;WIDTH:0.425182
G1 X125.21 Y102.895 E.01791
G1 X125.029 Y103.004 E.00673
;WIDTH:0.430341
G1 X124.561 Y103.233 E.01677
;WIDTH:0.43098
G1 X123.932 Y103.389 E.02094
G1 X123.451 Y103.413 E.01554
;WIDTH:0.442032
G1 X122.083 Y103.339 E.04546
;WIDTH:0.419999
G1 X48.843 Y103.339 E2.29639
;WIDTH:0.422292
G1 X47.984 Y103.384 E.02712
G1 X47.209 Y103.399 E.02446
;WIDTH:0.42892
G1 X46.674 Y103.321 E.01737
;WIDTH:0.431135
G1 X46.076 Y103.095 E.02061
G1 X45.779 Y102.908 E.01134
;WIDTH:0.412522
G1 X45.372 Y102.576 E.01616
;WIDTH:0.424984
G1 X45.023 Y102.164 E.01715
G1 X44.698 Y101.529 E.02266
;WIDTH:0.428782
G1 X44.551 Y100.888 E.0211
G1 X44.537 Y100.346 E.01739
;WIDTH:0.44586
G1 X44.588 Y99.657 E.02317
G1 X44.606 Y99.074 E.01953
;WIDTH:0.419999
G1 X44.602 Y25.788 E2.29784
;WIDTH:0.443343
G1 X44.532 Y24.36 E.04761
;WIDTH:0.425327
M73 P1 R49
G1 X44.61 Y23.685 E.02159
;WIDTH:0.42155
G1 X44.845 Y23.066 E.02086
G1 X44.934 Y22.922 E.00532
;WIDTH:0.428257
G1 X45.265 Y22.466 E.01804
;WIDTH:0.430854
G1 X45.743 Y22.042 E.02061
G1 X46.071 Y21.852 E.01225
;WIDTH:0.413568
G1 X46.533 Y21.659 E.01543
;WIDTH:0.428026
G1 X47.056 Y21.542 E.01717
G1 X47.69 Y21.532 E.0203
;WIDTH:0.454027
G1 X48.365 Y21.587 E.02315
G1 X48.869 Y21.597 E.01722
;WIDTH:0.419999
G1 X122.264 Y21.587 E2.30124
;WIDTH:0.434529
G1 X123.585 Y21.52 E.04308
;WIDTH:0.430804
G1 X124.279 Y21.614 E.0226
G1 X124.917 Y21.862 E.02207
;WIDTH:0.428512
G1 X125.481 Y22.253 E.022
;WIDTH:0.430791
G1 X125.903 Y22.735 E.02067
G1 X126.113 Y23.104 E.01369
;WIDTH:0.411928
G1 X126.289 Y23.54 E.01441
;WIDTH:0.430628
G1 X126.389 Y23.99 E.01489
;WIPE_START
G1 F8640
G1 X126.427 Y24.4 E-.0949
G1 X126.347 Y25.861 E-.33798
G1 X126.347 Y28.101 E-.51713
;WIPE_END
G1 E-.05 F2100
G1 Z.4 F10800
G1 X109.043 Y35.911
G1 Z.2
G1 E1 F2100
;TYPE:Perimeter
;WIDTH:0.419999
G1 F1200
G1 X109.992 Y36.784 E.04044
G1 X110.669 Y37.454 E.02986
G1 X111.812 Y38.653 E.05194
G1 X112.669 Y39.637 E.0409
G1 X113.502 Y40.668 E.04156
G1 X114.284 Y41.712 E.0409
G1 X115.015 Y42.767 E.04025
G1 X115.719 Y43.865 E.0409
G1 X116.392 Y45.007 E.04155
G1 X117.003 Y46.136 E.04025
G1 X117.582 Y47.305 E.0409
M73 P2 R49
G1 X118.125 Y48.514 E.04155
M73 Q2 S50
G1 X118.616 Y49.723 E.0409
G1 X119.055 Y50.929 E.04025
G1 X119.436 Y52.107 E.03883
G1 X119.817 Y53.446 E.04363
G1 X120.121 Y54.693 E.04025
G1 X120.383 Y55.971 E.0409
G1 X120.598 Y57.258 E.0409
G1 X120.766 Y58.551 E.0409
G1 X120.887 Y59.871 E.04155
G1 X120.958 Y61.153 E.04025
G1 X120.982 Y62.457 E.0409
G1 X120.959 Y63.762 E.0409
G1 X120.886 Y65.085 E.04155
G1 X120.768 Y66.363 E.04025
G1 X120.601 Y67.657 E.0409
G1 X120.386 Y68.949 E.04105
G1 X120.121 Y70.242 E.04141
G1 X119.817 Y71.49 E.04025
G1 X119.462 Y72.745 E.0409
G1 X119.062 Y73.987 E.0409
G1 X118.616 Y75.213 E.0409
G1 X118.117 Y76.441 E.04156
G1 X117.591 Y77.611 E.04025
G1 X117.013 Y78.781 E.0409
G1 X116.382 Y79.947 E.04155
G1 X115.73 Y81.052 E.04025
G1 X115.241 Y81.816 E.02843
G1 X114.284 Y83.224 E.05337
G1 X113.502 Y84.268 E.0409
G1 X112.319 Y85.7 E.05825
G1 X111.826 Y86.267 E.02355
G1 X110.934 Y87.218 E.0409
G1 X110.007 Y88.137 E.0409
G1 X109.048 Y89.021 E.0409
G1 X108.424 Y89.555 E.02574
G1 X108.042 Y89.88 E.01573
G1 X107.032 Y90.682 E.04044
G1 X106.053 Y91.402 E.03811
G1 X104.906 Y92.186 E.04355
G1 X103.782 Y92.891 E.0416
G1 X102.67 Y93.533 E.04025
G1 X101.576 Y94.112 E.03882
G1 X100.344 Y94.711 E.04294
G1 X99.13 Y95.244 E.0416
G1 X97.936 Y95.716 E.04025
G1 X96.706 Y96.151 E.0409
G1 X95.441 Y96.547 E.04155
G1 X94.182 Y96.89 E.0409
G1 X92.912 Y97.186 E.0409
G1 X91.652 Y97.432 E.04025
G1 X90.343 Y97.639 E.04156
G1 X89.068 Y97.792 E.04025
G1 X87.854 Y97.893 E.03822
G1 X86.466 Y97.96 E.04355
G1 X85.14 Y97.972 E.0416
G1 X83.836 Y97.936 E.0409
G1 X82.555 Y97.853 E.04025
G1 X81.257 Y97.722 E.0409
G1 X79.944 Y97.54 E.04156
G1 X78.745 Y97.328 E.03817
G1 X77.405 Y97.044 E.04294
G1 X76.139 Y96.724 E.04095
G1 X74.867 Y96.352 E.04156
G1 X73.63 Y95.939 E.0409
G1 X72.427 Y95.489 E.04025
G1 X71.223 Y94.987 E.0409
G1 X70.038 Y94.442 E.0409
G1 X68.856 Y93.843 E.04155
G1 X67.79 Y93.254 E.03817
G1 X66.616 Y92.55 E.04294
G1 X65.522 Y91.836 E.04094
G1 X64.511 Y91.121 E.03883
G1 X63.421 Y90.293 E.04294
G1 X62.412 Y89.463 E.04094
G1 X61.436 Y88.597 E.0409
G1 X60.493 Y87.697 E.0409
G1 X59.583 Y86.762 E.0409
G1 X58.799 Y85.895 E.03662
G1 X57.869 Y84.795 E.04518
G1 X57.321 Y84.092 E.02794
G1 X56.307 Y82.712 E.05369
G1 X55.58 Y81.623 E.04107
G1 X54.886 Y80.493 E.04155
G1 X54.255 Y79.376 E.04025
G1 X53.694 Y78.294 E.03821
G1 X53.098 Y77.039 E.04355
G1 X52.576 Y75.819 E.0416
G1 X52.115 Y74.621 E.04025
G1 X51.691 Y73.387 E.0409
G1 X51.313 Y72.139 E.0409
G1 X50.981 Y70.877 E.0409
G1 X50.691 Y69.584 E.04155
G1 X50.455 Y68.316 E.04043
G1 X50.265 Y67.032 E.04072
G1 X50.119 Y65.714 E.04155
G1 X50.025 Y64.434 E.04025
G1 X49.976 Y63.13 E.0409
G1 X49.976 Y61.805 E.04155
G1 X50.024 Y60.522 E.04025
G1 X50.119 Y59.221 E.0409
G1 X50.262 Y57.924 E.0409
G1 X50.453 Y56.634 E.0409
G1 X50.695 Y55.331 E.04155
G1 X50.981 Y54.058 E.0409
G1 X51.307 Y52.816 E.04025
G1 X51.685 Y51.568 E.0409
G1 X52.115 Y50.314 E.04156
G1 X52.576 Y49.116 E.04025
G1 X53.089 Y47.916 E.0409
G1 X53.645 Y46.737 E.0409
G1 X54.255 Y45.56 E.04155
G1 X54.897 Y44.424 E.0409
G1 X55.569 Y43.33 E.04025
G1 X56.292 Y42.245 E.0409
G1 X57.067 Y41.17 E.04156
G1 X57.856 Y40.156 E.04025
G1 X58.694 Y39.157 E.0409
G1 X59.569 Y38.189 E.0409
G1 X60.957 Y36.795 E.06167
G1 X61.421 Y36.352 E.02013
G1 X62.397 Y35.486 E.0409
G1 X63.403 Y34.656 E.0409
G1 X64.112 Y34.115 E.02794
G1 X65.522 Y33.099 E.05451
G1 X66.597 Y32.397 E.04026
G1 X67.714 Y31.724 E.0409
G1 X68.874 Y31.082 E.04155
G1 X70.019 Y30.503 E.04025
G1 X71.204 Y29.956 E.0409
G1 X72.408 Y29.454 E.0409
G1 X73.63 Y28.996 E.0409
G1 X74.46 Y28.719 E.02745
G1 X76.114 Y28.218 E.05418
G1 X77.384 Y27.896 E.04107
G1 X78.68 Y27.618 E.04155
G1 X79.879 Y27.407 E.03817
G1 X81.235 Y27.216 E.04294
G1 X82.555 Y27.082 E.0416
G1 X83.836 Y27 E.04025
G1 X85.054 Y26.966 E.03822
G1 X86.465 Y26.975 E.04424
G1 X87.768 Y27.036 E.0409
G1 X89.048 Y27.142 E.04025
G1 X90.343 Y27.297 E.0409
G1 X91.632 Y27.499 E.0409
G1 X92.932 Y27.753 E.04155
G1 X94.203 Y28.051 E.0409
G1 X95.441 Y28.389 E.04025
G1 X96.686 Y28.778 E.0409
G1 X97.916 Y29.212 E.0409
G1 X99.149 Y29.7 E.04155
G1 X100.324 Y30.215 E.04025
G1 X101.499 Y30.783 E.0409
G1 X102.67 Y31.403 E.04155
G1 X103.8 Y32.055 E.0409
G1 X104.888 Y32.738 E.04025
G1 X105.967 Y33.471 E.0409
G1 X107.035 Y34.256 E.04156
G1 X108.04 Y35.053 E.04025
G1 X108.998 Y35.871 E.03948
G1 X108.788 Y36.188 F10800
;TYPE:External perimeter
G1 F1200
G1 X109.737 Y37.062 E.04043
G1 X110.404 Y37.722 E.02943
G1 X111.537 Y38.911 E.05151
G1 X112.384 Y39.885 E.04047
G1 X113.2 Y40.894 E.04069
G1 X113.974 Y41.927 E.04047
G1 X114.705 Y42.982 E.04025
G1 X115.402 Y44.069 E.04047
G1 X116.061 Y45.186 E.04068
G1 X116.672 Y46.315 E.04025
G1 X117.244 Y47.472 E.04047
G1 X117.776 Y48.656 E.04068
G1 X118.259 Y49.845 E.04025
G1 X118.701 Y51.058 E.04047
G1 X119.073 Y52.211 E.03798
G1 X119.451 Y53.535 E.04317
G1 X119.754 Y54.782 E.04025
G1 X120.013 Y56.047 E.04047
G1 X120.226 Y57.32 E.04047
G1 X120.392 Y58.6 E.04047
G1 X120.511 Y59.892 E.04069
G1 X120.581 Y61.174 E.04025
G1 X120.605 Y62.464 E.04047
G1 X120.582 Y63.755 E.04047
G1 X120.51 Y65.05 E.04069
G1 X120.392 Y66.329 E.04025
G1 X120.227 Y67.609 E.04047
G1 X120.014 Y68.883 E.04052
G1 X119.754 Y70.153 E.04064
G1 X119.451 Y71.4 E.04025
G1 X119.099 Y72.642 E.04047
G1 X118.703 Y73.871 E.04047
G1 X118.262 Y75.084 E.04047
G1 X117.773 Y76.286 E.04069
G1 X117.247 Y77.457 E.04025
G1 X116.675 Y78.614 E.04047
G1 X116.057 Y79.755 E.04069
G1 X115.405 Y80.861 E.04025
G1 X114.924 Y81.613 E.028
G1 X113.974 Y83.009 E.05293
G1 X113.2 Y84.042 E.04047
G1 X112.035 Y85.453 E.05738
G1 X111.541 Y86.019 E.02355
G1 X110.659 Y86.961 E.04047
G1 X109.742 Y87.869 E.04047
G1 X108.792 Y88.743 E.04047
G1 X108.179 Y89.268 E.0253
G1 X106.799 Y90.385 E.05566
G1 X105.829 Y91.098 E.03775
G1 X104.693 Y91.874 E.04314
G1 X103.594 Y92.564 E.0407
G1 X102.482 Y93.206 E.04025
G1 X101.411 Y93.773 E.03798
G1 X100.18 Y94.372 E.04294
G1 X98.991 Y94.893 E.0407
G1 X97.797 Y95.365 E.04025
G1 X96.58 Y95.796 E.04047
G1 X95.342 Y96.183 E.04069
G1 X94.097 Y96.523 E.04047
G1 X92.846 Y96.815 E.04025
G1 X91.58 Y97.062 E.04047
G1 X90.298 Y97.264 E.04069
G1 X89.023 Y97.417 E.04025
G1 X87.822 Y97.517 E.03778
G1 X86.448 Y97.583 E.04314
G1 X85.15 Y97.595 E.0407
G1 X83.86 Y97.56 E.04047
G1 X82.579 Y97.477 E.04025
G1 X81.295 Y97.347 E.04047
G1 X80.009 Y97.169 E.04069
G1 X78.823 Y96.959 E.03777
G1 X77.484 Y96.675 E.04294
G1 X76.225 Y96.357 E.0407
G1 X74.986 Y95.994 E.04047
G1 X73.762 Y95.586 E.04047
G1 X72.56 Y95.136 E.04025
G1 X71.368 Y94.639 E.04047
G1 X70.196 Y94.099 E.04047
G1 X69.038 Y93.513 E.04069
G1 X67.984 Y92.93 E.03777
G1 X66.809 Y92.227 E.04294
G1 X65.728 Y91.521 E.04048
G1 X64.739 Y90.821 E.03798
G1 X63.649 Y89.992 E.04294
G1 X62.652 Y89.172 E.04048
G1 X61.684 Y88.313 E.04056
G1 X60.753 Y87.424 E.04038
G1 X59.853 Y86.499 E.04047
G1 X59.079 Y85.643 E.03619
G1 X58.158 Y84.553 E.04475
G1 X57.625 Y83.869 E.02718
G1 X56.611 Y82.489 E.05369
